infra/render-server/luts/dramatic-cool.cube
TITLE "Dramatic Cool"
LUT_3D_SIZE 5
DOMAIN_MIN 0.0 0.0 0.0
DOMAIN_MAX 1.0 1.0 1.0
0.000000 0.000000 0.000000
0.125490 0.003922 0.003922
0.345098 0.007843 0.007843
0.623529 0.015686 0.015686
0.780392 0.019608 0.019608
0.011765 0.172549 0.015686
0.152941 0.180392 0.019608
0.376471 0.188235 0.023529
0.643137 0.196078 0.031373
0.800000 0.203922 0.039216
0.023529 0.466667 0.031373
0.176471 0.478431 0.039216
0.415686 0.490196 0.047059
0.666667 0.501961 0.050980
0.811765 0.513725 0.054902
0.039216 0.788235 0.050980
0.196078 0.792157 0.058824
0.450980 0.800000 0.062745
0.686275 0.807843 0.066667
0.827451 0.815686 0.078431
0.054902 0.972549 0.074510
0.219608 0.976471 0.078431
0.490196 0.984314 0.082353
0.709804 0.988235 0.090196
0.843137 0.992157 0.094118
0.000000 0.000000 0.160784
0.129412 0.003922 0.168627
0.352941 0.007843 0.176471
0.623529 0.015686 0.192157
0.784314 0.019608 0.200000
0.011765 0.172549 0.192157
0.152941 0.184314 0.203922
0.384314 0.192157 0.211765
0.647059 0.200000 0.223529
0.800000 0.207843 0.231373
0.027451 0.470588 0.223529
0.176471 0.486275 0.231373
0.419608 0.494118 0.239216
0.666667 0.509804 0.247059
0.815686 0.521569 0.258824
0.043137 0.792157 0.250980
0.200000 0.796078 0.262745
0.458824 0.803922 0.270588
0.686275 0.811765 0.278431
0.827451 0.819608 0.286275
0.058824 0.972549 0.282353
0.223529 0.976471 0.298039
0.490196 0.984314 0.305882
0.709804 0.988235 0.313725
0.843137 0.992157 0.321569
0.000000 0.003922 0.443137
0.129412 0.007843 0.454902
0.352941 0.011765 0.466667
0.623529 0.015686 0.482353
0.784314 0.023529 0.494118
0.015686 0.176471 0.490196
0.152941 0.184314 0.498039
0.392157 0.192157 0.517647
0.647059 0.200000 0.525490
0.800000 0.207843 0.541176
0.027451 0.470588 0.525490
0.176471 0.486275 0.541176
0.423529 0.501961 0.560784
0.670588 0.513725 0.572549
0.815686 0.525490 0.588235
0.043137 0.792157 0.572549
0.200000 0.800000 0.588235
0.458824 0.807843 0.603922
0.690196 0.815686 0.615686
0.827451 0.823529 0.631373
0.058824 0.976471 0.627451
0.227451 0.980392 0.639216
0.494118 0.984314 0.650980
0.713725 0.988235 0.666667
0.843137 0.996078 0.682353
0.000000 0.003922 0.807843
0.133333 0.007843 0.815686
0.352941 0.015686 0.823529
0.627451 0.019608 0.827451
0.784314 0.023529 0.835294
0.015686 0.180392 0.831373
0.156863 0.188235 0.843137
0.392157 0.196078 0.850980
0.650980 0.203922 0.858824
0.800000 0.211765 0.866667
0.027451 0.478431 0.862745
0.180392 0.490196 0.870588
0.423529 0.501961 0.882353
0.670588 0.513725 0.886275
0.815686 0.525490 0.894118
0.043137 0.792157 0.886275
0.200000 0.800000 0.894118
0.462745 0.807843 0.901961
0.694118 0.819608 0.917647
0.831373 0.827451 0.925490
0.058824 0.976471 0.917647
0.227451 0.984314 0.925490
0.501961 0.988235 0.933333
0.713725 0.992157 0.941176
0.843137 0.996078 0.952941
0.000000 0.003922 1.000000
0.133333 0.007843 1.000000
0.356863 0.015686 1.000000
0.631373 0.019608 1.000000
0.788235 0.023529 1.000000
0.019608 0.184314 1.000000
0.160784 0.192157 1.000000
0.396078 0.200000 1.000000
0.654902 0.207843 1.000000
0.803922 0.215686 1.000000
0.031373 0.486275 1.000000
0.180392 0.494118 1.000000
0.431373 0.509804 1.000000
0.670588 0.521569 1.000000
0.819608 0.533333 1.000000
0.043137 0.796078 1.000000
0.203922 0.803922 1.000000
0.466667 0.811765 1.000000
0.694118 0.819608 1.000000
0.835294 0.827451 1.000000
0.062745 0.976471 1.000000
0.231373 0.984314 1.000000
0.501961 0.988235 1.000000
0.717647 0.992157 1.000000
0.847059 1.000000 1.000000
