infra/render-server/luts/dramatic-cool.cube
TITLE "Dramatic Cool"
LUT_3D_SIZE 33
DOMAIN_MIN 0.0 0.0 0.0
DOMAIN_MAX 1.0 1.0 1.0
0.000000 0.000000 0.000000
0.011765 0.000000 0.000000
0.027451 0.000000 0.000000
0.043137 0.000000 0.000000
0.058824 0.003922 0.003922
0.070588 0.003922 0.003922
0.086275 0.003922 0.003922
0.101961 0.003922 0.003922
0.125490 0.003922 0.003922
0.152941 0.003922 0.003922
0.176471 0.003922 0.003922
0.200000 0.003922 0.003922
0.223529 0.007843 0.007843
0.247059 0.007843 0.007843
0.274510 0.007843 0.007843
0.309804 0.007843 0.007843
0.345098 0.007843 0.007843
0.376471 0.007843 0.007843
0.415686 0.007843 0.007843
0.450980 0.007843 0.007843
0.490196 0.011765 0.011765
0.529412 0.011765 0.011765
0.564706 0.011765 0.011765
0.600000 0.011765 0.011765
0.623529 0.015686 0.015686
0.643137 0.015686 0.015686
0.666667 0.015686 0.015686
0.686275 0.015686 0.015686
0.709804 0.015686 0.015686
0.733333 0.015686 0.015686
0.752941 0.015686 0.015686
0.768627 0.015686 0.015686
0.780392 0.019608 0.019608
0.000000 0.015686 0.000000
0.011765 0.015686 0.003922
0.027451 0.019608 0.003922
0.043137 0.019608 0.003922
0.058824 0.019608 0.003922
0.070588 0.019608 0.003922
0.086275 0.023529 0.003922
0.105882 0.023529 0.003922
0.129412 0.023529 0.003922
0.152941 0.023529 0.007843
0.176471 0.023529 0.007843
0.200000 0.023529 0.007843
0.227451 0.023529 0.007843
0.250980 0.023529 0.007843
0.278431 0.027451 0.007843
0.313725 0.027451 0.007843
0.352941 0.027451 0.007843
0.376471 0.027451 0.011765
0.415686 0.031373 0.011765
0.458824 0.031373 0.011765
0.494118 0.031373 0.011765
0.533333 0.031373 0.015686
0.572549 0.031373 0.015686
0.603922 0.031373 0.015686
0.623529 0.031373 0.015686
0.647059 0.035294 0.015686
0.670588 0.035294 0.015686
0.690196 0.035294 0.015686
0.713725 0.035294 0.015686
0.733333 0.035294 0.019608
0.752941 0.035294 0.019608
0.768627 0.035294 0.019608
0.784314 0.035294 0.019608
0.000000 0.035294 0.003922
0.015686 0.035294 0.003922
0.027451 0.035294 0.003922
0.043137 0.039216 0.003922
0.058824 0.039216 0.003922
0.070588 0.039216 0.003922
0.090196 0.039216 0.007843
0.109804 0.043137 0.007843
0.133333 0.043137 0.007843
0.156863 0.043137 0.007843
0.180392 0.043137 0.007843
0.203922 0.043137 0.007843
0.231373 0.043137 0.007843
0.254902 0.043137 0.011765
0.286275 0.043137 0.011765
0.317647 0.047059 0.011765
0.352941 0.047059 0.011765
0.384314 0.047059 0.015686
0.419608 0.047059 0.015686
0.458824 0.047059 0.015686
0.494118 0.047059 0.015686
0.533333 0.047059 0.015686
0.576471 0.047059 0.015686
0.607843 0.050980 0.015686
0.627451 0.050980 0.015686
0.650980 0.050980 0.019608
0.670588 0.050980 0.019608
0.694118 0.054902 0.019608
0.717647 0.054902 0.019608
0.737255 0.054902 0.023529
0.756863 0.054902 0.023529
0.772549 0.054902 0.023529
0.784314 0.054902 0.023529
0.000000 0.054902 0.003922
0.019608 0.054902 0.003922
0.031373 0.054902 0.007843
0.043137 0.054902 0.007843
0.062745 0.054902 0.007843
0.074510 0.058824 0.007843
0.090196 0.058824 0.007843
0.109804 0.058824 0.007843
0.133333 0.062745 0.007843
0.160784 0.062745 0.007843
0.184314 0.062745 0.011765
0.207843 0.062745 0.011765
0.235294 0.062745 0.011765
0.258824 0.062745 0.011765
0.290196 0.062745 0.015686
0.325490 0.062745 0.015686
0.356863 0.066667 0.015686
0.392157 0.066667 0.015686
0.423529 0.066667 0.015686
0.462745 0.066667 0.015686
0.501961 0.070588 0.015686
0.537255 0.070588 0.015686
0.576471 0.070588 0.019608
0.607843 0.070588 0.019608
0.631373 0.070588 0.019608
0.654902 0.070588 0.019608
0.674510 0.070588 0.023529
0.698039 0.070588 0.023529
0.721569 0.074510 0.023529
0.741176 0.074510 0.023529
0.756863 0.074510 0.023529
0.776471 0.074510 0.023529
0.788235 0.074510 0.023529
0.003922 0.074510 0.007843
0.019608 0.074510 0.007843
0.035294 0.074510 0.007843
0.047059 0.074510 0.007843
0.062745 0.074510 0.007843
0.078431 0.074510 0.007843
0.090196 0.078431 0.007843
0.109804 0.078431 0.011765
0.133333 0.078431 0.011765
0.160784 0.078431 0.011765
0.184314 0.082353 0.011765
0.211765 0.082353 0.015686
0.239216 0.082353 0.015686
0.262745 0.082353 0.015686
0.294118 0.082353 0.015686
0.333333 0.082353 0.015686
0.364706 0.082353 0.015686
0.396078 0.082353 0.015686
0.431373 0.086275 0.015686
0.466667 0.086275 0.019608
0.505882 0.086275 0.019608
0.545098 0.086275 0.019608
0.580392 0.086275 0.023529
0.611765 0.086275 0.023529
0.631373 0.086275 0.023529
0.654902 0.086275 0.023529
0.674510 0.090196 0.023529
0.701961 0.090196 0.023529
0.725490 0.090196 0.023529
0.745098 0.090196 0.023529
0.760784 0.094118 0.027451
0.776471 0.094118 0.027451
0.792157 0.094118 0.027451
0.003922 0.094118 0.007843
0.019608 0.094118 0.007843
0.035294 0.094118 0.007843
0.050980 0.094118 0.011765
0.066667 0.094118 0.011765
0.078431 0.094118 0.011765
0.094118 0.094118 0.011765
0.113725 0.098039 0.015686
0.137255 0.098039 0.015686
0.164706 0.098039 0.015686
0.188235 0.098039 0.015686
0.211765 0.101961 0.015686
0.239216 0.101961 0.015686
0.266667 0.101961 0.015686
0.298039 0.101961 0.015686
0.333333 0.101961 0.019608
0.372549 0.101961 0.019608
0.400000 0.101961 0.019608
0.435294 0.101961 0.019608
0.474510 0.105882 0.023529
0.509804 0.105882 0.023529
0.549020 0.105882 0.023529
0.588235 0.105882 0.023529
0.615686 0.109804 0.023529
0.635294 0.109804 0.023529
0.658824 0.109804 0.023529
0.678431 0.109804 0.023529
0.701961 0.109804 0.027451
0.725490 0.109804 0.027451
0.749020 0.109804 0.027451
0.760784 0.109804 0.027451
0.776471 0.113725 0.031373
0.792157 0.113725 0.031373
0.007843 0.109804 0.011765
0.023529 0.113725 0.011765
0.039216 0.113725 0.011765
0.050980 0.113725 0.011765
0.066667 0.113725 0.015686
0.082353 0.113725 0.015686
0.094118 0.113725 0.015686
0.117647 0.113725 0.015686
0.145098 0.113725 0.015686
0.168627 0.117647 0.015686
0.192157 0.117647 0.015686
0.215686 0.117647 0.015686
0.243137 0.121569 0.019608
0.266667 0.121569 0.019608
0.298039 0.121569 0.019608
0.333333 0.121569 0.019608
0.376471 0.125490 0.023529
0.403922 0.125490 0.023529
0.443137 0.125490 0.023529
0.478431 0.125490 0.023529
0.517647 0.129412 0.023529
0.552941 0.129412 0.023529
0.592157 0.129412 0.023529
0.619608 0.129412 0.023529
0.639216 0.133333 0.027451
0.662745 0.133333 0.027451
0.682353 0.133333 0.027451
0.705882 0.133333 0.031373
0.725490 0.137255 0.031373
0.749020 0.137255 0.031373
0.760784 0.137255 0.031373
0.776471 0.137255 0.031373
0.796078 0.141176 0.031373
0.011765 0.137255 0.015686
0.023529 0.137255 0.015686
0.039216 0.141176 0.015686
0.054902 0.141176 0.015686
0.066667 0.141176 0.015686
0.086275 0.141176 0.015686
0.098039 0.145098 0.015686
0.121569 0.145098 0.015686
0.149020 0.145098 0.019608
0.172549 0.145098 0.019608
0.196078 0.149020 0.019608
0.219608 0.149020 0.019608
0.243137 0.149020 0.023529
0.270588 0.149020 0.023529
0.305882 0.152941 0.023529
0.337255 0.152941 0.023529
0.376471 0.152941 0.023529
0.411765 0.152941 0.023529
0.443137 0.156863 0.023529
0.486275 0.156863 0.023529
0.521569 0.156863 0.027451
0.560784 0.156863 0.027451
0.600000 0.160784 0.027451
0.619608 0.160784 0.027451
0.643137 0.160784 0.031373
0.666667 0.160784 0.031373
0.686275 0.164706 0.031373
0.709804 0.164706 0.031373
0.729412 0.164706 0.031373
0.752941 0.164706 0.031373
0.764706 0.172549 0.031373
0.780392 0.172549 0.031373
0.796078 0.172549 0.039216
0.011765 0.172549 0.015686
0.023529 0.172549 0.015686
0.039216 0.172549 0.015686
0.058824 0.176471 0.015686
0.070588 0.176471 0.015686
0.086275 0.176471 0.019608
0.101961 0.176471 0.019608
0.125490 0.180392 0.019608
0.152941 0.180392 0.019608
0.176471 0.180392 0.023529
0.200000 0.180392 0.023529
0.223529 0.184314 0.023529
0.247059 0.184314 0.023529
0.274510 0.184314 0.023529
0.309804 0.184314 0.023529
0.345098 0.188235 0.023529
0.376471 0.188235 0.023529
0.411765 0.188235 0.027451
0.443137 0.188235 0.027451
0.490196 0.192157 0.027451
0.529412 0.192157 0.027451
0.564706 0.192157 0.031373
0.600000 0.192157 0.031373
0.623529 0.196078 0.031373
0.643137 0.196078 0.031373
0.666667 0.196078 0.031373
0.686275 0.196078 0.031373
0.709804 0.200000 0.031373
0.733333 0.200000 0.031373
0.752941 0.200000 0.039216
0.768627 0.200000 0.039216
0.780392 0.203922 0.039216
0.800000 0.203922 0.039216
0.011765 0.200000 0.015686
0.027451 0.203922 0.015686
0.043137 0.203922 0.019608
0.058824 0.203922 0.019608
0.070588 0.203922 0.019608
0.086275 0.207843 0.019608
0.105882 0.207843 0.023529
0.129412 0.207843 0.023529
0.152941 0.207843 0.023529
0.176471 0.211765 0.023529
0.200000 0.211765 0.023529
0.227451 0.211765 0.023529
0.250980 0.211765 0.023529
0.278431 0.215686 0.027451
0.313725 0.215686 0.027451
0.352941 0.215686 0.027451
0.384314 0.219608 0.027451
0.415686 0.219608 0.031373
0.450980 0.219608 0.031373
0.490196 0.219608 0.031373
0.529412 0.219608 0.031373
0.564706 0.223529 0.031373
0.603922 0.223529 0.031373
0.623529 0.223529 0.031373
0.647059 0.227451 0.031373
0.670588 0.227451 0.039216
0.690196 0.227451 0.039216
0.713725 0.227451 0.039216
0.733333 0.231373 0.039216
0.752941 0.231373 0.039216
0.768627 0.231373 0.039216
0.784314 0.231373 0.039216
0.800000 0.235294 0.039216
0.015686 0.231373 0.019608
0.027451 0.231373 0.019608
0.043137 0.235294 0.023529
0.058824 0.235294 0.023529
0.070588 0.235294 0.023529
0.086275 0.235294 0.023529
0.105882 0.239216 0.023529
0.129412 0.239216 0.023529
0.156863 0.239216 0.023529
0.180392 0.239216 0.023529
0.203922 0.243137 0.027451
0.231373 0.243137 0.027451
0.254902 0.243137 0.027451
0.286275 0.243137 0.027451
0.317647 0.247059 0.031373
0.352941 0.247059 0.031373
0.392157 0.247059 0.031373
0.419608 0.247059 0.031373
0.458824 0.250980 0.031373
0.494118 0.250980 0.031373
0.533333 0.250980 0.031373
0.572549 0.250980 0.031373
0.603922 0.254902 0.039216
0.623529 0.254902 0.039216
0.650980 0.254902 0.039216
0.670588 0.254902 0.039216
0.694118 0.258824 0.039216
0.717647 0.258824 0.039216
0.737255 0.258824 0.039216
0.756863 0.258824 0.039216
0.772549 0.266667 0.043137
0.784314 0.266667 0.043137
0.800000 0.266667 0.043137
0.019608 0.266667 0.023529
0.031373 0.266667 0.023529
0.043137 0.266667 0.023529
0.062745 0.270588 0.023529
0.074510 0.270588 0.023529
0.090196 0.270588 0.023529
0.109804 0.270588 0.023529
0.133333 0.274510 0.027451
0.156863 0.274510 0.027451
0.180392 0.274510 0.027451
0.203922 0.274510 0.027451
0.235294 0.278431 0.031373
0.258824 0.278431 0.031373
0.290196 0.278431 0.031373
0.325490 0.278431 0.031373
0.356863 0.282353 0.031373
0.396078 0.282353 0.031373
0.423529 0.282353 0.031373
0.462745 0.282353 0.039216
0.501961 0.286275 0.039216
0.537255 0.286275 0.039216
0.576471 0.286275 0.039216
0.607843 0.286275 0.039216
0.627451 0.290196 0.039216
0.650980 0.290196 0.039216
0.670588 0.290196 0.039216
0.694118 0.290196 0.043137
0.721569 0.294118 0.043137
0.741176 0.294118 0.043137
0.756863 0.294118 0.043137
0.776471 0.294118 0.047059
0.788235 0.298039 0.047059
0.803922 0.298039 0.047059
0.019608 0.294118 0.023529
0.035294 0.298039 0.023529
0.047059 0.298039 0.023529
0.062745 0.298039 0.027451
0.078431 0.298039 0.027451
0.090196 0.301961 0.027451
0.109804 0.301961 0.027451
0.133333 0.301961 0.031373
0.160784 0.301961 0.031373
0.184314 0.305882 0.031373
0.207843 0.305882 0.031373
0.235294 0.305882 0.031373
0.258824 0.305882 0.031373
0.294118 0.309804 0.031373
0.333333 0.309804 0.031373
0.364706 0.309804 0.039216
0.400000 0.309804 0.039216
0.431373 0.313725 0.039216
0.466667 0.313725 0.039216
0.505882 0.313725 0.039216
0.545098 0.313725 0.039216
0.580392 0.321569 0.039216
0.611765 0.321569 0.039216
0.631373 0.321569 0.043137
0.654902 0.321569 0.043137
0.674510 0.325490 0.043137
0.698039 0.325490 0.043137
0.721569 0.325490 0.047059
0.741176 0.329412 0.047059
0.760784 0.329412 0.047059
0.776471 0.329412 0.047059
0.792157 0.329412 0.047059
0.803922 0.337255 0.047059
0.019608 0.329412 0.027451
0.035294 0.329412 0.027451
0.050980 0.337255 0.027451
0.066667 0.337255 0.027451
0.078431 0.337255 0.031373
0.094118 0.337255 0.031373
0.113725 0.345098 0.031373
0.137255 0.345098 0.031373
0.164706 0.345098 0.031373
0.188235 0.345098 0.031373
0.211765 0.349020 0.031373
0.239216 0.349020 0.031373
0.262745 0.349020 0.039216
0.294118 0.349020 0.039216
0.333333 0.352941 0.039216
0.364706 0.352941 0.039216
0.403922 0.352941 0.039216
0.435294 0.352941 0.039216
0.474510 0.360784 0.039216
0.509804 0.360784 0.039216
0.549020 0.360784 0.043137
0.588235 0.360784 0.043137
0.615686 0.368627 0.043137
0.635294 0.368627 0.043137
0.658824 0.368627 0.047059
0.678431 0.368627 0.047059
0.701961 0.372549 0.047059
0.725490 0.372549 0.047059
0.745098 0.372549 0.047059
0.760784 0.372549 0.047059
0.776471 0.376471 0.047059
0.792157 0.376471 0.050980
0.807843 0.376471 0.050980
0.023529 0.376471 0.031373
0.039216 0.376471 0.031373
0.050980 0.376471 0.031373
0.066667 0.376471 0.031373
0.082353 0.384314 0.031373
0.094118 0.384314 0.031373
0.117647 0.384314 0.031373
0.145098 0.392157 0.031373
0.168627 0.392157 0.039216
0.192157 0.392157 0.039216
0.215686 0.392157 0.039216
0.243137 0.396078 0.039216
0.266667 0.396078 0.039216
0.298039 0.396078 0.039216
0.333333 0.396078 0.039216
0.372549 0.400000 0.039216
0.403922 0.400000 0.043137
0.443137 0.400000 0.043137
0.478431 0.400000 0.043137
0.517647 0.407843 0.043137
0.552941 0.407843 0.047059
0.592157 0.407843 0.047059
0.619608 0.407843 0.047059
0.639216 0.415686 0.047059
0.662745 0.415686 0.047059
0.682353 0.415686 0.047059
0.705882 0.415686 0.047059
0.725490 0.419608 0.047059
0.749020 0.419608 0.050980
0.760784 0.419608 0.050980
0.776471 0.419608 0.050980
0.792157 0.423529 0.050980
0.807843 0.423529 0.050980
0.023529 0.419608 0.031373
0.039216 0.423529 0.031373
0.050980 0.423529 0.031373
0.066667 0.423529 0.031373
0.086275 0.423529 0.031373
0.098039 0.431373 0.039216
0.121569 0.431373 0.039216
0.149020 0.431373 0.039216
0.172549 0.431373 0.039216
0.196078 0.439216 0.039216
0.219608 0.439216 0.039216
0.243137 0.439216 0.039216
0.270588 0.439216 0.039216
0.305882 0.443137 0.043137
0.337255 0.443137 0.043137
0.376471 0.443137 0.043137
0.411765 0.443137 0.043137
0.443137 0.447059 0.047059
0.478431 0.447059 0.047059
0.521569 0.447059 0.047059
0.560784 0.447059 0.047059
0.600000 0.454902 0.047059
0.619608 0.454902 0.047059
0.643137 0.454902 0.047059
0.666667 0.454902 0.047059
0.686275 0.462745 0.050980
0.709804 0.462745 0.050980
0.729412 0.462745 0.050980
0.752941 0.462745 0.050980
0.764706 0.466667 0.050980
0.780392 0.466667 0.050980
0.796078 0.466667 0.050980
0.811765 0.470588 0.054902
0.023529 0.466667 0.031373
0.039216 0.466667 0.031373
0.054902 0.470588 0.039216
0.066667 0.470588 0.039216
0.086275 0.470588 0.039216
0.101961 0.470588 0.039216
0.125490 0.478431 0.039216
0.152941 0.478431 0.039216
0.176471 0.478431 0.039216
0.200000 0.478431 0.043137
0.223529 0.486275 0.043137
0.247059 0.486275 0.043137
0.274510 0.486275 0.043137
0.309804 0.486275 0.047059
0.345098 0.490196 0.047059
0.376471 0.490196 0.047059
0.415686 0.490196 0.047059
0.443137 0.490196 0.047059
0.486275 0.494118 0.047059
0.521569 0.494118 0.047059
0.560784 0.494118 0.047059
0.600000 0.494118 0.050980
0.623529 0.501961 0.050980
0.643137 0.501961 0.050980
0.666667 0.501961 0.050980
0.686275 0.501961 0.050980
0.709804 0.509804 0.050980
0.733333 0.509804 0.050980
0.752941 0.509804 0.050980
0.768627 0.509804 0.054902
0.780392 0.513725 0.054902
0.800000 0.513725 0.054902
0.811765 0.513725 0.054902
0.027451 0.509804 0.039216
0.043137 0.509804 0.039216
0.058824 0.509804 0.039216
0.070588 0.509804 0.039216
0.086275 0.513725 0.039216
0.101961 0.513725 0.039216
0.125490 0.513725 0.043137
0.152941 0.521569 0.043137
0.176471 0.521569 0.043137
0.200000 0.521569 0.043137
0.227451 0.521569 0.047059
0.250980 0.525490 0.047059
0.278431 0.525490 0.047059
0.313725 0.525490 0.047059
0.352941 0.525490 0.047059
0.384314 0.533333 0.047059
0.419608 0.533333 0.047059
0.450980 0.533333 0.047059
0.490196 0.533333 0.050980
0.529412 0.541176 0.050980
0.564706 0.541176 0.050980
0.600000 0.541176 0.050980
0.623529 0.541176 0.050980
0.643137 0.545098 0.050980
0.666667 0.545098 0.050980
0.686275 0.545098 0.050980
0.713725 0.545098 0.054902
0.733333 0.552941 0.054902
0.752941 0.552941 0.054902
0.768627 0.552941 0.054902
0.784314 0.552941 0.058824
0.800000 0.560784 0.058824
0.815686 0.560784 0.058824
0.027451 0.552941 0.039216
0.043137 0.560784 0.039216
0.058824 0.560784 0.039216
0.070588 0.560784 0.043137
0.086275 0.560784 0.043137
0.105882 0.564706 0.043137
0.129412 0.564706 0.043137
0.152941 0.564706 0.047059
0.176471 0.564706 0.047059
0.200000 0.572549 0.047059
0.227451 0.572549 0.047059
0.250980 0.572549 0.047059
0.286275 0.572549 0.047059
0.317647 0.580392 0.047059
0.352941 0.580392 0.047059
0.392157 0.580392 0.050980
0.423529 0.580392 0.050980
0.458824 0.584314 0.050980
0.494118 0.584314 0.050980
0.533333 0.584314 0.050980
0.572549 0.584314 0.050980
0.603922 0.592157 0.050980
0.623529 0.592157 0.050980
0.647059 0.592157 0.054902
0.670588 0.592157 0.054902
0.690196 0.596078 0.054902
0.713725 0.596078 0.054902
0.733333 0.596078 0.058824
0.756863 0.603922 0.058824
0.772549 0.603922 0.058824
0.784314 0.603922 0.058824
0.800000 0.603922 0.058824
0.815686 0.611765 0.058824
0.031373 0.603922 0.043137
0.043137 0.603922 0.043137
0.062745 0.611765 0.043137
0.074510 0.611765 0.043137
0.090196 0.611765 0.047059
0.109804 0.611765 0.047059
0.133333 0.615686 0.047059
0.156863 0.615686 0.047059
0.180392 0.615686 0.047059
0.203922 0.615686 0.047059
0.231373 0.623529 0.047059
0.254902 0.623529 0.050980
0.286275 0.623529 0.050980
0.317647 0.623529 0.050980
0.352941 0.627451 0.050980
0.396078 0.627451 0.050980
0.431373 0.627451 0.050980
0.462745 0.627451 0.050980
0.501961 0.635294 0.050980
0.537255 0.635294 0.054902
0.576471 0.635294 0.054902
0.607843 0.635294 0.054902
0.627451 0.643137 0.054902
0.650980 0.643137 0.058824
0.670588 0.643137 0.058824
0.694118 0.643137 0.058824
0.717647 0.647059 0.058824
0.737255 0.647059 0.058824
0.756863 0.647059 0.058824
0.772549 0.647059 0.058824
0.784314 0.654902 0.058824
0.803922 0.654902 0.062745
0.819608 0.654902 0.062745
0.035294 0.654902 0.047059
0.047059 0.654902 0.047059
0.062745 0.654902 0.047059
0.078431 0.654902 0.047059
0.090196 0.662745 0.047059
0.109804 0.662745 0.047059
0.133333 0.662745 0.047059
0.160784 0.662745 0.047059
0.184314 0.666667 0.050980
0.207843 0.666667 0.050980
0.235294 0.666667 0.050980
0.258824 0.674510 0.050980
0.290196 0.674510 0.050980
0.325490 0.674510 0.050980
0.356863 0.674510 0.050980
0.396078 0.682353 0.050980
0.431373 0.682353 0.054902
0.466667 0.682353 0.054902
0.505882 0.682353 0.054902
0.545098 0.686275 0.054902
0.580392 0.686275 0.058824
0.611765 0.686275 0.058824
0.631373 0.686275 0.058824
0.654902 0.694118 0.058824
0.674510 0.694118 0.058824
0.698039 0.694118 0.058824
0.721569 0.694118 0.058824
0.741176 0.698039 0.058824
0.756863 0.698039 0.062745
0.776471 0.698039 0.062745
0.788235 0.698039 0.062745
0.803922 0.705882 0.062745
0.819608 0.705882 0.066667
0.035294 0.698039 0.047059
0.047059 0.705882 0.047059
0.066667 0.705882 0.047059
0.078431 0.705882 0.047059
0.094118 0.705882 0.047059
0.113725 0.709804 0.050980
0.137255 0.709804 0.050980
0.164706 0.709804 0.050980
0.188235 0.709804 0.050980
0.211765 0.713725 0.050980
0.239216 0.713725 0.050980
0.262745 0.713725 0.050980
0.294118 0.713725 0.050980
0.333333 0.717647 0.054902
0.364706 0.717647 0.054902
0.400000 0.717647 0.054902
0.435294 0.717647 0.054902
0.466667 0.721569 0.058824
0.509804 0.721569 0.058824
0.549020 0.721569 0.058824
0.588235 0.721569 0.058824
0.615686 0.725490 0.058824
0.635294 0.725490 0.058824
0.658824 0.725490 0.058824
0.678431 0.725490 0.062745
0.701961 0.729412 0.062745
0.725490 0.729412 0.062745
0.745098 0.729412 0.062745
0.760784 0.729412 0.066667
0.776471 0.733333 0.066667
0.792157 0.733333 0.066667
0.803922 0.733333 0.066667
0.819608 0.733333 0.066667
0.035294 0.733333 0.047059
0.050980 0.733333 0.050980
0.066667 0.737255 0.050980
0.078431 0.737255 0.050980
0.094118 0.737255 0.050980
0.117647 0.737255 0.050980
0.145098 0.737255 0.050980
0.168627 0.737255 0.050980
0.192157 0.737255 0.050980
0.215686 0.737255 0.054902
0.243137 0.741176 0.054902
0.266667 0.741176 0.054902
0.298039 0.741176 0.054902
0.333333 0.741176 0.058824
0.372549 0.745098 0.058824
0.403922 0.745098 0.058824
0.443137 0.745098 0.058824
0.474510 0.745098 0.058824
0.509804 0.749020 0.058824
0.549020 0.749020 0.058824
0.588235 0.749020 0.058824
0.619608 0.749020 0.062745
0.639216 0.752941 0.062745
0.662745 0.752941 0.062745
0.682353 0.752941 0.062745
0.705882 0.752941 0.066667
0.725490 0.756863 0.066667
0.749020 0.756863 0.066667
0.760784 0.756863 0.066667
0.776471 0.756863 0.066667
0.792157 0.760784 0.066667
0.807843 0.760784 0.066667
0.819608 0.760784 0.066667
0.039216 0.760784 0.050980
0.050980 0.760784 0.050980
0.066667 0.760784 0.050980
0.082353 0.760784 0.050980
0.094118 0.764706 0.050980
0.117647 0.764706 0.050980
0.145098 0.764706 0.054902
0.172549 0.764706 0.054902
0.196078 0.768627 0.054902
0.219608 0.768627 0.054902
0.243137 0.768627 0.058824
0.270588 0.768627 0.058824
0.305882 0.772549 0.058824
0.337255 0.772549 0.058824
0.376471 0.772549 0.058824
0.411765 0.776471 0.058824
0.443137 0.776471 0.058824
0.478431 0.776471 0.058824
0.517647 0.776471 0.062745
0.552941 0.776471 0.062745
0.592157 0.780392 0.062745
0.619608 0.780392 0.062745
0.639216 0.780392 0.066667
0.666667 0.784314 0.066667
0.686275 0.784314 0.066667
0.709804 0.784314 0.066667
0.729412 0.784314 0.066667
0.752941 0.788235 0.066667
0.764706 0.788235 0.066667
0.780392 0.788235 0.066667
0.796078 0.788235 0.074510
0.811765 0.792157 0.074510
0.823529 0.792157 0.074510
0.039216 0.788235 0.050980
0.054902 0.792157 0.050980
0.066667 0.792157 0.054902
0.086275 0.792157 0.054902
0.098039 0.792157 0.054902
0.121569 0.792157 0.054902
0.149020 0.792157 0.058824
0.172549 0.792157 0.058824
0.196078 0.792157 0.058824
0.219608 0.796078 0.058824
0.247059 0.796078 0.058824
0.274510 0.796078 0.058824
0.309804 0.796078 0.058824
0.345098 0.800000 0.058824
0.376471 0.800000 0.062745
0.415686 0.800000 0.062745
0.450980 0.800000 0.062745
0.486275 0.803922 0.062745
0.521569 0.803922 0.066667
0.560784 0.803922 0.066667
0.600000 0.803922 0.066667
0.619608 0.807843 0.066667
0.643137 0.807843 0.066667
0.666667 0.807843 0.066667
0.686275 0.807843 0.066667
0.709804 0.811765 0.066667
0.733333 0.811765 0.074510
0.752941 0.811765 0.074510
0.768627 0.811765 0.074510
0.780392 0.815686 0.074510
0.800000 0.815686 0.078431
0.811765 0.815686 0.078431
0.827451 0.815686 0.078431
0.043137 0.815686 0.054902
0.058824 0.815686 0.054902
0.070588 0.819608 0.054902
0.086275 0.819608 0.058824
0.101961 0.819608 0.058824
0.125490 0.819608 0.058824
0.152941 0.823529 0.058824
0.176471 0.823529 0.058824
0.200000 0.823529 0.058824
0.223529 0.823529 0.058824
0.247059 0.827451 0.058824
0.274510 0.827451 0.062745
0.313725 0.827451 0.062745
0.352941 0.827451 0.062745
0.384314 0.831373 0.062745
0.419608 0.831373 0.066667
0.458824 0.831373 0.066667
0.490196 0.831373 0.066667
0.529412 0.835294 0.066667
0.564706 0.835294 0.066667
0.600000 0.835294 0.066667
0.623529 0.835294 0.066667
0.643137 0.839216 0.066667
0.666667 0.839216 0.074510
0.686275 0.839216 0.074510
0.709804 0.839216 0.074510
0.733333 0.843137 0.074510
0.752941 0.843137 0.078431
0.768627 0.843137 0.078431
0.784314 0.843137 0.078431
0.800000 0.847059 0.078431
0.815686 0.847059 0.078431
0.827451 0.847059 0.078431
0.043137 0.847059 0.058824
0.058824 0.847059 0.058824
0.070588 0.847059 0.058824
0.086275 0.847059 0.058824
0.105882 0.850980 0.058824
0.129412 0.850980 0.058824
0.152941 0.850980 0.058824
0.176471 0.850980 0.058824
0.200000 0.854902 0.062745
0.227451 0.854902 0.062745
0.250980 0.854902 0.062745
0.278431 0.854902 0.066667
0.313725 0.854902 0.066667
0.352941 0.854902 0.066667
0.384314 0.854902 0.066667
0.423529 0.854902 0.066667
0.462745 0.858824 0.066667
0.494118 0.858824 0.066667
0.533333 0.858824 0.066667
0.572549 0.858824 0.074510
0.603922 0.862745 0.074510
0.623529 0.862745 0.074510
0.647059 0.862745 0.074510
0.670588 0.862745 0.078431
0.690196 0.866667 0.078431
0.713725 0.866667 0.078431
0.733333 0.866667 0.078431
