infra/render-server/luts/dramatic.cube
TITLE "Dramatic"
LUT_3D_SIZE 33
DOMAIN_MIN 0.0 0.0 0.0
DOMAIN_MAX 1.0 1.0 1.0
0.000000 0.000000 0.000000
0.015686 0.000000 0.000000
0.035294 0.000000 0.000000
0.050980 0.000000 0.000000
0.070588 0.003922 0.003922
0.086275 0.003922 0.003922
0.101961 0.003922 0.003922
0.121569 0.003922 0.003922
0.149020 0.003922 0.003922
0.180392 0.003922 0.003922
0.207843 0.003922 0.003922
0.235294 0.003922 0.003922
0.266667 0.007843 0.007843
0.294118 0.007843 0.007843
0.325490 0.007843 0.007843
0.368627 0.007843 0.007843
0.407843 0.007843 0.007843
0.447059 0.007843 0.007843
0.490196 0.007843 0.007843
0.533333 0.007843 0.007843
0.580392 0.011765 0.011765
0.623529 0.011765 0.011765
0.666667 0.011765 0.011765
0.709804 0.011765 0.011765
0.737255 0.015686 0.015686
0.760784 0.015686 0.015686
0.788235 0.015686 0.015686
0.811765 0.015686 0.015686
0.839216 0.015686 0.015686
0.862745 0.015686 0.015686
0.886275 0.015686 0.015686
0.905882 0.015686 0.015686
0.921569 0.019608 0.019608
0.000000 0.015686 0.000000
0.015686 0.015686 0.003922
0.035294 0.019608 0.003922
0.054902 0.019608 0.003922
0.070588 0.019608 0.003922
0.086275 0.019608 0.003922
0.105882 0.023529 0.003922
0.125490 0.023529 0.003922
0.152941 0.023529 0.003922
0.184314 0.023529 0.007843
0.211765 0.023529 0.007843
0.239216 0.023529 0.007843
0.270588 0.023529 0.007843
0.298039 0.023529 0.007843
0.329412 0.027451 0.007843
0.372549 0.027451 0.007843
0.415686 0.027451 0.007843
0.447059 0.027451 0.011765
0.490196 0.031373 0.011765
0.541176 0.031373 0.011765
0.584314 0.031373 0.011765
0.627451 0.031373 0.015686
0.674510 0.031373 0.015686
0.713725 0.031373 0.015686
0.737255 0.031373 0.015686
0.764706 0.035294 0.015686
0.792157 0.035294 0.015686
0.815686 0.035294 0.015686
0.843137 0.035294 0.015686
0.866667 0.035294 0.019608
0.890196 0.035294 0.019608
0.905882 0.035294 0.019608
0.925490 0.035294 0.019608
0.003922 0.035294 0.003922
0.019608 0.035294 0.003922
0.035294 0.035294 0.003922
0.054902 0.039216 0.003922
0.070588 0.039216 0.003922
0.086275 0.039216 0.003922
0.109804 0.039216 0.007843
0.129412 0.043137 0.007843
0.156863 0.043137 0.007843
0.188235 0.043137 0.007843
0.215686 0.043137 0.007843
0.243137 0.043137 0.007843
0.274510 0.043137 0.007843
0.301961 0.043137 0.011765
0.337255 0.043137 0.011765
0.376471 0.047059 0.011765
0.419608 0.047059 0.011765
0.454902 0.047059 0.015686
0.494118 0.047059 0.015686
0.541176 0.047059 0.015686
0.584314 0.047059 0.015686
0.627451 0.047059 0.015686
0.682353 0.047059 0.015686
0.717647 0.050980 0.015686
0.741176 0.050980 0.015686
0.768627 0.050980 0.019608
0.792157 0.050980 0.019608
0.819608 0.054902 0.019608
0.847059 0.054902 0.019608
0.870588 0.054902 0.023529
0.894118 0.054902 0.023529
0.909804 0.054902 0.023529
0.925490 0.054902 0.023529
0.003922 0.054902 0.003922
0.023529 0.054902 0.003922
0.039216 0.054902 0.007843
0.054902 0.054902 0.007843
0.074510 0.054902 0.007843
0.090196 0.058824 0.007843
0.109804 0.058824 0.007843
0.129412 0.058824 0.007843
0.160784 0.062745 0.007843
0.192157 0.062745 0.007843
0.219608 0.062745 0.011765
0.247059 0.062745 0.011765
0.278431 0.062745 0.011765
0.305882 0.062745 0.011765
0.345098 0.062745 0.015686
0.384314 0.062745 0.015686
0.423529 0.066667 0.015686
0.462745 0.066667 0.015686
0.501961 0.066667 0.015686
0.545098 0.066667 0.015686
0.592157 0.070588 0.015686
0.635294 0.070588 0.015686
0.682353 0.070588 0.019608
0.717647 0.070588 0.019608
0.745098 0.070588 0.019608
0.772549 0.070588 0.019608
0.796078 0.070588 0.023529
0.823529 0.070588 0.023529
0.850980 0.074510 0.023529
0.874510 0.074510 0.023529
0.894118 0.074510 0.023529
0.913725 0.074510 0.023529
0.929412 0.074510 0.023529
0.007843 0.074510 0.007843
0.023529 0.074510 0.007843
0.043137 0.074510 0.007843
0.058824 0.074510 0.007843
0.074510 0.074510 0.007843
0.094118 0.074510 0.007843
0.109804 0.078431 0.007843
0.133333 0.078431 0.011765
0.160784 0.078431 0.011765
0.192157 0.078431 0.011765
0.219608 0.082353 0.011765
0.250980 0.082353 0.015686
0.282353 0.082353 0.015686
0.309804 0.082353 0.015686
0.349020 0.082353 0.015686
0.392157 0.082353 0.015686
0.431373 0.082353 0.015686
0.466667 0.082353 0.015686
0.509804 0.086275 0.015686
0.552941 0.086275 0.019608
0.596078 0.086275 0.019608
0.643137 0.086275 0.019608
0.686275 0.086275 0.023529
0.721569 0.086275 0.023529
0.745098 0.086275 0.023529
0.772549 0.086275 0.023529
0.796078 0.090196 0.023529
0.827451 0.090196 0.023529
0.854902 0.090196 0.023529
0.878431 0.090196 0.023529
0.898039 0.094118 0.027451
0.913725 0.094118 0.027451
0.933333 0.094118 0.027451
0.007843 0.094118 0.007843
0.027451 0.094118 0.007843
0.043137 0.094118 0.007843
0.062745 0.094118 0.011765
0.078431 0.094118 0.011765
0.094118 0.094118 0.011765
0.113725 0.094118 0.011765
0.137255 0.098039 0.015686
0.164706 0.098039 0.015686
0.196078 0.098039 0.015686
0.223529 0.098039 0.015686
0.250980 0.101961 0.015686
0.282353 0.101961 0.015686
0.313725 0.101961 0.015686
0.352941 0.101961 0.015686
0.396078 0.101961 0.019608
0.439216 0.101961 0.019608
0.470588 0.101961 0.019608
0.513725 0.101961 0.019608
0.560784 0.105882 0.023529
0.603922 0.105882 0.023529
0.647059 0.105882 0.023529
0.694118 0.105882 0.023529
0.725490 0.109804 0.023529
0.749020 0.109804 0.023529
0.776471 0.109804 0.023529
0.800000 0.109804 0.023529
0.827451 0.109804 0.027451
0.854902 0.109804 0.027451
0.882353 0.109804 0.027451
0.898039 0.109804 0.027451
0.917647 0.113725 0.031373
0.933333 0.113725 0.031373
0.011765 0.109804 0.011765
0.031373 0.113725 0.011765
0.047059 0.113725 0.011765
0.062745 0.113725 0.011765
0.082353 0.113725 0.015686
0.098039 0.113725 0.015686
0.113725 0.113725 0.015686
0.141176 0.113725 0.015686
0.172549 0.113725 0.015686
0.200000 0.117647 0.015686
0.227451 0.117647 0.015686
0.254902 0.117647 0.015686
0.286275 0.121569 0.019608
0.313725 0.121569 0.019608
0.352941 0.121569 0.019608
0.396078 0.121569 0.019608
0.443137 0.125490 0.023529
0.478431 0.125490 0.023529
0.521569 0.125490 0.023529
0.564706 0.125490 0.023529
0.611765 0.129412 0.023529
0.654902 0.129412 0.023529
0.698039 0.129412 0.023529
0.729412 0.129412 0.023529
0.752941 0.133333 0.027451
0.780392 0.133333 0.027451
0.803922 0.133333 0.027451
0.831373 0.133333 0.031373
0.854902 0.137255 0.031373
0.882353 0.137255 0.031373
0.898039 0.137255 0.031373
0.917647 0.137255 0.031373
0.937255 0.141176 0.031373
0.015686 0.137255 0.015686
0.031373 0.137255 0.015686
0.047059 0.141176 0.015686
0.066667 0.141176 0.015686
0.082353 0.141176 0.015686
0.101961 0.141176 0.015686
0.117647 0.145098 0.015686
0.145098 0.145098 0.015686
0.176471 0.145098 0.019608
0.203922 0.145098 0.019608
0.231373 0.149020 0.019608
0.258824 0.149020 0.019608
0.290196 0.149020 0.023529
0.321569 0.149020 0.023529
0.360784 0.152941 0.023529
0.400000 0.152941 0.023529
0.443137 0.152941 0.023529
0.486275 0.152941 0.023529
0.525490 0.156863 0.023529
0.572549 0.156863 0.023529
0.615686 0.156863 0.027451
0.662745 0.156863 0.027451
0.705882 0.160784 0.027451
0.733333 0.160784 0.027451
0.756863 0.160784 0.031373
0.784314 0.160784 0.031373
0.807843 0.164706 0.031373
0.835294 0.164706 0.031373
0.858824 0.164706 0.031373
0.886275 0.164706 0.031373
0.901961 0.172549 0.031373
0.921569 0.172549 0.031373
0.937255 0.172549 0.035294
0.015686 0.172549 0.015686
0.031373 0.172549 0.015686
0.047059 0.172549 0.015686
0.070588 0.176471 0.015686
0.086275 0.176471 0.015686
0.101961 0.176471 0.019608
0.121569 0.176471 0.019608
0.149020 0.180392 0.019608
0.180392 0.180392 0.019608
0.207843 0.180392 0.023529
0.235294 0.180392 0.023529
0.266667 0.184314 0.023529
0.294118 0.184314 0.023529
0.325490 0.184314 0.023529
0.368627 0.184314 0.023529
0.407843 0.188235 0.023529
0.447059 0.188235 0.023529
0.486275 0.188235 0.027451
0.525490 0.188235 0.027451
0.580392 0.192157 0.027451
0.623529 0.192157 0.027451
0.666667 0.192157 0.031373
0.709804 0.192157 0.031373
0.737255 0.196078 0.031373
0.760784 0.196078 0.031373
0.788235 0.196078 0.031373
0.811765 0.196078 0.031373
0.839216 0.200000 0.031373
0.862745 0.200000 0.031373
0.886275 0.200000 0.035294
0.905882 0.200000 0.035294
0.921569 0.203922 0.035294
0.941176 0.203922 0.035294
0.015686 0.200000 0.015686
0.035294 0.203922 0.015686
0.050980 0.203922 0.019608
0.070588 0.203922 0.019608
0.086275 0.203922 0.019608
0.101961 0.207843 0.019608
0.125490 0.207843 0.023529
0.152941 0.207843 0.023529
0.184314 0.207843 0.023529
0.211765 0.211765 0.023529
0.239216 0.211765 0.023529
0.270588 0.211765 0.023529
0.298039 0.211765 0.023529
0.329412 0.215686 0.027451
0.372549 0.215686 0.027451
0.415686 0.215686 0.027451
0.454902 0.219608 0.027451
0.490196 0.219608 0.031373
0.533333 0.219608 0.031373
0.580392 0.219608 0.031373
0.623529 0.219608 0.031373
0.666667 0.223529 0.031373
0.713725 0.223529 0.031373
0.737255 0.223529 0.031373
0.764706 0.227451 0.031373
0.792157 0.227451 0.035294
0.815686 0.227451 0.035294
0.843137 0.227451 0.035294
0.866667 0.231373 0.035294
0.890196 0.231373 0.035294
0.905882 0.231373 0.035294
0.925490 0.231373 0.035294
0.941176 0.235294 0.035294
0.019608 0.231373 0.019608
0.035294 0.231373 0.019608
0.054902 0.235294 0.023529
0.070588 0.235294 0.023529
0.086275 0.235294 0.023529
0.105882 0.235294 0.023529
0.125490 0.239216 0.023529
0.152941 0.239216 0.023529
0.188235 0.239216 0.023529
0.215686 0.239216 0.023529
0.243137 0.243137 0.027451
0.274510 0.243137 0.027451
0.301961 0.243137 0.027451
0.337255 0.243137 0.027451
0.376471 0.247059 0.031373
0.419608 0.247059 0.031373
0.462745 0.247059 0.031373
0.494118 0.247059 0.031373
0.541176 0.250980 0.031373
0.584314 0.250980 0.031373
0.627451 0.250980 0.031373
0.674510 0.250980 0.031373
0.713725 0.254902 0.035294
0.737255 0.254902 0.035294
0.768627 0.254902 0.035294
0.792157 0.254902 0.035294
0.819608 0.258824 0.035294
0.847059 0.258824 0.035294
0.870588 0.258824 0.035294
0.894118 0.258824 0.035294
0.909804 0.266667 0.039216
0.925490 0.266667 0.039216
0.945098 0.266667 0.039216
0.023529 0.266667 0.023529
0.039216 0.266667 0.023529
0.054902 0.266667 0.023529
0.074510 0.270588 0.023529
0.090196 0.270588 0.023529
0.109804 0.270588 0.023529
0.129412 0.270588 0.023529
0.156863 0.274510 0.027451
0.188235 0.274510 0.027451
0.215686 0.274510 0.027451
0.243137 0.274510 0.027451
0.278431 0.278431 0.031373
0.305882 0.278431 0.031373
0.345098 0.278431 0.031373
0.384314 0.278431 0.031373
0.423529 0.282353 0.031373
0.466667 0.282353 0.031373
0.501961 0.282353 0.031373
0.545098 0.282353 0.035294
0.592157 0.286275 0.035294
0.635294 0.286275 0.035294
0.682353 0.286275 0.035294
0.717647 0.286275 0.035294
0.741176 0.290196 0.035294
0.768627 0.290196 0.035294
0.792157 0.290196 0.035294
0.819608 0.290196 0.039216
0.850980 0.294118 0.039216
0.874510 0.294118 0.039216
0.894118 0.294118 0.039216
0.913725 0.294118 0.043137
0.929412 0.298039 0.043137
0.949020 0.298039 0.043137
0.023529 0.294118 0.023529
0.043137 0.298039 0.023529
0.058824 0.298039 0.023529
0.074510 0.298039 0.027451
0.094118 0.298039 0.027451
0.109804 0.301961 0.027451
0.133333 0.301961 0.027451
0.160784 0.301961 0.031373
0.192157 0.301961 0.031373
0.219608 0.305882 0.031373
0.247059 0.305882 0.031373
0.278431 0.305882 0.031373
0.305882 0.305882 0.031373
0.349020 0.309804 0.031373
0.392157 0.309804 0.031373
0.431373 0.309804 0.035294
0.470588 0.309804 0.035294
0.509804 0.313725 0.035294
0.552941 0.313725 0.035294
0.596078 0.313725 0.035294
0.643137 0.313725 0.035294
0.686275 0.321569 0.035294
0.721569 0.321569 0.035294
0.745098 0.321569 0.039216
0.772549 0.321569 0.039216
0.796078 0.325490 0.039216
0.823529 0.325490 0.039216
0.850980 0.325490 0.043137
0.874510 0.329412 0.043137
0.898039 0.329412 0.043137
0.913725 0.329412 0.043137
0.933333 0.329412 0.043137
0.949020 0.337255 0.043137
0.027451 0.329412 0.027451
0.043137 0.329412 0.027451
0.062745 0.337255 0.027451
0.078431 0.337255 0.027451
0.094118 0.337255 0.031373
0.113725 0.337255 0.031373
0.137255 0.345098 0.031373
0.164706 0.345098 0.031373
0.196078 0.345098 0.031373
0.223529 0.345098 0.031373
0.250980 0.349020 0.031373
0.282353 0.349020 0.031373
0.309804 0.349020 0.035294
0.349020 0.349020 0.035294
0.392157 0.352941 0.035294
0.431373 0.352941 0.035294
0.478431 0.352941 0.035294
0.513725 0.352941 0.035294
0.560784 0.360784 0.035294
0.603922 0.360784 0.035294
0.647059 0.360784 0.039216
0.694118 0.360784 0.039216
0.725490 0.368627 0.039216
0.749020 0.368627 0.039216
0.776471 0.368627 0.043137
0.800000 0.368627 0.043137
0.827451 0.372549 0.043137
0.854902 0.372549 0.043137
0.878431 0.372549 0.043137
0.898039 0.372549 0.043137
0.913725 0.376471 0.043137
0.933333 0.376471 0.047059
0.952941 0.376471 0.047059
0.031373 0.376471 0.031373
0.047059 0.376471 0.031373
0.062745 0.376471 0.031373
0.082353 0.376471 0.031373
0.098039 0.384314 0.031373
0.113725 0.384314 0.031373
0.141176 0.384314 0.031373
0.172549 0.392157 0.031373
0.200000 0.392157 0.035294
0.227451 0.392157 0.035294
0.254902 0.392157 0.035294
0.286275 0.396078 0.035294
0.313725 0.396078 0.035294
0.352941 0.396078 0.035294
0.396078 0.396078 0.035294
0.439216 0.400000 0.035294
0.478431 0.400000 0.039216
0.521569 0.400000 0.039216
0.564706 0.400000 0.039216
0.611765 0.407843 0.039216
0.654902 0.407843 0.043137
0.698039 0.407843 0.043137
0.729412 0.407843 0.043137
0.752941 0.415686 0.043137
0.780392 0.415686 0.043137
0.803922 0.415686 0.043137
0.831373 0.415686 0.043137
0.854902 0.419608 0.043137
0.882353 0.419608 0.047059
0.898039 0.419608 0.047059
0.917647 0.419608 0.047059
0.933333 0.423529 0.047059
0.952941 0.423529 0.047059
0.031373 0.419608 0.031373
0.047059 0.423529 0.031373
0.062745 0.423529 0.031373
0.082353 0.423529 0.031373
0.101961 0.423529 0.031373
0.117647 0.431373 0.035294
0.145098 0.431373 0.035294
0.176471 0.431373 0.035294
0.203922 0.431373 0.035294
0.231373 0.439216 0.035294
0.258824 0.439216 0.035294
0.290196 0.439216 0.035294
0.321569 0.439216 0.035294
0.360784 0.443137 0.039216
0.400000 0.443137 0.039216
0.443137 0.443137 0.039216
0.486275 0.443137 0.039216
0.521569 0.447059 0.043137
0.564706 0.447059 0.043137
0.615686 0.447059 0.043137
0.662745 0.447059 0.043137
0.705882 0.454902 0.043137
0.733333 0.454902 0.043137
0.756863 0.454902 0.043137
0.784314 0.454902 0.043137
0.807843 0.462745 0.047059
0.835294 0.462745 0.047059
0.858824 0.462745 0.047059
0.886275 0.462745 0.047059
0.901961 0.466667 0.047059
0.921569 0.466667 0.047059
0.937255 0.466667 0.047059
0.956863 0.470588 0.050980
0.031373 0.466667 0.031373
0.047059 0.466667 0.031373
0.066667 0.470588 0.035294
0.082353 0.470588 0.035294
0.101961 0.470588 0.035294
0.121569 0.470588 0.035294
0.149020 0.478431 0.035294
0.180392 0.478431 0.035294
0.207843 0.478431 0.035294
0.235294 0.478431 0.039216
0.266667 0.486275 0.039216
0.294118 0.486275 0.039216
0.325490 0.486275 0.039216
0.368627 0.486275 0.043137
0.407843 0.490196 0.043137
0.447059 0.490196 0.043137
0.490196 0.490196 0.043137
0.525490 0.490196 0.043137
0.572549 0.494118 0.043137
0.615686 0.494118 0.043137
0.662745 0.494118 0.043137
0.709804 0.494118 0.047059
0.737255 0.501961 0.047059
0.760784 0.501961 0.047059
0.788235 0.501961 0.047059
0.811765 0.501961 0.047059
0.839216 0.509804 0.047059
0.862745 0.509804 0.047059
0.886275 0.509804 0.047059
0.905882 0.509804 0.050980
0.921569 0.513725 0.050980
0.941176 0.513725 0.050980
0.956863 0.513725 0.050980
0.035294 0.509804 0.035294
0.050980 0.509804 0.035294
0.070588 0.509804 0.035294
0.086275 0.509804 0.035294
0.101961 0.513725 0.035294
0.121569 0.513725 0.035294
0.149020 0.513725 0.039216
0.180392 0.521569 0.039216
0.207843 0.521569 0.039216
0.235294 0.521569 0.039216
0.270588 0.521569 0.043137
0.298039 0.525490 0.043137
0.329412 0.525490 0.043137
0.372549 0.525490 0.043137
0.415686 0.525490 0.043137
0.454902 0.533333 0.043137
0.494118 0.533333 0.043137
0.533333 0.533333 0.043137
0.580392 0.533333 0.047059
0.623529 0.541176 0.047059
0.666667 0.541176 0.047059
0.709804 0.541176 0.047059
0.737255 0.541176 0.047059
0.760784 0.545098 0.047059
0.788235 0.545098 0.047059
0.811765 0.545098 0.047059
0.843137 0.545098 0.050980
0.866667 0.552941 0.050980
0.890196 0.552941 0.050980
0.905882 0.552941 0.050980
0.925490 0.552941 0.054902
0.941176 0.560784 0.054902
0.960784 0.560784 0.054902
0.035294 0.552941 0.035294
0.054902 0.560784 0.035294
0.070588 0.560784 0.035294
0.086275 0.560784 0.039216
0.105882 0.560784 0.039216
0.125490 0.564706 0.039216
0.152941 0.564706 0.039216
0.184314 0.564706 0.043137
0.211765 0.564706 0.043137
0.239216 0.572549 0.043137
0.270588 0.572549 0.043137
0.298039 0.572549 0.043137
0.337255 0.572549 0.043137
0.376471 0.580392 0.043137
0.419608 0.580392 0.043137
0.462745 0.580392 0.047059
0.501961 0.580392 0.047059
0.541176 0.584314 0.047059
0.584314 0.584314 0.047059
0.627451 0.584314 0.047059
0.674510 0.584314 0.047059
0.713725 0.592157 0.047059
0.737255 0.592157 0.047059
0.764706 0.592157 0.050980
0.792157 0.592157 0.050980
0.815686 0.596078 0.050980
0.843137 0.596078 0.050980
0.866667 0.596078 0.054902
0.894118 0.603922 0.054902
0.909804 0.603922 0.054902
0.925490 0.603922 0.054902
0.945098 0.603922 0.054902
0.960784 0.611765 0.054902
0.039216 0.603922 0.039216
0.054902 0.603922 0.039216
0.074510 0.611765 0.039216
0.090196 0.611765 0.039216
0.109804 0.611765 0.043137
0.129412 0.611765 0.043137
0.156863 0.615686 0.043137
0.188235 0.615686 0.043137
0.215686 0.615686 0.043137
0.243137 0.615686 0.043137
0.274510 0.623529 0.043137
0.301961 0.623529 0.047059
0.337255 0.623529 0.047059
0.376471 0.623529 0.047059
0.419608 0.627451 0.047059
0.466667 0.627451 0.047059
0.509804 0.627451 0.047059
0.545098 0.627451 0.047059
0.592157 0.635294 0.047059
0.635294 0.635294 0.050980
0.682353 0.635294 0.050980
0.717647 0.635294 0.050980
0.741176 0.643137 0.050980
0.768627 0.643137 0.054902
0.792157 0.643137 0.054902
0.819608 0.643137 0.054902
0.847059 0.647059 0.054902
0.870588 0.647059 0.054902
0.894118 0.647059 0.054902
0.909804 0.647059 0.054902
0.925490 0.654902 0.054902
0.949020 0.654902 0.058824
0.964706 0.654902 0.058824
0.043137 0.654902 0.043137
0.058824 0.654902 0.043137
0.074510 0.654902 0.043137
0.094118 0.654902 0.043137
0.109804 0.662745 0.043137
0.133333 0.662745 0.043137
0.160784 0.662745 0.043137
0.192157 0.662745 0.043137
0.219608 0.666667 0.047059
0.247059 0.666667 0.047059
0.278431 0.666667 0.047059
0.305882 0.674510 0.047059
0.345098 0.674510 0.047059
0.384314 0.674510 0.047059
0.423529 0.674510 0.047059
0.466667 0.682353 0.047059
0.509804 0.682353 0.050980
0.552941 0.682353 0.050980
0.596078 0.682353 0.050980
0.643137 0.686275 0.050980
0.686275 0.686275 0.054902
0.721569 0.686275 0.054902
0.745098 0.686275 0.054902
0.772549 0.694118 0.054902
0.796078 0.694118 0.054902
0.823529 0.694118 0.054902
0.850980 0.694118 0.054902
0.874510 0.698039 0.054902
0.894118 0.698039 0.058824
0.913725 0.698039 0.058824
0.929412 0.698039 0.058824
0.949020 0.705882 0.058824
0.964706 0.705882 0.062745
0.043137 0.698039 0.043137
0.058824 0.705882 0.043137
0.078431 0.705882 0.043137
0.094118 0.705882 0.043137
0.113725 0.705882 0.043137
0.137255 0.709804 0.047059
0.164706 0.709804 0.047059
0.196078 0.709804 0.047059
0.223529 0.709804 0.047059
0.250980 0.713725 0.047059
0.282353 0.713725 0.047059
0.309804 0.713725 0.047059
0.349020 0.713725 0.047059
0.392157 0.717647 0.050980
0.431373 0.717647 0.050980
0.470588 0.717647 0.050980
0.513725 0.717647 0.050980
0.552941 0.721569 0.054902
0.603922 0.721569 0.054902
0.647059 0.721569 0.054902
0.694118 0.721569 0.054902
0.725490 0.725490 0.054902
0.749020 0.725490 0.054902
0.776471 0.725490 0.054902
0.800000 0.725490 0.058824
0.827451 0.729412 0.058824
0.854902 0.729412 0.058824
0.878431 0.729412 0.058824
0.898039 0.729412 0.062745
0.913725 0.733333 0.062745
0.933333 0.733333 0.062745
0.949020 0.733333 0.062745
0.968627 0.733333 0.062745
0.043137 0.733333 0.043137
0.062745 0.733333 0.047059
0.078431 0.737255 0.047059
0.094118 0.737255 0.047059
0.113725 0.737255 0.047059
0.141176 0.737255 0.047059
0.172549 0.737255 0.047059
0.200000 0.737255 0.047059
0.227451 0.737255 0.047059
0.254902 0.737255 0.050980
0.286275 0.741176 0.050980
0.313725 0.741176 0.050980
0.352941 0.741176 0.050980
0.396078 0.741176 0.054902
0.439216 0.745098 0.054902
0.478431 0.745098 0.054902
0.521569 0.745098 0.054902
0.560784 0.745098 0.054902
0.603922 0.749020 0.054902
0.647059 0.749020 0.054902
0.694118 0.749020 0.054902
0.729412 0.749020 0.058824
0.752941 0.752941 0.058824
0.780392 0.752941 0.058824
0.803922 0.752941 0.058824
0.831373 0.752941 0.062745
0.854902 0.756863 0.062745
0.882353 0.756863 0.062745
0.898039 0.756863 0.062745
0.917647 0.756863 0.062745
0.933333 0.760784 0.062745
0.952941 0.760784 0.062745
0.968627 0.760784 0.062745
0.047059 0.760784 0.047059
0.062745 0.760784 0.047059
0.082353 0.760784 0.047059
0.098039 0.760784 0.047059
0.113725 0.764706 0.047059
0.141176 0.764706 0.047059
0.172549 0.764706 0.050980
0.203922 0.764706 0.050980
0.231373 0.768627 0.050980
0.258824 0.768627 0.050980
0.290196 0.768627 0.054902
0.321569 0.768627 0.054902
0.360784 0.772549 0.054902
0.400000 0.772549 0.054902
0.443137 0.772549 0.054902
0.486275 0.776471 0.054902
0.525490 0.776471 0.054902
0.564706 0.776471 0.054902
0.611765 0.776471 0.058824
0.654902 0.776471 0.058824
0.698039 0.780392 0.058824
0.729412 0.780392 0.058824
0.752941 0.780392 0.062745
0.784314 0.784314 0.062745
0.807843 0.784314 0.062745
0.835294 0.784314 0.062745
0.858824 0.784314 0.062745
0.886275 0.788235 0.062745
0.901961 0.788235 0.062745
0.921569 0.788235 0.062745
0.937255 0.788235 0.066667
0.956863 0.792157 0.066667
0.972549 0.792157 0.066667
0.047059 0.788235 0.047059
0.066667 0.792157 0.047059
0.082353 0.792157 0.050980
0.101961 0.792157 0.050980
0.117647 0.792157 0.050980
0.145098 0.792157 0.050980
0.176471 0.792157 0.054902
0.203922 0.792157 0.054902
0.231373 0.792157 0.054902
0.258824 0.796078 0.054902
0.294118 0.796078 0.054902
0.325490 0.796078 0.054902
0.368627 0.796078 0.054902
0.407843 0.800000 0.054902
0.447059 0.800000 0.058824
0.490196 0.800000 0.058824
0.533333 0.800000 0.058824
0.572549 0.803922 0.058824
0.615686 0.803922 0.062745
0.662745 0.803922 0.062745
0.705882 0.803922 0.062745
0.733333 0.807843 0.062745
0.756863 0.807843 0.062745
0.784314 0.807843 0.062745
0.807843 0.807843 0.062745
0.835294 0.811765 0.062745
0.862745 0.811765 0.066667
0.886275 0.811765 0.066667
0.905882 0.811765 0.066667
0.921569 0.815686 0.066667
0.941176 0.815686 0.070588
0.956863 0.815686 0.070588
0.976471 0.815686 0.070588
0.050980 0.815686 0.050980
0.070588 0.815686 0.050980
0.086275 0.819608 0.050980
0.101961 0.819608 0.054902
0.121569 0.819608 0.054902
0.149020 0.819608 0.054902
0.180392 0.823529 0.054902
0.207843 0.823529 0.054902
0.235294 0.823529 0.054902
0.266667 0.823529 0.054902
0.294118 0.827451 0.054902
0.325490 0.827451 0.058824
0.372549 0.827451 0.058824
0.415686 0.827451 0.058824
0.454902 0.831373 0.058824
0.494118 0.831373 0.062745
0.541176 0.831373 0.062745
0.580392 0.831373 0.062745
0.623529 0.835294 0.062745
0.666667 0.835294 0.062745
0.709804 0.835294 0.062745
0.737255 0.835294 0.062745
0.760784 0.839216 0.062745
0.788235 0.839216 0.066667
0.811765 0.839216 0.066667
0.839216 0.839216 0.066667
0.862745 0.843137 0.066667
0.886275 0.843137 0.070588
0.905882 0.843137 0.070588
0.925490 0.843137 0.070588
0.941176 0.847059 0.070588
0.960784 0.847059 0.070588
0.976471 0.847059 0.070588
0.054902 0.847059 0.054902
0.070588 0.847059 0.054902
0.086275 0.847059 0.054902
0.105882 0.847059 0.054902
0.125490 0.850980 0.054902
0.152941 0.850980 0.054902
0.184314 0.850980 0.054902
0.211765 0.850980 0.054902
0.239216 0.854902 0.058824
0.270588 0.854902 0.058824
0.298039 0.854902 0.058824
0.329412 0.854902 0.062745
0.372549 0.854902 0.062745
0.415686 0.854902 0.062745
0.454902 0.854902 0.062745
0.501961 0.854902 0.062745
0.545098 0.858824 0.062745
0.584314 0.858824 0.062745
0.627451 0.858824 0.062745
0.674510 0.858824 0.066667
0.713725 0.862745 0.066667
0.737255 0.862745 0.066667
0.764706 0.862745 0.066667
0.792157 0.862745 0.070588
0.815686 0.866667 0.070588
0.843137 0.866667 0.070588
0.866667 0.866667 0.070588
0.890196 0.870588 0.070588
