infra/render-server/luts/dramatic.cube
TITLE "Dramatic"
LUT_3D_SIZE 5
DOMAIN_MIN 0.0 0.0 0.0
DOMAIN_MAX 1.0 1.0 1.0
0.000000 0.000000 0.000000
0.149020 0.003922 0.003922
0.407843 0.007843 0.007843
0.737255 0.015686 0.015686
0.921569 0.019608 0.019608
0.015686 0.172549 0.015686
0.180392 0.180392 0.019608
0.447059 0.188235 0.023529
0.760784 0.196078 0.031373
0.941176 0.203922 0.035294
0.031373 0.466667 0.031373
0.207843 0.478431 0.035294
0.490196 0.490196 0.043137
0.788235 0.501961 0.047059
0.956863 0.513725 0.050980
0.047059 0.788235 0.047059
0.231373 0.792157 0.054902
0.533333 0.800000 0.058824
0.807843 0.807843 0.062745
0.976471 0.815686 0.070588
0.066667 0.972549 0.066667
0.258824 0.976471 0.070588
0.580392 0.984314 0.074510
0.835294 0.988235 0.082353
0.992157 0.992157 0.086275
0.000000 0.000000 0.145098
0.152941 0.003922 0.152941
0.415686 0.007843 0.160784
0.737255 0.015686 0.172549
0.925490 0.019608 0.180392
0.015686 0.172549 0.172549
0.184314 0.184314 0.184314
0.454902 0.192157 0.192157
0.764706 0.200000 0.200000
0.941176 0.207843 0.207843
0.035294 0.470588 0.200000
0.207843 0.486275 0.207843
0.494118 0.494118 0.215686
0.788235 0.509804 0.223529
0.960784 0.521569 0.231373
0.050980 0.792157 0.227451
0.235294 0.796078 0.235294
0.541176 0.803922 0.243137
0.811765 0.811765 0.250980
0.976471 0.819608 0.258824
0.070588 0.972549 0.254902
0.266667 0.976471 0.266667
0.580392 0.984314 0.274510
0.839216 0.988235 0.282353
0.992157 0.992157 0.290196
0.003922 0.003922 0.396078
0.152941 0.007843 0.407843
0.419608 0.011765 0.419608
0.737255 0.015686 0.431373
0.925490 0.023529 0.443137
0.019608 0.176471 0.439216
0.184314 0.184314 0.447059
0.462745 0.192157 0.462745
0.764706 0.200000 0.470588
0.945098 0.207843 0.486275
0.035294 0.470588 0.470588
0.211765 0.486275 0.486275
0.501961 0.501961 0.501961
0.792157 0.513725 0.513725
0.960784 0.525490 0.525490
0.050980 0.792157 0.513725
0.239216 0.800000 0.525490
0.541176 0.807843 0.541176
0.815686 0.815686 0.552941
0.976471 0.823529 0.564706
0.070588 0.976471 0.560784
0.270588 0.980392 0.572549
0.584314 0.984314 0.584314
0.843137 0.988235 0.596078
0.996078 0.996078 0.611765
0.003922 0.003922 0.721569
0.156863 0.007843 0.729412
0.419608 0.015686 0.737255
0.741176 0.019608 0.741176
0.925490 0.023529 0.749020
0.019608 0.180392 0.745098
0.188235 0.188235 0.752941
0.462745 0.196078 0.760784
0.768627 0.203922 0.768627
0.945098 0.211765 0.776471
0.035294 0.478431 0.772549
0.215686 0.490196 0.780392
0.501961 0.501961 0.788235
0.792157 0.513725 0.792157
0.960784 0.525490 0.800000
0.054902 0.792157 0.792157
0.239216 0.800000 0.800000
0.545098 0.807843 0.807843
0.819608 0.819608 0.819608
0.980392 0.827451 0.827451
0.070588 0.976471 0.819608
0.270588 0.984314 0.827451
0.592157 0.988235 0.835294
0.843137 0.992157 0.843137
0.996078 0.996078 0.850980
0.003922 0.003922 0.909804
0.160784 0.007843 0.913725
0.423529 0.015686 0.921569
0.745098 0.019608 0.925490
0.929412 0.023529 0.929412
0.023529 0.184314 0.925490
0.192157 0.192157 0.933333
0.466667 0.200000 0.937255
0.772549 0.207843 0.941176
0.949020 0.215686 0.949020
0.039216 0.486275 0.945098
0.215686 0.494118 0.949020
0.509804 0.509804 0.956863
0.792157 0.521569 0.960784
0.964706 0.533333 0.964706
0.054902 0.796078 0.960784
0.243137 0.803922 0.968627
0.552941 0.811765 0.972549
0.819608 0.819608 0.976471
0.984314 0.827451 0.984314
0.074510 0.976471 0.976471
0.274510 0.984314 0.984314
0.592157 0.988235 0.988235
0.847059 0.992157 0.992157
1.000000 1.000000 1.000000
