infra/render-server/luts/dramatic-warm.cube
TITLE "Dramatic Warm"
LUT_3D_SIZE 9
DOMAIN_MIN 0.0 0.0 0.0
DOMAIN_MAX 1.0 1.0 1.0
0.000000 0.000000 0.000000
0.074510 0.003922 0.000000
0.160784 0.003922 0.000000
0.290196 0.007843 0.003922
0.447059 0.007843 0.003922
0.635294 0.011765 0.007843
0.807843 0.015686 0.011765
0.921569 0.015686 0.011765
1.000000 0.019608 0.015686
0.007843 0.074510 0.003922
0.078431 0.074510 0.003922
0.176471 0.078431 0.007843
0.309804 0.082353 0.011765
0.474510 0.082353 0.011765
0.654902 0.086275 0.015686
0.819608 0.086275 0.019608
0.937255 0.090196 0.019608
1.000000 0.094118 0.019608
0.015686 0.176471 0.011765
0.094118 0.180392 0.011765
0.196078 0.184314 0.015686
0.321569 0.188235 0.019608
0.490196 0.192157 0.019608
0.682353 0.196078 0.019608
0.835294 0.203922 0.023529
0.949020 0.207843 0.023529
1.000000 0.211765 0.027451
0.023529 0.305882 0.019608
0.101961 0.309804 0.019608
0.207843 0.313725 0.023529
0.333333 0.317647 0.023529
0.517647 0.321569 0.027451
0.705882 0.325490 0.027451
0.847059 0.333333 0.031373
0.960784 0.341176 0.035294
1.000000 0.349020 0.035294
0.031373 0.482353 0.023529
0.109804 0.486275 0.027451
0.227451 0.494118 0.027451
0.356863 0.501961 0.031373
0.537255 0.509804 0.035294
0.725490 0.513725 0.035294
0.866667 0.521569 0.039216
0.972549 0.529412 0.039216
1.000000 0.533333 0.043137
0.047059 0.678431 0.035294
0.117647 0.686275 0.035294
0.239216 0.690196 0.039216
0.376471 0.698039 0.039216
0.560784 0.705882 0.043137
0.752941 0.713725 0.043137
0.874510 0.721569 0.043137
0.980392 0.725490 0.047059
1.000000 0.733333 0.050980
0.050980 0.819608 0.039216
0.129412 0.823529 0.043137
0.250980 0.823529 0.043137
0.403922 0.827451 0.043137
0.584314 0.831373 0.047059
0.776471 0.835294 0.050980
0.886275 0.839216 0.050980
0.996078 0.843137 0.054902
1.000000 0.847059 0.058824
0.058824 0.929412 0.043137
0.145098 0.933333 0.047059
0.270588 0.933333 0.050980
0.419608 0.937255 0.050980
0.607843 0.941176 0.058824
0.792157 0.941176 0.058824
0.905882 0.945098 0.062745
1.000000 0.949020 0.062745
1.000000 0.949020 0.066667
0.070588 1.000000 0.054902
0.156863 1.000000 0.058824
0.282353 1.000000 0.058824
0.447059 1.000000 0.062745
0.635294 1.000000 0.062745
0.803922 1.000000 0.066667
0.917647 1.000000 0.066667
1.000000 1.000000 0.066667
1.000000 1.000000 0.070588
0.000000 0.000000 0.054902
0.074510 0.003922 0.058824
0.160784 0.003922 0.058824
0.294118 0.007843 0.062745
0.454902 0.007843 0.062745
0.635294 0.011765 0.066667
0.807843 0.015686 0.066667
0.925490 0.015686 0.066667
1.000000 0.019608 0.070588
0.007843 0.074510 0.062745
0.086275 0.078431 0.066667
0.180392 0.082353 0.066667
0.309804 0.082353 0.066667
0.474510 0.086275 0.070588
0.662745 0.086275 0.070588
0.823529 0.090196 0.074510
0.937255 0.094118 0.078431
1.000000 0.094118 0.078431
0.015686 0.176471 0.066667
0.094118 0.180392 0.070588
0.196078 0.184314 0.070588
0.321569 0.188235 0.074510
0.498039 0.192157 0.078431
0.682353 0.196078 0.078431
0.835294 0.203922 0.082353
0.949020 0.207843 0.086275
1.000000 0.211765 0.086275
0.023529 0.309804 0.074510
0.101961 0.313725 0.078431
0.215686 0.317647 0.078431
0.337255 0.321569 0.082353
0.517647 0.325490 0.086275
0.705882 0.333333 0.086275
0.850980 0.337255 0.086275
0.964706 0.341176 0.090196
1.000000 0.349020 0.090196
0.035294 0.482353 0.086275
0.109804 0.486275 0.086275
0.227451 0.494118 0.086275
0.356863 0.501961 0.090196
0.537255 0.509804 0.090196
0.733333 0.513725 0.094118
0.866667 0.521569 0.094118
0.972549 0.529412 0.098039
1.000000 0.541176 0.101961
0.047059 0.678431 0.090196
0.117647 0.686275 0.090196
0.239216 0.690196 0.094118
0.380392 0.698039 0.094118
0.564706 0.705882 0.098039
0.752941 0.713725 0.101961
0.874510 0.721569 0.105882
0.984314 0.725490 0.109804
1.000000 0.733333 0.109804
0.050980 0.823529 0.098039
0.133333 0.823529 0.101961
0.258824 0.827451 0.105882
0.403922 0.831373 0.109804
0.584314 0.835294 0.109804
0.780392 0.839216 0.113725
0.890196 0.843137 0.117647
0.996078 0.847059 0.121569
1.000000 0.850980 0.125490
0.062745 0.929412 0.109804
0.145098 0.933333 0.109804
0.270588 0.933333 0.113725
0.419608 0.937255 0.117647
0.615686 0.941176 0.121569
0.792157 0.941176 0.125490
0.905882 0.945098 0.129412
1.000000 0.949020 0.133333
1.000000 0.949020 0.133333
0.070588 1.000000 0.117647
0.156863 1.000000 0.121569
0.290196 1.000000 0.125490
0.447059 1.000000 0.129412
0.635294 1.000000 0.133333
0.803922 1.000000 0.133333
0.921569 1.000000 0.137255
1.000000 1.000000 0.149020
1.000000 1.000000 0.152941
0.000000 0.000000 0.121569
0.074510 0.003922 0.125490
0.164706 0.003922 0.129412
0.294118 0.007843 0.133333
0.454902 0.007843 0.133333
0.635294 0.011765 0.137255
0.807843 0.015686 0.145098
0.925490 0.015686 0.149020
1.000000 0.019608 0.152941
0.007843 0.074510 0.133333
0.086275 0.078431 0.133333
0.180392 0.082353 0.137255
0.309804 0.082353 0.145098
0.482353 0.086275 0.149020
0.662745 0.086275 0.152941
0.823529 0.090196 0.152941
0.937255 0.094118 0.156863
1.000000 0.094118 0.160784
0.015686 0.176471 0.145098
0.094118 0.180392 0.149020
0.200000 0.188235 0.152941
0.325490 0.192157 0.156863
0.498039 0.196078 0.160784
0.682353 0.203922 0.164706
0.839216 0.207843 0.168627
0.952941 0.211765 0.172549
1.000000 0.215686 0.176471
0.023529 0.309804 0.156863
0.101961 0.313725 0.160784
0.215686 0.317647 0.164706
0.337255 0.321569 0.168627
0.517647 0.325490 0.172549
0.709804 0.333333 0.176471
0.850980 0.337255 0.176471
0.964706 0.341176 0.180392
1.000000 0.349020 0.184314
0.035294 0.486275 0.168627
0.109804 0.494118 0.172549
0.227451 0.501961 0.176471
0.360784 0.509804 0.176471
0.541176 0.513725 0.180392
0.733333 0.521569 0.184314
0.866667 0.529412 0.188235
0.976471 0.533333 0.192157
1.000000 0.541176 0.196078
0.047059 0.678431 0.180392
0.117647 0.686275 0.184314
0.243137 0.690196 0.188235
0.380392 0.698039 0.192157
0.564706 0.705882 0.196078
0.752941 0.713725 0.200000
0.878431 0.721569 0.200000
0.984314 0.733333 0.203922
1.000000 0.737255 0.207843
0.054902 0.823529 0.192157
0.133333 0.823529 0.196078
0.258824 0.827451 0.200000
0.403922 0.831373 0.200000
0.592157 0.835294 0.203922
0.780392 0.839216 0.207843
0.890196 0.843137 0.211765
0.996078 0.847059 0.215686
1.000000 0.850980 0.219608
0.062745 0.933333 0.203922
0.145098 0.933333 0.207843
0.274510 0.937255 0.211765
0.431373 0.941176 0.215686
0.615686 0.941176 0.219608
0.792157 0.945098 0.223529
0.909804 0.949020 0.227451
1.000000 0.949020 0.231373
1.000000 0.952941 0.235294
0.074510 1.000000 0.215686
0.160784 1.000000 0.219608
0.290196 1.000000 0.223529
0.447059 1.000000 0.227451
0.635294 1.000000 0.231373
0.807843 1.000000 0.235294
0.921569 1.000000 0.239216
1.000000 1.000000 0.243137
1.000000 1.000000 0.243137
0.003922 0.003922 0.215686
0.074510 0.003922 0.219608
0.164706 0.007843 0.223529
0.294118 0.007843 0.227451
0.454902 0.011765 0.231373
0.639216 0.015686 0.235294
0.807843 0.015686 0.239216
0.925490 0.019608 0.243137
1.000000 0.023529 0.243137
0.007843 0.074510 0.231373
0.086275 0.078431 0.235294
0.180392 0.082353 0.239216
0.313725 0.082353 0.243137
0.482353 0.086275 0.243137
0.662745 0.086275 0.247059
0.823529 0.090196 0.250980
0.937255 0.094118 0.254902
1.000000 0.094118 0.258824
0.015686 0.180392 0.243137
0.094118 0.184314 0.243137
0.200000 0.188235 0.247059
0.325490 0.192157 0.250980
0.498039 0.196078 0.254902
0.690196 0.203922 0.258824
0.839216 0.207843 0.262745
0.952941 0.211765 0.266667
1.000000 0.215686 0.270588
0.027451 0.309804 0.250980
0.101961 0.313725 0.254902
0.215686 0.317647 0.258824
0.345098 0.325490 0.266667
0.525490 0.333333 0.270588
0.709804 0.337255 0.274510
0.850980 0.341176 0.278431
0.968627 0.349020 0.286275
1.000000 0.356863 0.290196
0.035294 0.486275 0.266667
0.109804 0.494118 0.270588
0.231373 0.501961 0.274510
0.360784 0.509804 0.278431
0.541176 0.513725 0.286275
0.733333 0.521569 0.290196
0.870588 0.529412 0.294118
0.976471 0.533333 0.298039
1.000000 0.541176 0.305882
0.047059 0.686275 0.278431
0.121569 0.690196 0.286275
0.243137 0.698039 0.290196
0.380392 0.705882 0.294118
0.564706 0.713725 0.298039
0.760784 0.721569 0.305882
0.878431 0.725490 0.309804
0.984314 0.733333 0.313725
1.000000 0.737255 0.317647
0.054902 0.823529 0.298039
0.133333 0.823529 0.305882
0.258824 0.827451 0.309804
0.407843 0.831373 0.313725
0.592157 0.835294 0.317647
0.780392 0.839216 0.325490
0.890196 0.843137 0.333333
0.996078 0.847059 0.333333
1.000000 0.854902 0.337255
0.062745 0.933333 0.313725
0.149020 0.933333 0.317647
0.274510 0.937255 0.325490
0.431373 0.941176 0.333333
0.615686 0.941176 0.333333
0.796078 0.945098 0.337255
0.909804 0.949020 0.345098
1.000000 0.949020 0.352941
1.000000 0.952941 0.352941
0.074510 1.000000 0.333333
0.160784 1.000000 0.337255
0.290196 1.000000 0.345098
0.454902 1.000000 0.352941
0.639216 1.000000 0.352941
0.807843 1.000000 0.356863
0.921569 1.000000 0.364706
1.000000 1.000000 0.372549
1.000000 1.000000 0.376471
0.003922 0.003922 0.333333
0.074510 0.003922 0.337255
0.164706 0.007843 0.345098
0.301961 0.007843 0.352941
0.458824 0.011765 0.352941
0.639216 0.015686 0.356863
0.807843 0.015686 0.364706
0.929412 0.019608 0.372549
1.000000 0.023529 0.376471
0.007843 0.078431 0.352941
0.090196 0.082353 0.352941
0.188235 0.082353 0.356863
0.313725 0.086275 0.364706
0.482353 0.086275 0.372549
0.670588 0.090196 0.376471
0.827451 0.094118 0.376471
0.937255 0.094118 0.384314
1.000000 0.101961 0.392157
0.019608 0.180392 0.372549
0.094118 0.184314 0.376471
0.200000 0.188235 0.376471
0.325490 0.192157 0.384314
0.505882 0.196078 0.392157
0.690196 0.203922 0.396078
0.839216 0.207843 0.400000
0.952941 0.211765 0.403922
1.000000 0.215686 0.411765
0.027451 0.313725 0.384314
0.101961 0.317647 0.392157
0.219608 0.321569 0.396078
0.345098 0.325490 0.400000
0.525490 0.333333 0.403922
0.709804 0.337255 0.411765
0.854902 0.341176 0.415686
0.968627 0.349020 0.419608
1.000000 0.356863 0.423529
0.035294 0.486275 0.400000
0.113725 0.494118 0.403922
0.231373 0.501961 0.411765
0.360784 0.509804 0.415686
0.549020 0.521569 0.423529
0.741176 0.521569 0.423529
0.870588 0.533333 0.435294
0.976471 0.541176 0.443137
1.000000 0.545098 0.443137
0.047059 0.686275 0.419608
0.121569 0.690196 0.423529
0.243137 0.698039 0.431373
0.388235 0.705882 0.435294
0.572549 0.713725 0.443137
0.760784 0.721569 0.443137
0.878431 0.725490 0.450980
0.984314 0.733333 0.458824
1.000000 0.737255 0.462745
0.054902 0.823529 0.435294
0.137255 0.827451 0.443137
0.262745 0.831373 0.443137
0.407843 0.835294 0.450980
0.592157 0.839216 0.458824
0.784314 0.843137 0.462745
0.894118 0.847059 0.466667
0.996078 0.850980 0.474510
1.000000 0.854902 0.478431
0.066667 0.933333 0.458824
0.149020 0.933333 0.462745
0.274510 0.937255 0.466667
0.431373 0.941176 0.474510
0.619608 0.941176 0.478431
0.796078 0.945098 0.486275
0.909804 0.949020 0.490196
1.000000 0.949020 0.494118
1.000000 0.952941 0.501961
0.074510 1.000000 0.474510
0.160784 1.000000 0.478431
0.294118 1.000000 0.486275
0.454902 1.000000 0.490196
0.639216 1.000000 0.494118
0.807843 1.000000 0.501961
0.925490 1.000000 0.505882
1.000000 1.000000 0.509804
1.000000 1.000000 0.517647
0.003922 0.003922 0.466667
0.074510 0.003922 0.474510
0.172549 0.007843 0.478431
0.301961 0.007843 0.486275
0.458824 0.011765 0.490196
0.639216 0.015686 0.494118
0.811765 0.015686 0.501961
0.929412 0.019608 0.505882
1.000000 0.023529 0.517647
0.011765 0.078431 0.490196
0.090196 0.082353 0.494118
0.188235 0.082353 0.501961
0.313725 0.086275 0.505882
0.486275 0.086275 0.509804
0.670588 0.090196 0.517647
0.827451 0.094118 0.521569
0.937255 0.094118 0.529412
1.000000 0.101961 0.533333
0.019608 0.180392 0.505882
0.094118 0.188235 0.509804
0.203922 0.192157 0.517647
0.329412 0.196078 0.521569
0.505882 0.203922 0.529412
0.690196 0.207843 0.533333
0.843137 0.211765 0.537255
0.956863 0.215686 0.545098
1.000000 0.219608 0.549020
0.031373 0.313725 0.529412
0.105882 0.317647 0.533333
0.219608 0.321569 0.537255
0.345098 0.325490 0.545098
0.525490 0.333333 0.549020
0.717647 0.337255 0.552941
0.854902 0.341176 0.560784
0.968627 0.349020 0.564706
1.000000 0.356863 0.572549
0.035294 0.494118 0.545098
0.113725 0.501961 0.549020
0.231373 0.509804 0.552941
0.368627 0.513725 0.560784
0.549020 0.521569 0.564706
0.741176 0.529412 0.572549
0.870588 0.533333 0.576471
0.980392 0.541176 0.580392
1.000000 0.545098 0.588235
0.047059 0.686275 0.560784
0.121569 0.690196 0.564706
0.247059 0.698039 0.572549
0.388235 0.705882 0.576471
0.572549 0.721569 0.588235
0.764706 0.725490 0.592157
0.882353 0.733333 0.600000
0.984314 0.737255 0.600000
1.000000 0.741176 0.603922
0.058824 0.823529 0.580392
0.137255 0.827451 0.588235
0.262745 0.831373 0.592157
0.407843 0.835294 0.600000
0.596078 0.839216 0.600000
0.784314 0.843137 0.603922
0.894118 0.847059 0.607843
0.996078 0.850980 0.611765
1.000000 0.854902 0.615686
0.066667 0.933333 0.600000
0.149020 0.937255 0.600000
0.278431 0.941176 0.603922
0.435294 0.941176 0.607843
0.619608 0.945098 0.611765
0.796078 0.949020 0.615686
0.913725 0.949020 0.619608
1.000000 0.952941 0.619608
1.000000 0.956863 0.623529
0.074510 1.000000 0.611765
0.164706 1.000000 0.615686
0.294118 1.000000 0.619608
0.454902 1.000000 0.619608
0.639216 1.000000 0.623529
0.807843 1.000000 0.623529
0.925490 1.000000 0.627451
1.000000 1.000000 0.631373
1.000000 1.000000 0.635294
0.003922 0.003922 0.611765
0.078431 0.007843 0.615686
0.172549 0.007843 0.619608
0.301961 0.011765 0.619608
0.458824 0.015686 0.623529
0.650980 0.015686 0.623529
0.811765 0.019608 0.627451
0.929412 0.023529 0.631373
1.000000 0.023529 0.635294
0.011765 0.078431 0.619608
0.090196 0.082353 0.623529
0.188235 0.082353 0.623529
0.317647 0.086275 0.627451
0.486275 0.086275 0.631373
0.670588 0.090196 0.635294
0.827451 0.094118 0.639216
0.941176 0.094118 0.643137
1.000000 0.101961 0.643137
0.019608 0.184314 0.631373
0.098039 0.188235 0.635294
0.203922 0.192157 0.639216
0.329412 0.196078 0.643137
0.505882 0.203922 0.643137
0.698039 0.207843 0.647059
0.843137 0.211765 0.650980
0.956863 0.215686 0.654902
1.000000 0.219608 0.658824
0.031373 0.313725 0.643137
0.105882 0.317647 0.643137
0.219608 0.325490 0.647059
0.352941 0.333333 0.650980
0.533333 0.337255 0.654902
0.717647 0.341176 0.658824
0.854902 0.349020 0.662745
0.972549 0.356863 0.666667
1.000000 0.360784 0.666667
0.035294 0.494118 0.654902
0.117647 0.501961 0.658824
0.235294 0.509804 0.662745
0.368627 0.513725 0.666667
0.549020 0.521569 0.666667
0.749020 0.529412 0.670588
0.870588 0.533333 0.670588
0.980392 0.541176 0.674510
1.000000 0.545098 0.678431
0.050980 0.690196 0.666667
0.121569 0.698039 0.666667
0.247059 0.705882 0.670588
0.388235 0.713725 0.670588
0.576471 0.721569 0.674510
0.764706 0.725490 0.678431
0.882353 0.733333 0.682353
0.984314 0.737255 0.686275
1.000000 0.741176 0.686275
0.058824 0.823529 0.670588
0.137255 0.827451 0.674510
0.262745 0.831373 0.678431
0.411765 0.835294 0.682353
0.596078 0.839216 0.686275
0.784314 0.843137 0.686275
0.898039 0.850980 0.694118
1.000000 0.854902 0.698039
1.000000 0.858824 0.701961
0.066667 0.933333 0.686275
0.152941 0.937255 0.686275
0.278431 0.941176 0.690196
0.435294 0.941176 0.694118
0.619608 0.945098 0.698039
0.800000 0.949020 0.701961
0.913725 0.949020 0.705882
1.000000 0.952941 0.709804
1.000000 0.956863 0.709804
0.074510 1.000000 0.694118
0.164706 1.000000 0.698039
0.294118 1.000000 0.701961
0.458824 1.000000 0.705882
0.650980 1.000000 0.709804
0.807843 1.000000 0.709804
0.925490 1.000000 0.713725
1.000000 1.000000 0.717647
1.000000 1.000000 0.721569
0.003922 0.003922 0.694118
0.078431 0.007843 0.698039
0.172549 0.007843 0.705882
0.305882 0.011765 0.709804
0.462745 0.015686 0.709804
0.650980 0.015686 0.713725
0.811765 0.019608 0.717647
0.933333 0.023529 0.721569
1.000000 0.023529 0.725490
0.011765 0.082353 0.709804
0.090196 0.082353 0.709804
0.192157 0.086275 0.713725
0.317647 0.086275 0.717647
0.486275 0.090196 0.721569
0.674510 0.094118 0.725490
0.831373 0.094118 0.725490
0.941176 0.101961 0.729412
1.000000 0.105882 0.733333
0.023529 0.184314 0.717647
0.098039 0.188235 0.721569
0.203922 0.192157 0.725490
0.329412 0.196078 0.725490
0.509804 0.203922 0.729412
0.698039 0.207843 0.733333
0.843137 0.211765 0.733333
0.956863 0.215686 0.737255
1.000000 0.219608 0.741176
0.031373 0.317647 0.729412
0.105882 0.321569 0.733333
0.223529 0.325490 0.733333
0.352941 0.333333 0.737255
0.533333 0.337255 0.741176
0.717647 0.341176 0.745098
0.862745 0.349020 0.749020
0.972549 0.356863 0.752941
1.000000 0.360784 0.752941
0.043137 0.494118 0.737255
0.117647 0.501961 0.741176
0.235294 0.509804 0.745098
0.368627 0.521569 0.749020
0.560784 0.529412 0.752941
0.749020 0.533333 0.752941
0.870588 0.541176 0.752941
0.980392 0.545098 0.756863
1.000000 0.552941 0.756863
0.050980 0.690196 0.752941
0.121569 0.698039 0.752941
0.247059 0.705882 0.752941
0.396078 0.713725 0.756863
0.576471 0.721569 0.756863
0.764706 0.725490 0.760784
0.882353 0.733333 0.760784
0.992157 0.737255 0.764706
1.000000 0.741176 0.768627
0.058824 0.827451 0.756863
0.141176 0.831373 0.756863
0.266667 0.835294 0.760784
0.411765 0.839216 0.760784
0.596078 0.843137 0.764706
0.788235 0.847059 0.768627
0.898039 0.850980 0.768627
1.000000 0.854902 0.772549
1.000000 0.858824 0.776471
0.066667 0.933333 0.760784
0.152941 0.937255 0.764706
0.278431 0.941176 0.768627
0.435294 0.941176 0.768627
0.627451 0.945098 0.772549
0.800000 0.949020 0.776471
0.913725 0.949020 0.776471
1.000000 0.956863 0.780392
1.000000 0.956863 0.780392
0.074510 1.000000 0.772549
0.164706 1.000000 0.776471
0.301961 1.000000 0.776471
0.458824 1.000000 0.776471
0.650980 1.000000 0.780392
0.807843 1.000000 0.780392
0.929412 1.000000 0.784314
1.000000 1.000000 0.784314
1.000000 1.000000 0.788235
0.003922 0.003922 0.772549
0.078431 0.007843 0.776471
0.176471 0.007843 0.776471
0.305882 0.011765 0.776471
0.462745 0.015686 0.780392
0.650980 0.015686 0.780392
0.819608 0.019608 0.784314
0.933333 0.023529 0.784314
1.000000 0.023529 0.788235
0.015686 0.082353 0.776471
0.090196 0.082353 0.780392
0.192157 0.086275 0.780392
0.317647 0.086275 0.784314
0.490196 0.090196 0.788235
0.674510 0.094118 0.792157
0.831373 0.094118 0.792157
0.941176 0.101961 0.796078
1.000000 0.105882 0.800000
0.023529 0.188235 0.784314
0.098039 0.192157 0.788235
0.207843 0.196078 0.792157
0.333333 0.203922 0.792157
0.509804 0.207843 0.796078
0.698039 0.211765 0.800000
0.847059 0.215686 0.800000
0.960784 0.219608 0.800000
1.000000 0.223529 0.803922
0.031373 0.317647 0.792157
0.109804 0.321569 0.796078
0.223529 0.325490 0.800000
0.352941 0.333333 0.800000
0.533333 0.337255 0.800000
0.725490 0.341176 0.803922
0.862745 0.349020 0.803922
0.972549 0.356863 0.807843
1.000000 0.360784 0.811765
0.043137 0.501961 0.800000
0.117647 0.509804 0.803922
0.235294 0.513725 0.803922
0.376471 0.521569 0.807843
0.560784 0.529412 0.811765
0.749020 0.533333 0.811765
0.870588 0.541176 0.815686
0.980392 0.545098 0.815686
1.000000 0.552941 0.819608
0.050980 0.690196 0.807843
0.129412 0.698039 0.811765
0.250980 0.713725 0.811765
0.396078 0.721569 0.815686
0.576471 0.725490 0.815686
0.776471 0.733333 0.819608
0.886275 0.737255 0.819608
0.992157 0.741176 0.819608
1.000000 0.745098 0.823529
0.058824 0.827451 0.815686
0.141176 0.831373 0.819608
0.266667 0.835294 0.819608
0.411765 0.839216 0.819608
0.607843 0.843137 0.823529
0.788235 0.847059 0.827451
0.898039 0.850980 0.827451
1.000000 0.854902 0.831373
1.000000 0.858824 0.835294
0.066667 0.937255 0.819608
0.152941 0.941176 0.823529
0.282353 0.941176 0.827451
0.439216 0.945098 0.827451
0.627451 0.949020 0.831373
0.800000 0.949020 0.835294
0.917647 0.952941 0.835294
1.000000 0.956863 0.839216
1.000000 0.956863 0.839216
0.078431 1.000000 0.827451
0.172549 1.000000 0.831373
0.301961 1.000000 0.835294
0.458824 1.000000 0.835294
0.650980 1.000000 0.839216
0.811765 1.000000 0.839216
0.929412 1.000000 0.843137
1.000000 1.000000 0.843137
1.000000 1.000000 0.847059
