infra/render-server/luts/dramatic-warm.cube
TITLE "Dramatic Warm"
LUT_3D_SIZE 5
DOMAIN_MIN 0.0 0.0 0.0
DOMAIN_MAX 1.0 1.0 1.0
0.000000 0.000000 0.000000
0.160784 0.003922 0.000000
0.447059 0.007843 0.003922
0.807843 0.015686 0.011765
1.000000 0.019608 0.015686
0.015686 0.176471 0.011765
0.196078 0.184314 0.015686
0.490196 0.192157 0.019608
0.835294 0.203922 0.023529
1.000000 0.211765 0.027451
0.031373 0.482353 0.023529
0.227451 0.494118 0.027451
0.537255 0.509804 0.035294
0.866667 0.521569 0.039216
1.000000 0.533333 0.043137
0.050980 0.819608 0.039216
0.250980 0.823529 0.043137
0.584314 0.831373 0.047059
0.886275 0.839216 0.050980
1.000000 0.847059 0.058824
0.070588 1.000000 0.054902
0.282353 1.000000 0.058824
0.635294 1.000000 0.062745
0.917647 1.000000 0.066667
1.000000 1.000000 0.070588
0.000000 0.000000 0.121569
0.164706 0.003922 0.129412
0.454902 0.007843 0.133333
0.807843 0.015686 0.145098
1.000000 0.019608 0.152941
0.015686 0.176471 0.145098
0.200000 0.188235 0.152941
0.498039 0.196078 0.160784
0.839216 0.207843 0.168627
1.000000 0.215686 0.176471
0.035294 0.486275 0.168627
0.227451 0.501961 0.176471
0.541176 0.513725 0.180392
0.866667 0.529412 0.188235
1.000000 0.541176 0.196078
0.054902 0.823529 0.192157
0.258824 0.827451 0.200000
0.592157 0.835294 0.203922
0.890196 0.843137 0.211765
1.000000 0.850980 0.219608
0.074510 1.000000 0.215686
0.290196 1.000000 0.223529
0.635294 1.000000 0.231373
0.921569 1.000000 0.239216
1.000000 1.000000 0.243137
0.003922 0.003922 0.333333
0.164706 0.007843 0.345098
0.458824 0.011765 0.352941
0.807843 0.015686 0.364706
1.000000 0.023529 0.376471
0.019608 0.180392 0.372549
0.200000 0.188235 0.376471
0.505882 0.196078 0.392157
0.839216 0.207843 0.400000
1.000000 0.215686 0.411765
0.035294 0.486275 0.400000
0.231373 0.501961 0.411765
0.549020 0.521569 0.423529
0.870588 0.533333 0.435294
1.000000 0.545098 0.443137
0.054902 0.823529 0.435294
0.262745 0.831373 0.443137
0.592157 0.839216 0.458824
0.894118 0.847059 0.466667
1.000000 0.854902 0.478431
0.074510 1.000000 0.474510
0.294118 1.000000 0.486275
0.639216 1.000000 0.494118
0.925490 1.000000 0.505882
1.000000 1.000000 0.517647
0.003922 0.003922 0.611765
0.172549 0.007843 0.619608
0.458824 0.015686 0.623529
0.811765 0.019608 0.627451
1.000000 0.023529 0.635294
0.019608 0.184314 0.631373
0.203922 0.192157 0.639216
0.505882 0.203922 0.643137
0.843137 0.211765 0.650980
1.000000 0.219608 0.658824
0.035294 0.494118 0.654902
0.235294 0.509804 0.662745
0.549020 0.521569 0.666667
0.870588 0.533333 0.670588
1.000000 0.545098 0.678431
0.058824 0.823529 0.670588
0.262745 0.831373 0.678431
0.596078 0.839216 0.686275
0.898039 0.850980 0.694118
1.000000 0.858824 0.701961
0.074510 1.000000 0.694118
0.294118 1.000000 0.701961
0.650980 1.000000 0.709804
0.925490 1.000000 0.713725
1.000000 1.000000 0.721569
0.003922 0.003922 0.772549
0.176471 0.007843 0.776471
0.462745 0.015686 0.780392
0.819608 0.019608 0.784314
1.000000 0.023529 0.788235
0.023529 0.188235 0.784314
0.207843 0.196078 0.792157
0.509804 0.207843 0.796078
0.847059 0.215686 0.800000
1.000000 0.223529 0.803922
0.043137 0.501961 0.800000
0.235294 0.513725 0.803922
0.560784 0.529412 0.811765
0.870588 0.541176 0.815686
1.000000 0.552941 0.819608
0.058824 0.827451 0.815686
0.266667 0.835294 0.819608
0.607843 0.843137 0.823529
0.898039 0.850980 0.827451
1.000000 0.858824 0.835294
0.078431 1.000000 0.827451
0.301961 1.000000 0.835294
0.650980 1.000000 0.839216
0.929412 1.000000 0.843137
1.000000 1.000000 0.847059
