infra/render-server/luts/dramatic-cool.cube
TITLE "Dramatic Cool"
LUT_3D_SIZE 9
DOMAIN_MIN 0.0 0.0 0.0
DOMAIN_MAX 1.0 1.0 1.0
0.000000 0.000000 0.000000
0.058824 0.003922 0.003922
0.125490 0.003922 0.003922
0.223529 0.007843 0.007843
0.345098 0.007843 0.007843
0.490196 0.011765 0.011765
0.623529 0.015686 0.015686
0.709804 0.015686 0.015686
0.780392 0.019608 0.019608
0.003922 0.074510 0.007843
0.062745 0.074510 0.007843
0.133333 0.078431 0.011765
0.239216 0.082353 0.015686
0.364706 0.082353 0.015686
0.505882 0.086275 0.019608
0.631373 0.086275 0.023529
0.725490 0.090196 0.023529
0.792157 0.094118 0.027451
0.011765 0.172549 0.015686
0.070588 0.176471 0.015686
0.152941 0.180392 0.019608
0.247059 0.184314 0.023529
0.376471 0.188235 0.023529
0.529412 0.192157 0.027451
0.643137 0.196078 0.031373
0.733333 0.200000 0.031373
0.800000 0.203922 0.039216
0.019608 0.294118 0.023529
0.078431 0.298039 0.027451
0.160784 0.301961 0.031373
0.258824 0.305882 0.031373
0.400000 0.309804 0.039216
0.545098 0.313725 0.039216
0.654902 0.321569 0.043137
0.741176 0.329412 0.047059
0.803922 0.337255 0.047059
0.023529 0.466667 0.031373
0.086275 0.470588 0.039216
0.176471 0.478431 0.039216
0.274510 0.486275 0.043137
0.415686 0.490196 0.047059
0.560784 0.494118 0.047059
0.666667 0.501961 0.050980
0.752941 0.509804 0.050980
0.811765 0.513725 0.054902
0.035294 0.654902 0.047059
0.090196 0.662745 0.047059
0.184314 0.666667 0.050980
0.290196 0.674510 0.050980
0.431373 0.682353 0.054902
0.580392 0.686275 0.058824
0.674510 0.694118 0.058824
0.756863 0.698039 0.062745
0.819608 0.705882 0.066667
0.039216 0.788235 0.050980
0.098039 0.792157 0.054902
0.196078 0.792157 0.058824
0.309804 0.796078 0.058824
0.450980 0.800000 0.062745
0.600000 0.803922 0.066667
0.686275 0.807843 0.066667
0.768627 0.811765 0.074510
0.827451 0.815686 0.078431
0.043137 0.894118 0.058824
0.109804 0.898039 0.062745
0.207843 0.898039 0.066667
0.325490 0.901961 0.066667
0.466667 0.905882 0.078431
0.611765 0.905882 0.078431
0.698039 0.909804 0.082353
0.776471 0.913725 0.082353
0.835294 0.913725 0.086275
0.054902 0.972549 0.074510
0.121569 0.976471 0.078431
0.219608 0.976471 0.078431
0.345098 0.980392 0.082353
0.490196 0.984314 0.082353
0.619608 0.984314 0.086275
0.709804 0.988235 0.090196
0.780392 0.988235 0.090196
0.843137 0.992157 0.094118
0.000000 0.000000 0.074510
0.058824 0.003922 0.078431
0.125490 0.003922 0.078431
0.227451 0.007843 0.082353
0.352941 0.007843 0.082353
0.490196 0.011765 0.086275
0.623529 0.015686 0.090196
0.713725 0.015686 0.090196
0.784314 0.019608 0.094118
0.003922 0.074510 0.082353
0.066667 0.078431 0.086275
0.137255 0.082353 0.090196
0.239216 0.082353 0.090196
0.364706 0.086275 0.094118
0.509804 0.086275 0.094118
0.635294 0.090196 0.098039
0.725490 0.094118 0.101961
0.792157 0.094118 0.101961
0.011765 0.172549 0.090196
0.070588 0.176471 0.094118
0.152941 0.180392 0.094118
0.247059 0.184314 0.098039
0.384314 0.188235 0.101961
0.529412 0.192157 0.101961
0.643137 0.196078 0.109804
0.733333 0.200000 0.113725
0.800000 0.203922 0.113725
0.019608 0.298039 0.098039
0.078431 0.301961 0.101961
0.164706 0.305882 0.101961
0.262745 0.309804 0.109804
0.400000 0.313725 0.113725
0.545098 0.321569 0.113725
0.658824 0.325490 0.117647
0.745098 0.329412 0.121569
0.803922 0.337255 0.121569
0.027451 0.466667 0.113725
0.086275 0.470588 0.113725
0.176471 0.478431 0.117647
0.274510 0.486275 0.121569
0.415686 0.490196 0.121569
0.564706 0.494118 0.125490
0.666667 0.501961 0.125490
0.752941 0.509804 0.129412
0.811765 0.521569 0.133333
0.035294 0.654902 0.121569
0.090196 0.662745 0.121569
0.184314 0.666667 0.125490
0.294118 0.674510 0.125490
0.435294 0.682353 0.129412
0.580392 0.686275 0.133333
0.674510 0.694118 0.137255
0.760784 0.698039 0.141176
0.819608 0.705882 0.149020
0.039216 0.792157 0.129412
0.101961 0.792157 0.133333
0.200000 0.796078 0.137255
0.309804 0.800000 0.141176
0.450980 0.803922 0.149020
0.600000 0.807843 0.152941
0.686275 0.811765 0.156863
0.768627 0.815686 0.160784
0.827451 0.819608 0.164706
0.047059 0.894118 0.141176
0.109804 0.898039 0.149020
0.207843 0.898039 0.152941
0.325490 0.901961 0.156863
0.474510 0.905882 0.160784
0.611765 0.905882 0.164706
0.698039 0.909804 0.168627
0.776471 0.913725 0.172549
0.835294 0.913725 0.176471
0.054902 0.972549 0.156863
0.121569 0.976471 0.160784
0.223529 0.976471 0.164706
0.345098 0.980392 0.168627
0.490196 0.984314 0.172549
0.619608 0.984314 0.176471
0.709804 0.988235 0.184314
0.780392 0.988235 0.196078
0.843137 0.992157 0.200000
0.000000 0.000000 0.160784
0.058824 0.003922 0.164706
0.129412 0.003922 0.168627
0.227451 0.007843 0.172549
0.352941 0.007843 0.176471
0.490196 0.011765 0.184314
0.623529 0.015686 0.192157
0.713725 0.015686 0.196078
0.784314 0.019608 0.200000
0.003922 0.074510 0.172549
0.066667 0.078431 0.176471
0.137255 0.082353 0.184314
0.239216 0.082353 0.192157
0.372549 0.086275 0.196078
0.509804 0.086275 0.200000
0.635294 0.090196 0.203922
0.725490 0.094118 0.207843
0.792157 0.094118 0.211765
0.011765 0.172549 0.192157
0.070588 0.176471 0.196078
0.152941 0.184314 0.203922
0.250980 0.188235 0.207843
0.384314 0.192157 0.211765
0.529412 0.196078 0.219608
0.647059 0.200000 0.223529
0.733333 0.203922 0.227451
0.800000 0.207843 0.231373
0.019608 0.298039 0.207843
0.078431 0.301961 0.211765
0.164706 0.305882 0.219608
0.262745 0.309804 0.223529
0.400000 0.313725 0.227451
0.549020 0.321569 0.231373
0.658824 0.325490 0.235294
0.745098 0.329412 0.239216
0.803922 0.337255 0.243137
0.027451 0.470588 0.223529
0.086275 0.478431 0.227451
0.176471 0.486275 0.231373
0.278431 0.490196 0.235294
0.419608 0.494118 0.239216
0.564706 0.501961 0.243137
0.666667 0.509804 0.247059
0.752941 0.513725 0.250980
0.815686 0.521569 0.258824
0.035294 0.654902 0.239216
0.090196 0.662745 0.243137
0.188235 0.666667 0.247059
0.294118 0.674510 0.250980
0.435294 0.682353 0.258824
0.580392 0.686275 0.262745
0.678431 0.694118 0.266667
0.760784 0.705882 0.270588
0.819608 0.709804 0.274510
0.043137 0.792157 0.250980
0.101961 0.792157 0.258824
0.200000 0.796078 0.262745
0.309804 0.800000 0.266667
0.458824 0.803922 0.270588
0.600000 0.807843 0.274510
0.686275 0.811765 0.278431
0.768627 0.815686 0.282353
0.827451 0.819608 0.286275
0.047059 0.898039 0.270588
0.109804 0.898039 0.274510
0.211765 0.901961 0.278431
0.333333 0.905882 0.282353
0.474510 0.905882 0.286275
0.611765 0.909804 0.298039
0.701961 0.913725 0.301961
0.776471 0.913725 0.305882
0.835294 0.917647 0.309804
0.058824 0.972549 0.282353
0.125490 0.976471 0.286275
0.223529 0.976471 0.298039
0.345098 0.980392 0.301961
0.490196 0.984314 0.305882
0.623529 0.984314 0.309804
0.709804 0.988235 0.313725
0.780392 0.988235 0.317647
0.843137 0.992157 0.321569
0.000000 0.003922 0.282353
0.058824 0.003922 0.286275
0.129412 0.007843 0.298039
0.227451 0.007843 0.301961
0.352941 0.011765 0.305882
0.494118 0.015686 0.309804
0.623529 0.015686 0.313725
0.713725 0.019608 0.317647
0.784314 0.023529 0.321569
0.003922 0.074510 0.305882
0.066667 0.078431 0.309804
0.137255 0.082353 0.313725
0.243137 0.082353 0.317647
0.372549 0.086275 0.321569
0.509804 0.086275 0.329412
0.635294 0.090196 0.333333
0.725490 0.094118 0.337255
0.792157 0.094118 0.341176
0.011765 0.176471 0.317647
0.070588 0.180392 0.321569
0.152941 0.184314 0.329412
0.250980 0.188235 0.333333
0.384314 0.192157 0.337255
0.533333 0.196078 0.341176
0.647059 0.200000 0.345098
0.733333 0.203922 0.349020
0.800000 0.207843 0.356863
0.019608 0.298039 0.333333
0.078431 0.301961 0.337255
0.164706 0.305882 0.341176
0.266667 0.313725 0.349020
0.403922 0.321569 0.356863
0.549020 0.325490 0.360784
0.658824 0.329412 0.368627
0.749020 0.337255 0.376471
0.807843 0.345098 0.384314
0.027451 0.470588 0.349020
0.086275 0.478431 0.356863
0.176471 0.486275 0.360784
0.278431 0.490196 0.368627
0.419608 0.494118 0.376471
0.564706 0.501961 0.384314
0.670588 0.509804 0.388235
0.752941 0.513725 0.392157
0.815686 0.521569 0.403922
0.035294 0.662745 0.368627
0.094118 0.666667 0.376471
0.188235 0.674510 0.384314
0.294118 0.682353 0.388235
0.435294 0.686275 0.392157
0.588235 0.694118 0.403922
0.678431 0.698039 0.411765
0.760784 0.705882 0.415686
0.819608 0.709804 0.419608
0.043137 0.792157 0.392157
0.101961 0.792157 0.403922
0.200000 0.796078 0.411765
0.313725 0.800000 0.415686
0.458824 0.803922 0.419608
0.600000 0.807843 0.427451
0.686275 0.811765 0.439216
0.768627 0.815686 0.443137
0.827451 0.823529 0.447059
0.047059 0.898039 0.415686
0.113725 0.898039 0.419608
0.211765 0.901961 0.427451
0.333333 0.905882 0.439216
0.474510 0.905882 0.443137
0.615686 0.909804 0.447059
0.701961 0.913725 0.454902
0.776471 0.913725 0.462745
0.835294 0.917647 0.466667
0.058824 0.976471 0.439216
0.125490 0.976471 0.447059
0.223529 0.980392 0.454902
0.352941 0.984314 0.462745
0.494118 0.984314 0.466667
0.623529 0.988235 0.470588
0.709804 0.988235 0.482353
0.784314 0.992157 0.490196
0.843137 0.996078 0.494118
0.000000 0.003922 0.443137
0.058824 0.003922 0.447059
0.129412 0.007843 0.454902
0.231373 0.007843 0.462745
0.352941 0.011765 0.466667
0.494118 0.015686 0.470588
0.623529 0.015686 0.482353
0.717647 0.019608 0.490196
0.784314 0.023529 0.494118
0.003922 0.078431 0.462745
0.066667 0.082353 0.466667
0.145098 0.082353 0.470588
0.243137 0.086275 0.482353
0.372549 0.086275 0.490196
0.517647 0.090196 0.494118
0.639216 0.094118 0.498039
0.725490 0.094118 0.505882
0.792157 0.098039 0.517647
0.015686 0.176471 0.490196
0.070588 0.180392 0.494118
0.152941 0.184314 0.498039
0.250980 0.188235 0.505882
0.392157 0.192157 0.517647
0.533333 0.196078 0.521569
0.647059 0.200000 0.525490
0.733333 0.203922 0.533333
0.800000 0.207843 0.541176
0.019608 0.301961 0.505882
0.078431 0.305882 0.517647
0.168627 0.309804 0.521569
0.266667 0.313725 0.525490
0.403922 0.321569 0.533333
0.549020 0.325490 0.541176
0.662745 0.329412 0.549020
0.749020 0.337255 0.552941
0.807843 0.345098 0.560784
0.027451 0.470588 0.525490
0.086275 0.478431 0.533333
0.176471 0.486275 0.541176
0.278431 0.490196 0.549020
0.423529 0.501961 0.560784
0.572549 0.501961 0.560784
0.670588 0.513725 0.572549
0.752941 0.521569 0.580392
0.815686 0.525490 0.588235
0.035294 0.662745 0.552941
0.094118 0.666667 0.560784
0.188235 0.674510 0.568627
0.298039 0.682353 0.572549
0.443137 0.686275 0.580392
0.588235 0.694118 0.588235
0.678431 0.698039 0.596078
0.760784 0.705882 0.603922
0.819608 0.709804 0.607843
0.043137 0.792157 0.572549
0.105882 0.796078 0.580392
0.200000 0.800000 0.588235
0.313725 0.803922 0.596078
0.458824 0.807843 0.603922
0.603922 0.811765 0.607843
0.690196 0.815686 0.615686
0.768627 0.819608 0.627451
0.827451 0.823529 0.631373
0.050980 0.898039 0.603922
0.113725 0.898039 0.607843
0.211765 0.901961 0.615686
0.333333 0.905882 0.627451
0.478431 0.905882 0.631373
0.615686 0.909804 0.639216
0.701961 0.913725 0.647059
0.776471 0.913725 0.650980
0.839216 0.917647 0.662745
0.058824 0.976471 0.627451
0.125490 0.976471 0.631373
0.227451 0.980392 0.639216
0.352941 0.984314 0.647059
0.494118 0.984314 0.650980
0.623529 0.988235 0.662745
0.713725 0.988235 0.666667
0.784314 0.992157 0.674510
0.843137 0.996078 0.682353
0.000000 0.003922 0.615686
0.058824 0.003922 0.627451
0.133333 0.007843 0.631373
0.231373 0.007843 0.639216
0.352941 0.011765 0.647059
0.494118 0.015686 0.650980
0.627451 0.015686 0.662745
0.717647 0.019608 0.666667
0.784314 0.023529 0.682353
0.007843 0.078431 0.647059
0.066667 0.082353 0.650980
0.145098 0.082353 0.662745
0.243137 0.086275 0.666667
0.376471 0.086275 0.674510
0.517647 0.090196 0.682353
0.639216 0.094118 0.686275
0.725490 0.094118 0.698039
0.796078 0.098039 0.701961
0.015686 0.176471 0.666667
0.070588 0.184314 0.674510
0.156863 0.188235 0.682353
0.254902 0.192157 0.686275
0.392157 0.196078 0.698039
0.533333 0.200000 0.701961
0.650980 0.203922 0.709804
0.737255 0.207843 0.717647
0.800000 0.211765 0.721569
0.023529 0.301961 0.698039
0.082353 0.305882 0.701961
0.168627 0.309804 0.709804
0.266667 0.313725 0.717647
0.403922 0.321569 0.721569
0.552941 0.325490 0.733333
0.662745 0.329412 0.741176
0.749020 0.337255 0.745098
0.807843 0.345098 0.752941
0.027451 0.478431 0.717647
0.086275 0.486275 0.721569
0.176471 0.490196 0.733333
0.286275 0.494118 0.741176
0.423529 0.501961 0.745098
0.572549 0.509804 0.752941
0.670588 0.513725 0.760784
0.756863 0.521569 0.768627
0.815686 0.525490 0.776471
0.035294 0.662745 0.741176
0.094118 0.666667 0.745098
0.192157 0.674510 0.752941
0.298039 0.682353 0.760784
0.443137 0.694118 0.776471
0.592157 0.698039 0.780392
0.682353 0.705882 0.788235
0.760784 0.709804 0.792157
0.819608 0.713725 0.796078
0.043137 0.792157 0.768627
0.105882 0.796078 0.776471
0.200000 0.800000 0.780392
0.313725 0.803922 0.788235
0.462745 0.807843 0.792157
0.603922 0.811765 0.796078
0.690196 0.815686 0.800000
0.768627 0.819608 0.807843
0.831373 0.823529 0.811765
0.050980 0.898039 0.788235
0.113725 0.901961 0.792157
0.215686 0.905882 0.796078
0.333333 0.905882 0.800000
0.478431 0.909804 0.807843
0.615686 0.913725 0.811765
0.705882 0.913725 0.815686
0.776471 0.917647 0.819608
0.839216 0.921569 0.823529
0.058824 0.976471 0.807843
0.129412 0.976471 0.811765
0.227451 0.980392 0.815686
0.352941 0.984314 0.819608
0.494118 0.984314 0.823529
0.623529 0.988235 0.823529
0.713725 0.988235 0.827451
0.784314 0.992157 0.831373
0.843137 0.996078 0.835294
0.000000 0.003922 0.807843
0.062745 0.007843 0.811765
0.133333 0.007843 0.815686
0.231373 0.011765 0.819608
0.352941 0.015686 0.823529
0.501961 0.015686 0.823529
0.627451 0.019608 0.827451
0.717647 0.023529 0.831373
0.784314 0.023529 0.835294
0.007843 0.078431 0.819608
0.066667 0.082353 0.823529
0.145098 0.082353 0.823529
0.243137 0.086275 0.827451
0.376471 0.086275 0.831373
0.517647 0.090196 0.835294
0.639216 0.094118 0.843137
0.729412 0.094118 0.847059
0.796078 0.098039 0.850980
0.015686 0.180392 0.831373
0.074510 0.184314 0.835294
0.156863 0.188235 0.843137
0.254902 0.192157 0.847059
0.392157 0.196078 0.850980
0.537255 0.200000 0.854902
0.650980 0.203922 0.858824
0.737255 0.207843 0.862745
0.800000 0.211765 0.866667
0.023529 0.301961 0.847059
0.082353 0.305882 0.850980
0.168627 0.313725 0.854902
0.270588 0.321569 0.858824
0.411765 0.325490 0.862745
0.552941 0.329412 0.866667
0.662745 0.337255 0.870588
0.752941 0.345098 0.878431
0.811765 0.349020 0.882353
0.027451 0.478431 0.862745
0.090196 0.486275 0.866667
0.180392 0.490196 0.870588
0.286275 0.494118 0.878431
0.423529 0.501961 0.882353
0.576471 0.509804 0.886275
0.670588 0.513725 0.886275
0.756863 0.521569 0.890196
0.815686 0.525490 0.894118
0.039216 0.666667 0.878431
0.094118 0.674510 0.882353
0.192157 0.682353 0.886275
0.298039 0.686275 0.886275
0.443137 0.694118 0.890196
0.592157 0.698039 0.894118
0.682353 0.705882 0.898039
0.760784 0.709804 0.901961
0.823529 0.713725 0.905882
0.043137 0.792157 0.886275
0.105882 0.796078 0.890196
0.200000 0.800000 0.894118
0.317647 0.803922 0.898039
0.462745 0.807843 0.901961
0.603922 0.811765 0.905882
0.694118 0.819608 0.917647
0.772549 0.823529 0.921569
0.831373 0.827451 0.925490
0.050980 0.898039 0.901961
0.117647 0.901961 0.905882
0.215686 0.905882 0.909804
0.333333 0.905882 0.917647
0.478431 0.909804 0.921569
0.619608 0.913725 0.925490
0.705882 0.913725 0.929412
0.776471 0.917647 0.933333
0.839216 0.921569 0.937255
0.058824 0.976471 0.917647
0.129412 0.980392 0.921569
0.227451 0.984314 0.925490
0.352941 0.984314 0.929412
0.501961 0.988235 0.933333
0.623529 0.988235 0.937255
0.713725 0.992157 0.941176
0.784314 0.996078 0.945098
0.843137 0.996078 0.952941
0.000000 0.003922 0.917647
0.062745 0.007843 0.921569
0.133333 0.007843 0.929412
0.235294 0.011765 0.933333
0.356863 0.015686 0.937255
0.501961 0.015686 0.941176
0.627451 0.019608 0.945098
0.721569 0.023529 0.952941
0.788235 0.023529 0.956863
0.007843 0.082353 0.933333
0.066667 0.082353 0.937255
0.149020 0.086275 0.941176
0.243137 0.086275 0.945098
0.376471 0.090196 0.952941
0.521569 0.094118 0.956863
0.643137 0.094118 0.956863
0.729412 0.098039 0.960784
0.796078 0.101961 0.964706
0.019608 0.180392 0.945098
0.074510 0.184314 0.952941
0.156863 0.188235 0.956863
0.254902 0.192157 0.956863
0.396078 0.196078 0.960784
0.537255 0.200000 0.964706
0.650980 0.203922 0.968627
0.737255 0.207843 0.972549
0.803922 0.211765 0.976471
0.023529 0.305882 0.960784
0.082353 0.309804 0.964706
0.172549 0.313725 0.968627
0.270588 0.321569 0.972549
0.411765 0.325490 0.976471
0.552941 0.329412 0.980392
0.666667 0.337255 0.988235
0.752941 0.345098 0.992157
0.811765 0.349020 0.992157
0.031373 0.478431 0.972549
0.090196 0.486275 0.976471
0.180392 0.490196 0.980392
0.286275 0.501961 0.988235
0.431373 0.509804 0.992157
0.576471 0.513725 0.992157
0.670588 0.521569 0.996078
0.756863 0.525490 1.000000
0.819608 0.533333 1.000000
0.039216 0.666667 0.992157
0.094118 0.674510 0.992157
0.192157 0.682353 0.996078
0.305882 0.686275 1.000000
0.443137 0.694118 1.000000
0.592157 0.698039 1.000000
0.682353 0.705882 1.000000
0.764706 0.709804 1.000000
0.823529 0.713725 1.000000
0.043137 0.796078 1.000000
0.109804 0.800000 1.000000
0.203922 0.803922 1.000000
0.317647 0.807843 1.000000
0.462745 0.811765 1.000000
0.607843 0.815686 1.000000
0.694118 0.819608 1.000000
0.772549 0.823529 1.000000
0.831373 0.827451 1.000000
0.050980 0.898039 1.000000
0.117647 0.901961 1.000000
0.215686 0.905882 1.000000
0.333333 0.905882 1.000000
0.486275 0.909804 1.000000
0.619608 0.913725 1.000000
0.705882 0.913725 1.000000
0.780392 0.921569 1.000000
0.839216 0.921569 1.000000
0.058824 0.976471 1.000000
0.129412 0.980392 1.000000
0.231373 0.984314 1.000000
0.352941 0.984314 1.000000
0.501961 0.988235 1.000000
0.623529 0.988235 1.000000
0.717647 0.992157 1.000000
0.784314 0.996078 1.000000
0.843137 0.996078 1.000000
0.000000 0.003922 1.000000
0.062745 0.007843 1.000000
0.133333 0.007843 1.000000
0.235294 0.011765 1.000000
0.356863 0.015686 1.000000
0.501961 0.015686 1.000000
0.631373 0.019608 1.000000
0.721569 0.023529 1.000000
0.788235 0.023529 1.000000
0.011765 0.082353 1.000000
0.066667 0.082353 1.000000
0.149020 0.086275 1.000000
0.243137 0.086275 1.000000
0.376471 0.090196 1.000000
0.521569 0.094118 1.000000
0.643137 0.094118 1.000000
0.729412 0.098039 1.000000
0.800000 0.101961 1.000000
0.019608 0.184314 1.000000
0.074510 0.188235 1.000000
0.160784 0.192157 1.000000
0.258824 0.196078 1.000000
0.396078 0.200000 1.000000
0.537255 0.203922 1.000000
0.654902 0.207843 1.000000
0.741176 0.211765 1.000000
0.803922 0.215686 1.000000
0.023529 0.305882 1.000000
0.086275 0.309804 1.000000
0.172549 0.313725 1.000000
0.270588 0.321569 1.000000
0.411765 0.325490 1.000000
0.560784 0.329412 1.000000
0.666667 0.337255 1.000000
0.752941 0.345098 1.000000
0.811765 0.349020 1.000000
0.031373 0.486275 1.000000
0.090196 0.490196 1.000000
0.180392 0.494118 1.000000
0.290196 0.501961 1.000000
0.431373 0.509804 1.000000
0.576471 0.513725 1.000000
0.670588 0.521569 1.000000
0.756863 0.525490 1.000000
0.819608 0.533333 1.000000
0.039216 0.666667 1.000000
0.098039 0.674510 1.000000
0.196078 0.686275 1.000000
0.305882 0.694118 1.000000
0.443137 0.698039 1.000000
0.600000 0.705882 1.000000
0.686275 0.709804 1.000000
0.764706 0.713725 1.000000
0.823529 0.717647 1.000000
0.043137 0.796078 1.000000
0.109804 0.800000 1.000000
0.203922 0.803922 1.000000
0.317647 0.807843 1.000000
0.466667 0.811765 1.000000
0.607843 0.815686 1.000000
0.694118 0.819608 1.000000
0.772549 0.823529 1.000000
0.835294 0.827451 1.000000
0.050980 0.901961 1.000000
0.117647 0.905882 1.000000
0.219608 0.905882 1.000000
0.337255 0.909804 1.000000
0.486275 0.913725 1.000000
0.619608 0.913725 1.000000
0.709804 0.917647 1.000000
0.780392 0.921569 1.000000
0.839216 0.921569 1.000000
0.062745 0.976471 1.000000
0.133333 0.980392 1.000000
0.231373 0.984314 1.000000
0.352941 0.984314 1.000000
0.501961 0.988235 1.000000
0.627451 0.988235 1.000000
0.717647 0.992157 1.000000
0.784314 0.996078 1.000000
0.847059 1.000000 1.000000
