infra/render-server/luts/dramatic-warm.cube
TITLE "Dramatic Warm"
LUT_3D_SIZE 33
DOMAIN_MIN 0.0 0.0 0.0
DOMAIN_MAX 1.0 1.0 1.0
0.000000 0.000000 0.000000
0.015686 0.000000 0.000000
0.035294 0.000000 0.000000
0.054902 0.000000 0.000000
0.074510 0.003922 0.000000
0.094118 0.003922 0.000000
0.109804 0.003922 0.000000
0.133333 0.003922 0.000000
0.160784 0.003922 0.000000
0.196078 0.003922 0.000000
0.227451 0.003922 0.000000
0.258824 0.003922 0.000000
0.290196 0.007843 0.003922
0.321569 0.007843 0.003922
0.356863 0.007843 0.003922
0.403922 0.007843 0.003922
0.447059 0.007843 0.003922
0.490196 0.007843 0.003922
0.537255 0.007843 0.003922
0.584314 0.007843 0.003922
0.635294 0.011765 0.007843
0.682353 0.011765 0.007843
0.733333 0.011765 0.007843
0.780392 0.011765 0.007843
0.807843 0.015686 0.011765
0.835294 0.015686 0.011765
0.866667 0.015686 0.011765
0.890196 0.015686 0.011765
0.921569 0.015686 0.011765
0.949020 0.015686 0.011765
0.972549 0.015686 0.011765
0.996078 0.015686 0.011765
1.000000 0.019608 0.015686
0.000000 0.015686 0.000000
0.015686 0.015686 0.000000
0.035294 0.019608 0.000000
0.058824 0.019608 0.000000
0.074510 0.019608 0.000000
0.094118 0.019608 0.000000
0.113725 0.023529 0.000000
0.137255 0.023529 0.000000
0.164706 0.023529 0.000000
0.200000 0.023529 0.003922
0.231373 0.023529 0.003922
0.262745 0.023529 0.003922
0.294118 0.023529 0.003922
0.325490 0.023529 0.003922
0.360784 0.027451 0.003922
0.407843 0.027451 0.003922
0.454902 0.027451 0.003922
0.490196 0.027451 0.007843
0.537255 0.031373 0.007843
0.592157 0.031373 0.007843
0.639216 0.031373 0.007843
0.690196 0.031373 0.011765
0.741176 0.031373 0.011765
0.784314 0.031373 0.011765
0.807843 0.031373 0.011765
0.839216 0.035294 0.011765
0.870588 0.035294 0.011765
0.894118 0.035294 0.011765
0.925490 0.035294 0.011765
0.952941 0.035294 0.015686
0.976471 0.035294 0.015686
0.996078 0.035294 0.015686
1.000000 0.035294 0.015686
0.003922 0.035294 0.000000
0.019608 0.035294 0.000000
0.035294 0.035294 0.000000
0.058824 0.039216 0.000000
0.074510 0.039216 0.000000
0.094118 0.039216 0.000000
0.117647 0.039216 0.003922
0.141176 0.043137 0.003922
0.172549 0.043137 0.003922
0.203922 0.043137 0.003922
0.235294 0.043137 0.003922
0.266667 0.043137 0.003922
0.301961 0.043137 0.003922
0.329412 0.043137 0.007843
0.368627 0.043137 0.007843
0.411765 0.047059 0.007843
0.458824 0.047059 0.007843
0.498039 0.047059 0.011765
0.541176 0.047059 0.011765
0.592157 0.047059 0.011765
0.639216 0.047059 0.011765
0.690196 0.047059 0.011765
0.749020 0.047059 0.011765
0.788235 0.050980 0.011765
0.811765 0.050980 0.011765
0.843137 0.050980 0.015686
0.870588 0.050980 0.015686
0.898039 0.054902 0.015686
0.929412 0.054902 0.015686
0.956863 0.054902 0.019608
0.980392 0.054902 0.019608
1.000000 0.054902 0.019608
1.000000 0.054902 0.019608
0.003922 0.054902 0.000000
0.023529 0.054902 0.000000
0.043137 0.054902 0.003922
0.058824 0.054902 0.003922
0.078431 0.054902 0.003922
0.098039 0.058824 0.003922
0.117647 0.058824 0.003922
0.141176 0.058824 0.003922
0.176471 0.062745 0.003922
0.207843 0.062745 0.003922
0.239216 0.062745 0.007843
0.270588 0.062745 0.007843
0.305882 0.062745 0.007843
0.333333 0.062745 0.007843
0.376471 0.062745 0.011765
0.419608 0.062745 0.011765
0.462745 0.066667 0.011765
0.505882 0.066667 0.011765
0.549020 0.066667 0.011765
0.596078 0.066667 0.011765
0.650980 0.070588 0.011765
0.698039 0.070588 0.011765
0.749020 0.070588 0.015686
0.788235 0.070588 0.015686
0.819608 0.070588 0.015686
0.847059 0.070588 0.015686
0.874510 0.070588 0.019608
0.905882 0.070588 0.019608
0.933333 0.074510 0.019608
0.960784 0.074510 0.019608
0.980392 0.074510 0.019608
1.000000 0.074510 0.019608
1.000000 0.074510 0.019608
0.007843 0.074510 0.003922
0.023529 0.074510 0.003922
0.047059 0.074510 0.003922
0.062745 0.074510 0.003922
0.078431 0.074510 0.003922
0.101961 0.074510 0.003922
0.117647 0.078431 0.003922
0.145098 0.078431 0.007843
0.176471 0.078431 0.007843
0.207843 0.078431 0.007843
0.239216 0.082353 0.007843
0.274510 0.082353 0.011765
0.309804 0.082353 0.011765
0.337255 0.082353 0.011765
0.380392 0.082353 0.011765
0.431373 0.082353 0.011765
0.474510 0.082353 0.011765
0.509804 0.082353 0.011765
0.560784 0.086275 0.011765
0.607843 0.086275 0.015686
0.654902 0.086275 0.015686
0.705882 0.086275 0.015686
0.752941 0.086275 0.019608
0.792157 0.086275 0.019608
0.819608 0.086275 0.019608
0.847059 0.086275 0.019608
0.874510 0.090196 0.019608
0.909804 0.090196 0.019608
0.937255 0.090196 0.019608
0.964706 0.090196 0.019608
0.984314 0.094118 0.019608
1.000000 0.094118 0.019608
1.000000 0.094118 0.019608
0.007843 0.094118 0.003922
0.027451 0.094118 0.003922
0.047059 0.094118 0.003922
0.066667 0.094118 0.007843
0.086275 0.094118 0.007843
0.101961 0.094118 0.007843
0.121569 0.094118 0.007843
0.149020 0.101961 0.011765
0.180392 0.101961 0.011765
0.215686 0.101961 0.011765
0.243137 0.101961 0.011765
0.274510 0.105882 0.011765
0.309804 0.105882 0.011765
0.345098 0.105882 0.011765
0.388235 0.105882 0.011765
0.435294 0.105882 0.015686
0.482353 0.105882 0.015686
0.517647 0.105882 0.015686
0.564706 0.105882 0.015686
0.615686 0.109804 0.019608
0.662745 0.109804 0.019608
0.709804 0.109804 0.019608
0.760784 0.109804 0.019608
0.796078 0.113725 0.019608
0.823529 0.113725 0.019608
0.850980 0.113725 0.019608
0.878431 0.113725 0.019608
0.909804 0.113725 0.019608
0.937255 0.113725 0.019608
0.968627 0.113725 0.019608
0.984314 0.113725 0.019608
1.000000 0.117647 0.023529
1.000000 0.117647 0.023529
0.011765 0.113725 0.007843
0.031373 0.117647 0.007843
0.050980 0.117647 0.007843
0.066667 0.117647 0.007843
0.090196 0.117647 0.011765
0.105882 0.117647 0.011765
0.121569 0.117647 0.011765
0.152941 0.117647 0.011765
0.188235 0.117647 0.011765
0.219608 0.121569 0.011765
0.247059 0.121569 0.011765
0.278431 0.121569 0.011765
0.313725 0.125490 0.015686
0.345098 0.125490 0.015686
0.388235 0.125490 0.015686
0.435294 0.125490 0.015686
0.486275 0.129412 0.019608
0.525490 0.129412 0.019608
0.572549 0.129412 0.019608
0.619608 0.129412 0.019608
0.670588 0.133333 0.019608
0.717647 0.133333 0.019608
0.764706 0.133333 0.019608
0.800000 0.133333 0.019608
0.827451 0.137255 0.019608
0.854902 0.137255 0.019608
0.882353 0.137255 0.019608
0.913725 0.137255 0.023529
0.937255 0.141176 0.023529
0.968627 0.141176 0.023529
0.984314 0.141176 0.023529
1.000000 0.141176 0.023529
1.000000 0.145098 0.023529
0.015686 0.141176 0.011765
0.031373 0.141176 0.011765
0.050980 0.145098 0.011765
0.070588 0.145098 0.011765
0.090196 0.145098 0.011765
0.109804 0.145098 0.011765
0.129412 0.149020 0.011765
0.156863 0.149020 0.011765
0.192157 0.149020 0.015686
0.223529 0.149020 0.015686
0.250980 0.152941 0.015686
0.282353 0.152941 0.015686
0.317647 0.152941 0.019608
0.352941 0.152941 0.019608
0.396078 0.156863 0.019608
0.439216 0.156863 0.019608
0.486275 0.156863 0.019608
0.533333 0.156863 0.019608
0.576471 0.160784 0.019608
0.627451 0.160784 0.019608
0.674510 0.160784 0.019608
0.725490 0.160784 0.019608
0.776471 0.164706 0.019608
0.803922 0.164706 0.019608
0.831373 0.164706 0.023529
0.862745 0.164706 0.023529
0.886275 0.168627 0.023529
0.917647 0.168627 0.023529
0.941176 0.168627 0.023529
0.972549 0.168627 0.023529
0.992157 0.176471 0.023529
1.000000 0.176471 0.023529
1.000000 0.176471 0.027451
0.015686 0.176471 0.011765
0.031373 0.176471 0.011765
0.050980 0.176471 0.011765
0.074510 0.180392 0.011765
0.094118 0.180392 0.011765
0.109804 0.180392 0.015686
0.133333 0.180392 0.015686
0.160784 0.184314 0.015686
0.196078 0.184314 0.015686
0.227451 0.184314 0.019608
0.258824 0.184314 0.019608
0.290196 0.188235 0.019608
0.321569 0.188235 0.019608
0.356863 0.188235 0.019608
0.403922 0.188235 0.019608
0.447059 0.192157 0.019608
0.490196 0.192157 0.019608
0.533333 0.192157 0.019608
0.576471 0.192157 0.019608
0.635294 0.196078 0.019608
0.682353 0.196078 0.019608
0.733333 0.196078 0.023529
0.780392 0.196078 0.023529
0.807843 0.203922 0.023529
0.835294 0.203922 0.023529
0.866667 0.203922 0.023529
0.890196 0.203922 0.023529
0.921569 0.207843 0.023529
0.949020 0.207843 0.023529
0.972549 0.207843 0.027451
0.996078 0.207843 0.027451
1.000000 0.211765 0.027451
1.000000 0.211765 0.027451
0.015686 0.207843 0.011765
0.035294 0.211765 0.011765
0.054902 0.211765 0.015686
0.074510 0.211765 0.015686
0.094118 0.211765 0.015686
0.109804 0.215686 0.015686
0.137255 0.215686 0.019608
0.164706 0.215686 0.019608
0.200000 0.215686 0.019608
0.231373 0.219608 0.019608
0.262745 0.219608 0.019608
0.294118 0.219608 0.019608
0.325490 0.219608 0.019608
0.360784 0.223529 0.019608
0.407843 0.223529 0.019608
0.454902 0.223529 0.019608
0.498039 0.227451 0.019608
0.537255 0.227451 0.023529
0.584314 0.227451 0.023529
0.635294 0.227451 0.023529
0.682353 0.227451 0.023529
0.733333 0.231373 0.023529
0.784314 0.231373 0.023529
0.807843 0.231373 0.023529
0.839216 0.235294 0.023529
0.870588 0.235294 0.027451
0.894118 0.235294 0.027451
0.925490 0.235294 0.027451
0.952941 0.239216 0.027451
0.976471 0.239216 0.027451
0.996078 0.239216 0.027451
1.000000 0.239216 0.027451
1.000000 0.243137 0.027451
0.019608 0.239216 0.015686
0.035294 0.239216 0.015686
0.058824 0.243137 0.019608
0.074510 0.243137 0.019608
0.094118 0.243137 0.019608
0.113725 0.243137 0.019608
0.137255 0.247059 0.019608
0.164706 0.247059 0.019608
0.203922 0.247059 0.019608
0.235294 0.247059 0.019608
0.266667 0.250980 0.019608
0.301961 0.250980 0.019608
0.329412 0.250980 0.019608
0.368627 0.250980 0.019608
0.411765 0.254902 0.023529
0.458824 0.254902 0.023529
0.505882 0.254902 0.023529
0.541176 0.254902 0.023529
0.592157 0.258824 0.023529
0.639216 0.258824 0.023529
0.690196 0.258824 0.023529
0.741176 0.258824 0.023529
0.784314 0.262745 0.027451
0.807843 0.262745 0.027451
0.843137 0.262745 0.027451
0.870588 0.262745 0.027451
0.898039 0.266667 0.027451
0.929412 0.266667 0.027451
0.956863 0.266667 0.027451
0.980392 0.266667 0.027451
1.000000 0.274510 0.031373
1.000000 0.274510 0.031373
1.000000 0.274510 0.031373
0.023529 0.274510 0.019608
0.043137 0.274510 0.019608
0.058824 0.274510 0.019608
0.078431 0.278431 0.019608
0.098039 0.278431 0.019608
0.117647 0.278431 0.019608
0.141176 0.278431 0.019608
0.172549 0.282353 0.019608
0.203922 0.282353 0.019608
0.235294 0.282353 0.019608
0.266667 0.282353 0.019608
0.305882 0.286275 0.023529
0.333333 0.286275 0.023529
0.376471 0.286275 0.023529
0.419608 0.286275 0.023529
0.462745 0.290196 0.023529
0.509804 0.290196 0.023529
0.549020 0.290196 0.023529
0.596078 0.290196 0.027451
0.650980 0.294118 0.027451
0.698039 0.294118 0.027451
0.749020 0.294118 0.027451
0.788235 0.294118 0.027451
0.811765 0.298039 0.027451
0.843137 0.298039 0.027451
0.870588 0.298039 0.027451
0.898039 0.298039 0.031373
0.933333 0.305882 0.031373
0.960784 0.305882 0.031373
0.980392 0.305882 0.031373
1.000000 0.305882 0.035294
1.000000 0.309804 0.035294
1.000000 0.309804 0.035294
0.023529 0.305882 0.019608
0.047059 0.309804 0.019608
0.062745 0.309804 0.019608
0.078431 0.309804 0.019608
0.101961 0.309804 0.019608
0.117647 0.313725 0.019608
0.145098 0.313725 0.019608
0.176471 0.313725 0.023529
0.207843 0.313725 0.023529
0.239216 0.317647 0.023529
0.270588 0.317647 0.023529
0.305882 0.317647 0.023529
0.333333 0.317647 0.023529
0.380392 0.321569 0.023529
0.431373 0.321569 0.023529
0.474510 0.321569 0.027451
0.517647 0.321569 0.027451
0.560784 0.325490 0.027451
0.607843 0.325490 0.027451
0.654902 0.325490 0.027451
0.705882 0.325490 0.027451
0.752941 0.333333 0.027451
0.792157 0.333333 0.027451
0.819608 0.333333 0.031373
0.847059 0.333333 0.031373
0.874510 0.337255 0.031373
0.905882 0.337255 0.031373
0.933333 0.337255 0.035294
0.960784 0.341176 0.035294
0.984314 0.341176 0.035294
1.000000 0.341176 0.035294
1.000000 0.341176 0.035294
1.000000 0.349020 0.035294
0.027451 0.341176 0.019608
0.047059 0.341176 0.019608
0.066667 0.349020 0.019608
0.086275 0.349020 0.019608
0.101961 0.349020 0.023529
0.121569 0.349020 0.023529
0.149020 0.356863 0.023529
0.180392 0.356863 0.023529
0.215686 0.356863 0.023529
0.243137 0.356863 0.023529
0.274510 0.360784 0.023529
0.309804 0.360784 0.023529
0.337255 0.360784 0.027451
0.380392 0.360784 0.027451
0.431373 0.364706 0.027451
0.474510 0.364706 0.027451
0.525490 0.364706 0.027451
0.564706 0.364706 0.027451
0.615686 0.372549 0.027451
0.662745 0.372549 0.027451
0.709804 0.372549 0.031373
0.760784 0.372549 0.031373
0.796078 0.380392 0.031373
0.823529 0.380392 0.031373
0.850980 0.380392 0.035294
0.878431 0.380392 0.035294
0.909804 0.384314 0.035294
0.937255 0.384314 0.035294
0.964706 0.384314 0.035294
0.984314 0.384314 0.035294
1.000000 0.388235 0.035294
1.000000 0.388235 0.039216
1.000000 0.388235 0.039216
0.031373 0.388235 0.023529
0.050980 0.388235 0.023529
0.066667 0.388235 0.023529
0.090196 0.388235 0.023529
0.105882 0.396078 0.023529
0.121569 0.396078 0.023529
0.152941 0.396078 0.023529
0.188235 0.407843 0.023529
0.219608 0.407843 0.027451
0.247059 0.407843 0.027451
0.278431 0.407843 0.027451
0.313725 0.411765 0.027451
0.345098 0.411765 0.027451
0.388235 0.411765 0.027451
0.435294 0.411765 0.027451
0.482353 0.415686 0.027451
0.525490 0.415686 0.031373
0.572549 0.415686 0.031373
0.619608 0.415686 0.031373
0.670588 0.423529 0.031373
0.717647 0.423529 0.035294
0.764706 0.423529 0.035294
0.800000 0.423529 0.035294
0.827451 0.431373 0.035294
0.854902 0.431373 0.035294
0.882353 0.431373 0.035294
0.913725 0.431373 0.035294
0.937255 0.435294 0.035294
0.968627 0.435294 0.039216
0.984314 0.435294 0.039216
1.000000 0.435294 0.039216
1.000000 0.439216 0.039216
1.000000 0.439216 0.039216
0.031373 0.435294 0.023529
0.050980 0.439216 0.023529
0.066667 0.439216 0.023529
0.090196 0.439216 0.023529
0.109804 0.439216 0.023529
0.129412 0.447059 0.027451
0.156863 0.447059 0.027451
0.192157 0.447059 0.027451
0.223529 0.447059 0.027451
0.250980 0.454902 0.027451
0.282353 0.454902 0.027451
0.317647 0.454902 0.027451
0.352941 0.454902 0.027451
0.396078 0.458824 0.031373
0.439216 0.458824 0.031373
0.486275 0.458824 0.031373
0.533333 0.458824 0.031373
0.572549 0.462745 0.035294
0.619608 0.462745 0.035294
0.674510 0.462745 0.035294
0.725490 0.462745 0.035294
0.776471 0.470588 0.035294
0.803922 0.470588 0.035294
0.831373 0.470588 0.035294
0.862745 0.470588 0.035294
0.886275 0.478431 0.039216
0.917647 0.478431 0.039216
0.941176 0.478431 0.039216
0.972549 0.478431 0.039216
0.992157 0.482353 0.039216
1.000000 0.482353 0.039216
1.000000 0.482353 0.039216
1.000000 0.486275 0.043137
0.031373 0.482353 0.023529
0.050980 0.482353 0.023529
0.070588 0.486275 0.027451
0.090196 0.486275 0.027451
0.109804 0.486275 0.027451
0.133333 0.486275 0.027451
0.160784 0.494118 0.027451
0.196078 0.494118 0.027451
0.227451 0.494118 0.027451
0.258824 0.494118 0.031373
0.290196 0.501961 0.031373
0.321569 0.501961 0.031373
0.356863 0.501961 0.031373
0.403922 0.501961 0.035294
0.447059 0.509804 0.035294
0.490196 0.509804 0.035294
0.537255 0.509804 0.035294
0.576471 0.509804 0.035294
0.627451 0.513725 0.035294
0.674510 0.513725 0.035294
0.725490 0.513725 0.035294
0.780392 0.513725 0.039216
0.807843 0.521569 0.039216
0.835294 0.521569 0.039216
0.866667 0.521569 0.039216
0.890196 0.521569 0.039216
0.921569 0.529412 0.039216
0.949020 0.529412 0.039216
0.972549 0.529412 0.039216
0.996078 0.529412 0.043137
1.000000 0.533333 0.043137
1.000000 0.533333 0.043137
1.000000 0.533333 0.043137
0.035294 0.529412 0.027451
0.054902 0.529412 0.027451
0.074510 0.529412 0.027451
0.094118 0.529412 0.027451
0.109804 0.533333 0.027451
0.133333 0.533333 0.027451
0.160784 0.533333 0.031373
0.196078 0.541176 0.031373
0.227451 0.541176 0.031373
0.258824 0.541176 0.031373
0.294118 0.541176 0.035294
0.325490 0.545098 0.035294
0.360784 0.545098 0.035294
0.407843 0.545098 0.035294
0.454902 0.545098 0.035294
0.498039 0.552941 0.035294
0.541176 0.552941 0.035294
0.584314 0.552941 0.035294
0.635294 0.552941 0.039216
0.682353 0.560784 0.039216
0.733333 0.560784 0.039216
0.780392 0.560784 0.039216
0.807843 0.560784 0.039216
0.835294 0.564706 0.039216
0.866667 0.564706 0.039216
0.890196 0.564706 0.039216
0.925490 0.564706 0.043137
0.952941 0.572549 0.043137
0.976471 0.572549 0.043137
0.996078 0.572549 0.043137
1.000000 0.572549 0.043137
1.000000 0.580392 0.043137
1.000000 0.580392 0.043137
0.035294 0.572549 0.027451
0.058824 0.580392 0.027451
0.074510 0.580392 0.027451
0.094118 0.580392 0.031373
0.113725 0.580392 0.031373
0.137255 0.584314 0.031373
0.164706 0.584314 0.031373
0.200000 0.584314 0.035294
0.231373 0.584314 0.035294
0.262745 0.592157 0.035294
0.294118 0.592157 0.035294
0.325490 0.592157 0.035294
0.368627 0.592157 0.035294
0.411765 0.600000 0.035294
0.458824 0.600000 0.035294
0.505882 0.600000 0.039216
0.549020 0.600000 0.039216
0.592157 0.603922 0.039216
0.639216 0.603922 0.039216
0.690196 0.603922 0.039216
0.741176 0.603922 0.039216
0.784314 0.615686 0.039216
0.807843 0.615686 0.039216
0.839216 0.615686 0.043137
0.870588 0.615686 0.043137
0.894118 0.619608 0.043137
0.925490 0.619608 0.043137
0.952941 0.619608 0.043137
0.980392 0.627451 0.043137
1.000000 0.627451 0.043137
1.000000 0.627451 0.043137
1.000000 0.627451 0.043137
1.000000 0.635294 0.043137
0.043137 0.627451 0.031373
0.058824 0.627451 0.031373
0.078431 0.635294 0.031373
0.098039 0.635294 0.031373
0.117647 0.635294 0.035294
0.141176 0.635294 0.035294
0.172549 0.639216 0.035294
0.203922 0.639216 0.035294
0.235294 0.639216 0.035294
0.266667 0.639216 0.035294
0.301961 0.647059 0.035294
0.329412 0.647059 0.039216
0.368627 0.647059 0.039216
0.411765 0.647059 0.039216
0.458824 0.650980 0.039216
0.509804 0.650980 0.039216
0.560784 0.650980 0.039216
0.596078 0.650980 0.039216
0.650980 0.658824 0.039216
0.698039 0.658824 0.043137
0.749020 0.658824 0.043137
0.788235 0.658824 0.043137
0.811765 0.666667 0.043137
0.843137 0.666667 0.043137
0.870588 0.666667 0.043137
0.898039 0.666667 0.043137
0.929412 0.670588 0.043137
0.956863 0.670588 0.043137
0.980392 0.670588 0.043137
1.000000 0.670588 0.043137
1.000000 0.678431 0.043137
1.000000 0.678431 0.047059
1.000000 0.678431 0.047059
0.047059 0.678431 0.035294
0.062745 0.678431 0.035294
0.078431 0.678431 0.035294
0.101961 0.678431 0.035294
0.117647 0.686275 0.035294
0.145098 0.686275 0.035294
0.176471 0.686275 0.035294
0.207843 0.686275 0.035294
0.239216 0.690196 0.039216
0.270588 0.690196 0.039216
0.305882 0.690196 0.039216
0.333333 0.698039 0.039216
0.376471 0.698039 0.039216
0.419608 0.698039 0.039216
0.462745 0.698039 0.039216
0.509804 0.705882 0.039216
0.560784 0.705882 0.043137
0.607843 0.705882 0.043137
0.654902 0.705882 0.043137
0.705882 0.713725 0.043137
0.752941 0.713725 0.043137
0.792157 0.713725 0.043137
0.819608 0.713725 0.043137
0.847059 0.721569 0.043137
0.874510 0.721569 0.043137
0.905882 0.721569 0.043137
0.933333 0.721569 0.043137
0.960784 0.725490 0.043137
0.980392 0.725490 0.047059
1.000000 0.725490 0.047059
1.000000 0.725490 0.047059
1.000000 0.733333 0.047059
1.000000 0.733333 0.050980
0.047059 0.725490 0.035294
0.062745 0.733333 0.035294
0.086275 0.733333 0.035294
0.101961 0.733333 0.035294
0.121569 0.733333 0.035294
0.149020 0.737255 0.039216
0.180392 0.737255 0.039216
0.215686 0.737255 0.039216
0.243137 0.737255 0.039216
0.274510 0.741176 0.039216
0.309804 0.741176 0.039216
0.337255 0.741176 0.039216
0.380392 0.741176 0.039216
0.431373 0.745098 0.043137
0.474510 0.745098 0.043137
0.517647 0.745098 0.043137
0.564706 0.745098 0.043137
0.607843 0.749020 0.043137
0.662745 0.749020 0.043137
0.709804 0.749020 0.043137
0.760784 0.749020 0.043137
0.796078 0.752941 0.043137
0.823529 0.752941 0.043137
0.850980 0.752941 0.043137
0.878431 0.752941 0.047059
0.909804 0.756863 0.047059
0.937255 0.756863 0.047059
0.964706 0.756863 0.047059
0.984314 0.756863 0.050980
1.000000 0.760784 0.050980
1.000000 0.760784 0.050980
1.000000 0.760784 0.050980
1.000000 0.760784 0.050980
0.047059 0.760784 0.035294
0.066667 0.760784 0.039216
0.086275 0.764706 0.039216
0.101961 0.764706 0.039216
0.121569 0.764706 0.039216
0.152941 0.764706 0.039216
0.188235 0.764706 0.039216
0.219608 0.764706 0.039216
0.247059 0.764706 0.039216
0.278431 0.764706 0.043137
0.313725 0.768627 0.043137
0.345098 0.768627 0.043137
0.388235 0.768627 0.043137
0.435294 0.768627 0.043137
0.482353 0.772549 0.043137
0.525490 0.772549 0.043137
0.572549 0.772549 0.043137
0.615686 0.772549 0.043137
0.662745 0.776471 0.043137
0.709804 0.776471 0.043137
0.760784 0.776471 0.043137
0.800000 0.776471 0.047059
0.827451 0.780392 0.047059
0.854902 0.780392 0.047059
0.882353 0.780392 0.047059
0.913725 0.780392 0.050980
0.937255 0.784314 0.050980
0.968627 0.784314 0.050980
0.984314 0.784314 0.050980
1.000000 0.784314 0.050980
1.000000 0.788235 0.050980
1.000000 0.788235 0.050980
1.000000 0.788235 0.050980
0.050980 0.788235 0.039216
0.066667 0.788235 0.039216
0.090196 0.788235 0.039216
0.105882 0.788235 0.039216
0.121569 0.792157 0.039216
0.152941 0.792157 0.039216
0.188235 0.792157 0.043137
0.223529 0.792157 0.043137
0.250980 0.796078 0.043137
0.282353 0.796078 0.043137
0.317647 0.796078 0.043137
0.352941 0.796078 0.043137
0.396078 0.800000 0.043137
0.439216 0.800000 0.043137
0.486275 0.800000 0.043137
0.533333 0.803922 0.043137
0.576471 0.803922 0.043137
0.619608 0.803922 0.043137
0.670588 0.803922 0.047059
0.717647 0.803922 0.047059
0.764706 0.807843 0.047059
0.800000 0.807843 0.047059
0.827451 0.807843 0.050980
0.862745 0.815686 0.050980
0.886275 0.815686 0.050980
0.917647 0.815686 0.050980
0.941176 0.815686 0.050980
0.972549 0.819608 0.050980
0.992157 0.819608 0.050980
1.000000 0.819608 0.050980
1.000000 0.819608 0.054902
1.000000 0.823529 0.054902
1.000000 0.823529 0.054902
0.050980 0.819608 0.039216
0.070588 0.823529 0.039216
0.090196 0.823529 0.043137
0.109804 0.823529 0.043137
0.129412 0.823529 0.043137
0.156863 0.823529 0.043137
0.192157 0.823529 0.043137
0.223529 0.823529 0.043137
0.250980 0.823529 0.043137
0.282353 0.827451 0.043137
0.321569 0.827451 0.043137
0.356863 0.827451 0.043137
0.403922 0.827451 0.043137
0.447059 0.831373 0.043137
0.490196 0.831373 0.047059
0.537255 0.831373 0.047059
0.584314 0.831373 0.047059
0.627451 0.835294 0.047059
0.674510 0.835294 0.050980
0.725490 0.835294 0.050980
0.776471 0.835294 0.050980
0.803922 0.839216 0.050980
0.831373 0.839216 0.050980
0.862745 0.839216 0.050980
0.886275 0.839216 0.050980
0.917647 0.843137 0.050980
0.949020 0.843137 0.054902
0.972549 0.843137 0.054902
0.996078 0.843137 0.054902
1.000000 0.847059 0.054902
1.000000 0.847059 0.058824
1.000000 0.847059 0.058824
1.000000 0.847059 0.058824
0.054902 0.847059 0.043137
0.074510 0.847059 0.043137
0.094118 0.850980 0.043137
0.109804 0.850980 0.043137
0.133333 0.850980 0.043137
0.160784 0.850980 0.043137
0.196078 0.854902 0.043137
0.227451 0.854902 0.043137
0.258824 0.854902 0.043137
0.290196 0.854902 0.043137
0.321569 0.858824 0.043137
0.356863 0.858824 0.047059
0.407843 0.858824 0.047059
0.454902 0.858824 0.047059
0.498039 0.862745 0.047059
0.541176 0.862745 0.050980
0.592157 0.862745 0.050980
0.635294 0.862745 0.050980
0.682353 0.866667 0.050980
0.733333 0.866667 0.050980
0.780392 0.866667 0.050980
0.807843 0.866667 0.050980
0.835294 0.870588 0.050980
0.866667 0.870588 0.054902
0.890196 0.870588 0.054902
0.921569 0.870588 0.054902
0.949020 0.874510 0.054902
0.972549 0.874510 0.058824
0.996078 0.874510 0.058824
1.000000 0.874510 0.058824
1.000000 0.878431 0.058824
1.000000 0.878431 0.058824
1.000000 0.878431 0.058824
0.058824 0.878431 0.043137
0.074510 0.878431 0.043137
0.094118 0.878431 0.043137
0.113725 0.878431 0.043137
0.137255 0.882353 0.043137
0.164706 0.882353 0.043137
0.200000 0.882353 0.043137
0.231373 0.882353 0.043137
0.262745 0.886275 0.047059
0.294118 0.886275 0.047059
0.325490 0.886275 0.047059
0.360784 0.886275 0.050980
0.407843 0.886275 0.050980
0.454902 0.886275 0.050980
0.498039 0.886275 0.050980
0.549020 0.886275 0.050980
0.596078 0.890196 0.050980
0.639216 0.890196 0.050980
0.690196 0.890196 0.050980
0.741176 0.890196 0.054902
0.784314 0.894118 0.054902
0.807843 0.894118 0.054902
0.839216 0.894118 0.054902
0.870588 0.894118 0.058824
0.894118 0.898039 0.058824
0.925490 0.898039 0.058824
0.952941 0.898039 0.058824
