infra/render-server/luts/dramatic.cube
TITLE "Dramatic"
LUT_3D_SIZE 9
DOMAIN_MIN 0.0 0.0 0.0
DOMAIN_MAX 1.0 1.0 1.0
0.000000 0.000000 0.000000
0.070588 0.003922 0.003922
0.149020 0.003922 0.003922
0.266667 0.007843 0.007843
0.407843 0.007843 0.007843
0.580392 0.011765 0.011765
0.737255 0.015686 0.015686
0.839216 0.015686 0.015686
0.921569 0.019608 0.019608
0.007843 0.074510 0.007843
0.074510 0.074510 0.007843
0.160784 0.078431 0.011765
0.282353 0.082353 0.015686
0.431373 0.082353 0.015686
0.596078 0.086275 0.019608
0.745098 0.086275 0.023529
0.854902 0.090196 0.023529
0.933333 0.094118 0.027451
0.015686 0.172549 0.015686
0.086275 0.176471 0.015686
0.180392 0.180392 0.019608
0.294118 0.184314 0.023529
0.447059 0.188235 0.023529
0.623529 0.192157 0.027451
0.760784 0.196078 0.031373
0.862745 0.200000 0.031373
0.941176 0.203922 0.035294
0.023529 0.294118 0.023529
0.094118 0.298039 0.027451
0.192157 0.301961 0.031373
0.305882 0.305882 0.031373
0.470588 0.309804 0.035294
0.643137 0.313725 0.035294
0.772549 0.321569 0.039216
0.874510 0.329412 0.043137
0.949020 0.337255 0.043137
0.031373 0.466667 0.031373
0.101961 0.470588 0.035294
0.207843 0.478431 0.035294
0.325490 0.486275 0.039216
0.490196 0.490196 0.043137
0.662745 0.494118 0.043137
0.788235 0.501961 0.047059
0.886275 0.509804 0.047059
0.956863 0.513725 0.050980
0.043137 0.654902 0.043137
0.109804 0.662745 0.043137
0.219608 0.666667 0.047059
0.345098 0.674510 0.047059
0.509804 0.682353 0.050980
0.686275 0.686275 0.054902
0.796078 0.694118 0.054902
0.894118 0.698039 0.058824
0.964706 0.705882 0.062745
0.047059 0.788235 0.047059
0.117647 0.792157 0.050980
0.231373 0.792157 0.054902
0.368627 0.796078 0.054902
0.533333 0.800000 0.058824
0.705882 0.803922 0.062745
0.807843 0.807843 0.062745
0.905882 0.811765 0.066667
0.976471 0.815686 0.070588
0.054902 0.894118 0.054902
0.133333 0.898039 0.058824
0.247059 0.898039 0.062745
0.384314 0.901961 0.062745
0.552941 0.905882 0.070588
0.721569 0.905882 0.070588
0.823529 0.909804 0.074510
0.913725 0.913725 0.074510
0.984314 0.913725 0.078431
0.066667 0.972549 0.066667
0.145098 0.976471 0.070588
0.258824 0.976471 0.070588
0.407843 0.980392 0.074510
0.580392 0.984314 0.074510
0.733333 0.984314 0.078431
0.835294 0.988235 0.082353
0.921569 0.988235 0.082353
0.992157 0.992157 0.086275
0.000000 0.000000 0.066667
0.070588 0.003922 0.070588
0.149020 0.003922 0.070588
0.270588 0.007843 0.074510
0.415686 0.007843 0.074510
0.580392 0.011765 0.078431
0.737255 0.015686 0.082353
0.843137 0.015686 0.082353
0.925490 0.019608 0.086275
0.007843 0.074510 0.074510
0.078431 0.078431 0.078431
0.164706 0.082353 0.082353
0.282353 0.082353 0.082353
0.431373 0.086275 0.086275
0.603922 0.086275 0.086275
0.749020 0.090196 0.090196
0.854902 0.094118 0.094118
0.933333 0.094118 0.094118
0.015686 0.172549 0.082353
0.086275 0.176471 0.086275
0.180392 0.180392 0.086275
0.294118 0.184314 0.090196
0.454902 0.188235 0.094118
0.623529 0.192157 0.094118
0.760784 0.196078 0.098039
0.862745 0.200000 0.101961
0.941176 0.203922 0.101961
0.023529 0.298039 0.090196
0.094118 0.301961 0.094118
0.196078 0.305882 0.094118
0.309804 0.309804 0.098039
0.470588 0.313725 0.101961
0.643137 0.321569 0.101961
0.776471 0.325490 0.105882
0.878431 0.329412 0.109804
0.949020 0.337255 0.109804
0.035294 0.466667 0.101961
0.101961 0.470588 0.101961
0.207843 0.478431 0.105882
0.325490 0.486275 0.109804
0.490196 0.490196 0.109804
0.666667 0.494118 0.113725
0.788235 0.501961 0.113725
0.886275 0.509804 0.117647
0.956863 0.521569 0.121569
0.043137 0.654902 0.109804
0.109804 0.662745 0.109804
0.219608 0.666667 0.113725
0.349020 0.674510 0.113725
0.513725 0.682353 0.117647
0.686275 0.686275 0.121569
0.796078 0.694118 0.125490
0.898039 0.698039 0.129412
0.968627 0.705882 0.133333
0.047059 0.792157 0.117647
0.121569 0.792157 0.121569
0.235294 0.796078 0.125490
0.368627 0.800000 0.129412
0.533333 0.803922 0.133333
0.709804 0.807843 0.137255
0.811765 0.811765 0.141176
0.905882 0.815686 0.145098
0.976471 0.819608 0.149020
0.058824 0.894118 0.129412
0.133333 0.898039 0.133333
0.247059 0.898039 0.137255
0.384314 0.901961 0.141176
0.560784 0.905882 0.145098
0.721569 0.905882 0.149020
0.823529 0.909804 0.152941
0.913725 0.913725 0.156863
0.984314 0.913725 0.160784
0.066667 0.972549 0.141176
0.145098 0.976471 0.145098
0.266667 0.976471 0.149020
0.407843 0.980392 0.152941
0.580392 0.984314 0.156863
0.733333 0.984314 0.160784
0.839216 0.988235 0.164706
0.921569 0.988235 0.176471
0.992157 0.992157 0.180392
0.000000 0.000000 0.145098
0.070588 0.003922 0.149020
0.152941 0.003922 0.152941
0.270588 0.007843 0.156863
0.415686 0.007843 0.160784
0.580392 0.011765 0.164706
0.737255 0.015686 0.172549
0.843137 0.015686 0.176471
0.925490 0.019608 0.180392
0.007843 0.074510 0.156863
0.078431 0.078431 0.160784
0.164706 0.082353 0.164706
0.282353 0.082353 0.172549
0.439216 0.086275 0.176471
0.603922 0.086275 0.180392
0.749020 0.090196 0.184314
0.854902 0.094118 0.188235
0.933333 0.094118 0.192157
0.015686 0.172549 0.172549
0.086275 0.176471 0.176471
0.184314 0.184314 0.184314
0.298039 0.188235 0.188235
0.454902 0.192157 0.192157
0.623529 0.196078 0.196078
0.764706 0.200000 0.200000
0.866667 0.203922 0.203922
0.941176 0.207843 0.207843
0.023529 0.298039 0.188235
0.094118 0.301961 0.192157
0.196078 0.305882 0.196078
0.309804 0.309804 0.200000
0.470588 0.313725 0.203922
0.647059 0.321569 0.207843
0.776471 0.325490 0.211765
0.878431 0.329412 0.215686
0.949020 0.337255 0.219608
0.035294 0.470588 0.200000
0.101961 0.478431 0.203922
0.207843 0.486275 0.207843
0.329412 0.490196 0.211765
0.494118 0.494118 0.215686
0.666667 0.501961 0.219608
0.788235 0.509804 0.223529
0.890196 0.513725 0.227451
0.960784 0.521569 0.231373
0.043137 0.654902 0.215686
0.109804 0.662745 0.219608
0.223529 0.666667 0.223529
0.349020 0.674510 0.227451
0.513725 0.682353 0.231373
0.686275 0.686275 0.235294
0.800000 0.694118 0.239216
0.898039 0.705882 0.243137
0.968627 0.709804 0.247059
0.050980 0.792157 0.227451
0.121569 0.792157 0.231373
0.235294 0.796078 0.235294
0.368627 0.800000 0.239216
0.541176 0.803922 0.243137
0.709804 0.807843 0.247059
0.811765 0.811765 0.250980
0.905882 0.815686 0.254902
0.976471 0.819608 0.258824
0.058824 0.898039 0.243137
0.133333 0.898039 0.247059
0.250980 0.901961 0.250980
0.392157 0.905882 0.254902
0.560784 0.905882 0.258824
0.721569 0.909804 0.266667
0.827451 0.913725 0.270588
0.913725 0.913725 0.274510
0.984314 0.917647 0.278431
0.070588 0.972549 0.254902
0.149020 0.976471 0.258824
0.266667 0.976471 0.266667
0.407843 0.980392 0.270588
0.580392 0.984314 0.274510
0.737255 0.984314 0.278431
0.839216 0.988235 0.282353
0.921569 0.988235 0.286275
0.992157 0.992157 0.290196
0.003922 0.003922 0.254902
0.070588 0.003922 0.258824
0.152941 0.007843 0.266667
0.270588 0.007843 0.270588
0.415686 0.011765 0.274510
0.584314 0.015686 0.278431
0.737255 0.015686 0.282353
0.843137 0.019608 0.286275
0.925490 0.023529 0.290196
0.007843 0.074510 0.274510
0.078431 0.078431 0.278431
0.164706 0.082353 0.282353
0.286275 0.082353 0.286275
0.439216 0.086275 0.290196
0.603922 0.086275 0.294118
0.749020 0.090196 0.298039
0.854902 0.094118 0.301961
0.933333 0.094118 0.305882
0.015686 0.176471 0.286275
0.086275 0.180392 0.290196
0.184314 0.184314 0.294118
0.298039 0.188235 0.298039
0.454902 0.192157 0.301961
0.627451 0.196078 0.305882
0.764706 0.200000 0.309804
0.866667 0.203922 0.313725
0.941176 0.207843 0.321569
0.027451 0.298039 0.298039
0.094118 0.301961 0.301961
0.196078 0.305882 0.305882
0.313725 0.313725 0.313725
0.478431 0.321569 0.321569
0.647059 0.325490 0.325490
0.776471 0.329412 0.329412
0.882353 0.337255 0.337255
0.952941 0.345098 0.345098
0.035294 0.470588 0.313725
0.101961 0.478431 0.321569
0.211765 0.486275 0.325490
0.329412 0.490196 0.329412
0.494118 0.494118 0.337255
0.666667 0.501961 0.345098
0.792157 0.509804 0.349020
0.890196 0.513725 0.352941
0.960784 0.521569 0.360784
0.043137 0.662745 0.329412
0.113725 0.666667 0.337255
0.223529 0.674510 0.345098
0.349020 0.682353 0.349020
0.513725 0.686275 0.352941
0.694118 0.694118 0.360784
0.800000 0.698039 0.368627
0.898039 0.705882 0.372549
0.968627 0.709804 0.376471
0.050980 0.792157 0.352941
0.121569 0.792157 0.360784
0.235294 0.796078 0.368627
0.372549 0.800000 0.372549
0.541176 0.803922 0.376471
0.709804 0.807843 0.384314
0.811765 0.811765 0.392157
0.905882 0.815686 0.396078
0.976471 0.823529 0.400000
0.058824 0.898039 0.372549
0.137255 0.898039 0.376471
0.250980 0.901961 0.384314
0.392157 0.905882 0.392157
0.560784 0.905882 0.396078
0.725490 0.909804 0.400000
0.827451 0.913725 0.407843
0.913725 0.913725 0.415686
0.984314 0.917647 0.419608
0.070588 0.976471 0.392157
0.149020 0.976471 0.400000
0.266667 0.980392 0.407843
0.415686 0.984314 0.415686
0.584314 0.984314 0.419608
0.737255 0.988235 0.423529
0.839216 0.988235 0.431373
0.925490 0.992157 0.439216
0.996078 0.996078 0.443137
0.003922 0.003922 0.396078
0.070588 0.003922 0.400000
0.152941 0.007843 0.407843
0.274510 0.007843 0.415686
0.419608 0.011765 0.419608
0.584314 0.015686 0.423529
0.737255 0.015686 0.431373
0.847059 0.019608 0.439216
0.925490 0.023529 0.443137
0.007843 0.078431 0.415686
0.082353 0.082353 0.419608
0.172549 0.082353 0.423529
0.286275 0.086275 0.431373
0.439216 0.086275 0.439216
0.611765 0.090196 0.443137
0.752941 0.094118 0.447059
0.854902 0.094118 0.454902
0.933333 0.098039 0.462745
0.019608 0.176471 0.439216
0.086275 0.180392 0.443137
0.184314 0.184314 0.447059
0.298039 0.188235 0.454902
0.462745 0.192157 0.462745
0.627451 0.196078 0.466667
0.764706 0.200000 0.470588
0.866667 0.203922 0.478431
0.945098 0.207843 0.486275
0.027451 0.301961 0.454902
0.094118 0.305882 0.462745
0.200000 0.309804 0.466667
0.313725 0.313725 0.470588
0.478431 0.321569 0.478431
0.647059 0.325490 0.486275
0.780392 0.329412 0.490196
0.882353 0.337255 0.494118
0.952941 0.345098 0.501961
0.035294 0.470588 0.470588
0.105882 0.478431 0.478431
0.211765 0.486275 0.486275
0.329412 0.490196 0.490196
0.501961 0.501961 0.501961
0.674510 0.501961 0.501961
0.792157 0.513725 0.513725
0.890196 0.521569 0.521569
0.960784 0.525490 0.525490
0.043137 0.662745 0.494118
0.113725 0.666667 0.501961
0.223529 0.674510 0.509804
0.352941 0.682353 0.513725
0.521569 0.686275 0.521569
0.694118 0.694118 0.525490
0.800000 0.698039 0.533333
0.898039 0.705882 0.541176
0.968627 0.709804 0.545098
0.050980 0.792157 0.513725
0.125490 0.796078 0.521569
0.239216 0.800000 0.525490
0.372549 0.803922 0.533333
0.541176 0.807843 0.541176
0.713725 0.811765 0.545098
0.815686 0.815686 0.552941
0.905882 0.819608 0.560784
0.976471 0.823529 0.564706
0.062745 0.898039 0.541176
0.137255 0.898039 0.545098
0.250980 0.901961 0.552941
0.392157 0.905882 0.560784
0.564706 0.905882 0.564706
0.725490 0.909804 0.572549
0.827451 0.913725 0.580392
0.913725 0.913725 0.584314
0.988235 0.917647 0.592157
0.070588 0.976471 0.560784
0.149020 0.976471 0.564706
0.270588 0.980392 0.572549
0.415686 0.984314 0.580392
0.584314 0.984314 0.584314
0.737255 0.988235 0.592157
0.843137 0.988235 0.596078
0.925490 0.992157 0.603922
0.996078 0.996078 0.611765
0.003922 0.003922 0.552941
0.070588 0.003922 0.560784
0.156863 0.007843 0.564706
0.274510 0.007843 0.572549
0.419608 0.011765 0.580392
0.584314 0.015686 0.584314
0.741176 0.015686 0.592157
0.847059 0.019608 0.596078
0.925490 0.023529 0.611765
0.011765 0.078431 0.580392
0.082353 0.082353 0.584314
0.172549 0.082353 0.592157
0.286275 0.086275 0.596078
0.443137 0.086275 0.603922
0.611765 0.090196 0.611765
0.752941 0.094118 0.615686
0.854902 0.094118 0.623529
0.937255 0.098039 0.627451
0.019608 0.176471 0.596078
0.086275 0.184314 0.603922
0.188235 0.188235 0.611765
0.301961 0.192157 0.615686
0.462745 0.196078 0.623529
0.627451 0.200000 0.627451
0.768627 0.203922 0.635294
0.870588 0.207843 0.643137
0.945098 0.211765 0.647059
0.031373 0.301961 0.623529
0.098039 0.305882 0.627451
0.200000 0.309804 0.635294
0.313725 0.313725 0.643137
0.478431 0.321569 0.647059
0.654902 0.325490 0.654902
0.780392 0.329412 0.662745
0.882353 0.337255 0.666667
0.952941 0.345098 0.674510
0.035294 0.478431 0.643137
0.105882 0.486275 0.647059
0.211765 0.490196 0.654902
0.337255 0.494118 0.662745
0.501961 0.501961 0.666667
0.674510 0.509804 0.674510
0.792157 0.513725 0.682353
0.894118 0.521569 0.686275
0.960784 0.525490 0.694118
0.043137 0.662745 0.662745
0.113725 0.666667 0.666667
0.227451 0.674510 0.674510
0.352941 0.682353 0.682353
0.521569 0.694118 0.694118
0.698039 0.698039 0.698039
0.803922 0.705882 0.705882
0.898039 0.709804 0.709804
0.968627 0.713725 0.713725
0.054902 0.792157 0.686275
0.125490 0.796078 0.694118
0.239216 0.800000 0.698039
0.372549 0.803922 0.705882
0.545098 0.807843 0.709804
0.713725 0.811765 0.713725
0.815686 0.815686 0.717647
0.905882 0.819608 0.721569
0.980392 0.823529 0.725490
0.062745 0.898039 0.705882
0.137255 0.901961 0.709804
0.254902 0.905882 0.713725
0.396078 0.905882 0.717647
0.564706 0.909804 0.721569
0.725490 0.913725 0.725490
0.831373 0.913725 0.729412
0.917647 0.917647 0.733333
0.988235 0.921569 0.737255
0.070588 0.976471 0.721569
0.152941 0.976471 0.725490
0.270588 0.980392 0.729412
0.415686 0.984314 0.733333
0.584314 0.984314 0.737255
0.737255 0.988235 0.737255
0.843137 0.988235 0.741176
0.925490 0.992157 0.745098
0.996078 0.996078 0.749020
0.003922 0.003922 0.721569
0.074510 0.007843 0.725490
0.156863 0.007843 0.729412
0.274510 0.011765 0.733333
0.419608 0.015686 0.737255
0.592157 0.015686 0.737255
0.741176 0.019608 0.741176
0.847059 0.023529 0.745098
0.925490 0.023529 0.749020
0.011765 0.078431 0.733333
0.082353 0.082353 0.737255
0.172549 0.082353 0.737255
0.290196 0.086275 0.741176
0.443137 0.086275 0.745098
0.611765 0.090196 0.749020
0.752941 0.094118 0.752941
0.858824 0.094118 0.756863
0.937255 0.098039 0.760784
0.019608 0.180392 0.745098
0.090196 0.184314 0.749020
0.188235 0.188235 0.752941
0.301961 0.192157 0.756863
0.462745 0.196078 0.760784
0.635294 0.200000 0.764706
0.768627 0.203922 0.768627
0.870588 0.207843 0.772549
0.945098 0.211765 0.776471
0.031373 0.301961 0.756863
0.098039 0.305882 0.760784
0.200000 0.313725 0.764706
0.321569 0.321569 0.768627
0.486275 0.325490 0.772549
0.654902 0.329412 0.776471
0.780392 0.337255 0.780392
0.886275 0.345098 0.784314
0.956863 0.349020 0.788235
0.035294 0.478431 0.772549
0.109804 0.486275 0.776471
0.215686 0.490196 0.780392
0.337255 0.494118 0.784314
0.501961 0.501961 0.788235
0.682353 0.509804 0.792157
0.792157 0.513725 0.792157
0.894118 0.521569 0.796078
0.960784 0.525490 0.800000
0.047059 0.666667 0.784314
0.113725 0.674510 0.788235
0.227451 0.682353 0.792157
0.352941 0.686275 0.792157
0.525490 0.694118 0.796078
0.698039 0.698039 0.800000
0.803922 0.705882 0.803922
0.898039 0.709804 0.807843
0.972549 0.713725 0.811765
0.054902 0.792157 0.792157
0.125490 0.796078 0.796078
0.239216 0.800000 0.800000
0.376471 0.803922 0.803922
0.545098 0.807843 0.807843
0.713725 0.811765 0.811765
0.819608 0.819608 0.819608
0.909804 0.823529 0.823529
0.980392 0.827451 0.827451
0.062745 0.898039 0.807843
0.141176 0.901961 0.811765
0.254902 0.905882 0.815686
0.396078 0.905882 0.819608
0.564706 0.909804 0.823529
0.729412 0.913725 0.827451
0.831373 0.913725 0.831373
0.917647 0.917647 0.835294
0.988235 0.921569 0.839216
0.070588 0.976471 0.819608
0.152941 0.980392 0.823529
0.270588 0.984314 0.827451
0.419608 0.984314 0.831373
0.592157 0.988235 0.835294
0.737255 0.988235 0.839216
0.843137 0.992157 0.843137
0.925490 0.996078 0.847059
0.996078 0.996078 0.850980
0.003922 0.003922 0.819608
0.074510 0.007843 0.823529
0.156863 0.007843 0.831373
0.278431 0.011765 0.835294
0.423529 0.015686 0.839216
0.592157 0.015686 0.843137
0.741176 0.019608 0.847059
0.850980 0.023529 0.850980
0.929412 0.023529 0.854902
0.011765 0.082353 0.835294
0.082353 0.082353 0.839216
0.176471 0.086275 0.843137
0.290196 0.086275 0.847059
0.443137 0.090196 0.850980
0.615686 0.094118 0.854902
0.756863 0.094118 0.854902
0.858824 0.098039 0.858824
0.937255 0.101961 0.862745
0.023529 0.180392 0.847059
0.090196 0.184314 0.850980
0.188235 0.188235 0.854902
0.301961 0.192157 0.854902
0.466667 0.196078 0.858824
0.635294 0.200000 0.862745
0.768627 0.203922 0.866667
0.870588 0.207843 0.870588
0.949020 0.211765 0.874510
0.031373 0.305882 0.858824
0.098039 0.309804 0.862745
0.203922 0.313725 0.866667
0.321569 0.321569 0.870588
0.486275 0.325490 0.874510
0.654902 0.329412 0.878431
0.784314 0.337255 0.882353
0.886275 0.345098 0.886275
0.956863 0.349020 0.886275
0.039216 0.478431 0.870588
0.109804 0.486275 0.874510
0.215686 0.490196 0.878431
0.337255 0.501961 0.882353
0.509804 0.509804 0.886275
0.682353 0.513725 0.886275
0.792157 0.521569 0.890196
0.894118 0.525490 0.894118
0.964706 0.533333 0.894118
0.047059 0.666667 0.886275
0.113725 0.674510 0.886275
0.227451 0.682353 0.890196
0.360784 0.686275 0.894118
0.525490 0.694118 0.894118
0.698039 0.698039 0.898039
0.803922 0.705882 0.898039
0.901961 0.709804 0.901961
0.972549 0.713725 0.905882
0.054902 0.796078 0.894118
0.129412 0.800000 0.894118
0.243137 0.803922 0.898039
0.376471 0.807843 0.898039
0.545098 0.811765 0.901961
0.717647 0.815686 0.905882
0.819608 0.819608 0.905882
0.909804 0.823529 0.909804
0.980392 0.827451 0.913725
0.062745 0.898039 0.898039
0.141176 0.901961 0.901961
0.254902 0.905882 0.905882
0.396078 0.905882 0.905882
0.572549 0.909804 0.909804
0.729412 0.913725 0.913725
0.831373 0.913725 0.913725
0.921569 0.921569 0.921569
0.988235 0.921569 0.921569
0.070588 0.976471 0.909804
0.152941 0.980392 0.913725
0.274510 0.984314 0.913725
0.419608 0.984314 0.917647
0.592157 0.988235 0.921569
0.737255 0.988235 0.921569
0.847059 0.992157 0.925490
0.925490 0.996078 0.925490
0.996078 0.996078 0.929412
0.003922 0.003922 0.909804
0.074510 0.007843 0.913725
0.160784 0.007843 0.913725
0.278431 0.011765 0.917647
0.423529 0.015686 0.921569
0.592157 0.015686 0.921569
0.745098 0.019608 0.925490
0.850980 0.023529 0.925490
0.929412 0.023529 0.929412
0.015686 0.082353 0.917647
0.082353 0.082353 0.921569
0.176471 0.086275 0.921569
0.290196 0.086275 0.925490
0.447059 0.090196 0.929412
0.615686 0.094118 0.933333
0.756863 0.094118 0.933333
0.858824 0.098039 0.937255
0.941176 0.101961 0.941176
0.023529 0.184314 0.925490
0.090196 0.188235 0.929412
0.192157 0.192157 0.933333
0.305882 0.196078 0.933333
0.466667 0.200000 0.937255
0.635294 0.203922 0.941176
0.772549 0.207843 0.941176
0.874510 0.211765 0.945098
0.949020 0.215686 0.949020
0.031373 0.305882 0.933333
0.101961 0.309804 0.937255
0.203922 0.313725 0.941176
0.321569 0.321569 0.941176
0.486275 0.325490 0.945098
0.662745 0.329412 0.949020
0.784314 0.337255 0.949020
0.886275 0.345098 0.952941
0.956863 0.349020 0.956863
0.039216 0.486275 0.945098
0.109804 0.490196 0.949020
0.215686 0.494118 0.949020
0.345098 0.501961 0.952941
0.509804 0.509804 0.956863
0.682353 0.513725 0.956863
0.792157 0.521569 0.960784
0.894118 0.525490 0.960784
0.964706 0.533333 0.964706
0.047059 0.666667 0.952941
0.117647 0.674510 0.956863
0.231373 0.686275 0.956863
0.360784 0.694118 0.960784
0.525490 0.698039 0.960784
0.705882 0.705882 0.964706
0.807843 0.709804 0.968627
0.901961 0.713725 0.968627
0.972549 0.717647 0.972549
0.054902 0.796078 0.960784
0.129412 0.800000 0.964706
0.243137 0.803922 0.968627
0.376471 0.807843 0.968627
0.552941 0.811765 0.972549
0.717647 0.815686 0.976471
0.819608 0.819608 0.976471
0.909804 0.823529 0.980392
0.984314 0.827451 0.984314
0.062745 0.901961 0.968627
0.141176 0.905882 0.972549
0.258824 0.905882 0.976471
0.400000 0.909804 0.976471
0.572549 0.913725 0.980392
0.729412 0.913725 0.984314
0.835294 0.917647 0.984314
0.921569 0.921569 0.988235
0.988235 0.921569 0.988235
0.074510 0.976471 0.976471
0.156863 0.980392 0.980392
0.274510 0.984314 0.984314
0.419608 0.984314 0.984314
0.592157 0.988235 0.988235
0.741176 0.988235 0.988235
0.847059 0.992157 0.992157
0.925490 0.996078 0.996078
1.000000 1.000000 1.000000
