infra/render-server/luts/mono.cube
TITLE "Mono"
LUT_3D_SIZE 9
DOMAIN_MIN 0.0 0.0 0.0
DOMAIN_MAX 1.0 1.0 1.0
0.000000 0.000000 0.000000
0.027451 0.027451 0.027451
0.054902 0.054902 0.054902
0.078431 0.078431 0.078431
0.105882 0.105882 0.105882
0.133333 0.133333 0.133333
0.160784 0.160784 0.160784
0.184314 0.184314 0.184314
0.211765 0.211765 0.211765
0.090196 0.090196 0.090196
0.117647 0.117647 0.117647
0.141176 0.141176 0.141176
0.168627 0.168627 0.168627
0.196078 0.196078 0.196078
0.223529 0.223529 0.223529
0.247059 0.247059 0.247059
0.274510 0.274510 0.274510
0.301961 0.301961 0.301961
0.180392 0.180392 0.180392
0.207843 0.207843 0.207843
0.231373 0.231373 0.231373
0.258824 0.258824 0.258824
0.286275 0.286275 0.286275
0.313725 0.313725 0.313725
0.337255 0.337255 0.337255
0.364706 0.364706 0.364706
0.392157 0.392157 0.392157
0.270588 0.270588 0.270588
0.294118 0.294118 0.294118
0.321569 0.321569 0.321569
0.349020 0.349020 0.349020
0.376471 0.376471 0.376471
0.400000 0.400000 0.400000
0.427451 0.427451 0.427451
0.454902 0.454902 0.454902
0.482353 0.482353 0.482353
0.360784 0.360784 0.360784
0.384314 0.384314 0.384314
0.411765 0.411765 0.411765
0.439216 0.439216 0.439216
0.466667 0.466667 0.466667
0.490196 0.490196 0.490196
0.517647 0.517647 0.517647
0.545098 0.545098 0.545098
0.572549 0.572549 0.572549
0.447059 0.447059 0.447059
0.474510 0.474510 0.474510
0.498039 0.498039 0.498039
0.525490 0.525490 0.525490
0.552941 0.552941 0.552941
0.580392 0.580392 0.580392
0.603922 0.603922 0.603922
0.631373 0.631373 0.631373
0.658824 0.658824 0.658824
0.537255 0.537255 0.537255
0.560784 0.560784 0.560784
0.588235 0.588235 0.588235
0.615686 0.615686 0.615686
0.643137 0.643137 0.643137
0.666667 0.666667 0.666667
0.694118 0.694118 0.694118
0.721569 0.721569 0.721569
0.749020 0.749020 0.749020
0.623529 0.623529 0.623529
0.650980 0.650980 0.650980
0.678431 0.678431 0.678431
0.705882 0.705882 0.705882
0.733333 0.733333 0.733333
0.756863 0.756863 0.756863
0.784314 0.784314 0.784314
0.811765 0.811765 0.811765
0.839216 0.839216 0.839216
0.713725 0.713725 0.713725
0.741176 0.741176 0.741176
0.768627 0.768627 0.768627
0.796078 0.796078 0.796078
0.823529 0.823529 0.823529
0.847059 0.847059 0.847059
0.874510 0.874510 0.874510
0.901961 0.901961 0.901961
0.929412 0.929412 0.929412
0.007843 0.007843 0.007843
0.035294 0.035294 0.035294
0.062745 0.062745 0.062745
0.090196 0.090196 0.090196
0.117647 0.117647 0.117647
0.141176 0.141176 0.141176
0.168627 0.168627 0.168627
0.196078 0.196078 0.196078
0.223529 0.223529 0.223529
0.098039 0.098039 0.098039
0.125490 0.125490 0.125490
0.152941 0.152941 0.152941
0.180392 0.180392 0.180392
0.203922 0.203922 0.203922
0.231373 0.231373 0.231373
0.258824 0.258824 0.258824
0.286275 0.286275 0.286275
0.309804 0.309804 0.309804
0.188235 0.188235 0.188235
0.215686 0.215686 0.215686
0.243137 0.243137 0.243137
0.266667 0.266667 0.266667
0.294118 0.294118 0.294118
0.321569 0.321569 0.321569
0.349020 0.349020 0.349020
0.372549 0.372549 0.372549
0.400000 0.400000 0.400000
0.278431 0.278431 0.278431
0.305882 0.305882 0.305882
0.333333 0.333333 0.333333
0.356863 0.356863 0.356863
0.384314 0.384314 0.384314
0.411765 0.411765 0.411765
0.439216 0.439216 0.439216
0.462745 0.462745 0.462745
0.490196 0.490196 0.490196
0.368627 0.368627 0.368627
0.396078 0.396078 0.396078
0.419608 0.419608 0.419608
0.447059 0.447059 0.447059
0.474510 0.474510 0.474510
0.501961 0.501961 0.501961
0.525490 0.525490 0.525490
0.552941 0.552941 0.552941
0.580392 0.580392 0.580392
0.454902 0.454902 0.454902
0.482353 0.482353 0.482353
0.509804 0.509804 0.509804
0.533333 0.533333 0.533333
0.560784 0.560784 0.560784
0.588235 0.588235 0.588235
0.615686 0.615686 0.615686
0.639216 0.639216 0.639216
0.666667 0.666667 0.666667
0.545098 0.545098 0.545098
0.572549 0.572549 0.572549
0.600000 0.600000 0.600000
0.623529 0.623529 0.623529
0.650980 0.650980 0.650980
0.678431 0.678431 0.678431
0.705882 0.705882 0.705882
0.729412 0.729412 0.729412
0.756863 0.756863 0.756863
0.635294 0.635294 0.635294
0.662745 0.662745 0.662745
0.686275 0.686275 0.686275
0.713725 0.713725 0.713725
0.741176 0.741176 0.741176
0.768627 0.768627 0.768627
0.792157 0.792157 0.792157
0.819608 0.819608 0.819608
0.847059 0.847059 0.847059
0.725490 0.725490 0.725490
0.749020 0.749020 0.749020
0.776471 0.776471 0.776471
0.803922 0.803922 0.803922
0.831373 0.831373 0.831373
0.854902 0.854902 0.854902
0.882353 0.882353 0.882353
0.909804 0.909804 0.909804
0.937255 0.937255 0.937255
0.019608 0.019608 0.019608
0.043137 0.043137 0.043137
0.070588 0.070588 0.070588
0.098039 0.098039 0.098039
0.125490 0.125490 0.125490
0.149020 0.149020 0.149020
0.176471 0.176471 0.176471
0.203922 0.203922 0.203922
0.231373 0.231373 0.231373
0.109804 0.109804 0.109804
0.133333 0.133333 0.133333
0.160784 0.160784 0.160784
0.188235 0.188235 0.188235
0.215686 0.215686 0.215686
0.239216 0.239216 0.239216
0.266667 0.266667 0.266667
0.294118 0.294118 0.294118
0.321569 0.321569 0.321569
0.196078 0.196078 0.196078
0.223529 0.223529 0.223529
0.250980 0.250980 0.250980
0.278431 0.278431 0.278431
0.305882 0.305882 0.305882
0.329412 0.329412 0.329412
0.356863 0.356863 0.356863
0.384314 0.384314 0.384314
0.411765 0.411765 0.411765
0.286275 0.286275 0.286275
0.313725 0.313725 0.313725
0.341176 0.341176 0.341176
0.368627 0.368627 0.368627
0.392157 0.392157 0.392157
0.419608 0.419608 0.419608
0.447059 0.447059 0.447059
0.474510 0.474510 0.474510
0.498039 0.498039 0.498039
0.376471 0.376471 0.376471
0.403922 0.403922 0.403922
0.431373 0.431373 0.431373
0.458824 0.458824 0.458824
0.482353 0.482353 0.482353
0.509804 0.509804 0.509804
0.537255 0.537255 0.537255
0.564706 0.564706 0.564706
0.588235 0.588235 0.588235
0.462745 0.462745 0.462745
0.490196 0.490196 0.490196
0.517647 0.517647 0.517647
0.545098 0.545098 0.545098
0.572549 0.572549 0.572549
0.596078 0.596078 0.596078
0.623529 0.623529 0.623529
0.650980 0.650980 0.650980
0.678431 0.678431 0.678431
0.552941 0.552941 0.552941
0.580392 0.580392 0.580392
0.607843 0.607843 0.607843
0.635294 0.635294 0.635294
0.658824 0.658824 0.658824
0.686275 0.686275 0.686275
0.713725 0.713725 0.713725
0.741176 0.741176 0.741176
0.764706 0.764706 0.764706
0.643137 0.643137 0.643137
0.670588 0.670588 0.670588
0.698039 0.698039 0.698039
0.725490 0.725490 0.725490
0.749020 0.749020 0.749020
0.776471 0.776471 0.776471
0.803922 0.803922 0.803922
0.831373 0.831373 0.831373
0.854902 0.854902 0.854902
0.733333 0.733333 0.733333
0.760784 0.760784 0.760784
0.788235 0.788235 0.788235
0.811765 0.811765 0.811765
0.839216 0.839216 0.839216
0.866667 0.866667 0.866667
0.894118 0.894118 0.894118
0.917647 0.917647 0.917647
0.945098 0.945098 0.945098
0.027451 0.027451 0.027451
0.054902 0.054902 0.054902
0.082353 0.082353 0.082353
0.105882 0.105882 0.105882
0.133333 0.133333 0.133333
0.160784 0.160784 0.160784
0.188235 0.188235 0.188235
0.211765 0.211765 0.211765
0.239216 0.239216 0.239216
0.117647 0.117647 0.117647
0.145098 0.145098 0.145098
0.168627 0.168627 0.168627
0.196078 0.196078 0.196078
0.223529 0.223529 0.223529
0.250980 0.250980 0.250980
0.274510 0.274510 0.274510
0.301961 0.301961 0.301961
0.329412 0.329412 0.329412
0.207843 0.207843 0.207843
0.235294 0.235294 0.235294
0.258824 0.258824 0.258824
0.286275 0.286275 0.286275
0.313725 0.313725 0.313725
0.341176 0.341176 0.341176
0.364706 0.364706 0.364706
0.392157 0.392157 0.392157
0.419608 0.419608 0.419608
0.298039 0.298039 0.298039
0.321569 0.321569 0.321569
0.349020 0.349020 0.349020
0.376471 0.376471 0.376471
0.403922 0.403922 0.403922
0.427451 0.427451 0.427451
0.454902 0.454902 0.454902
0.482353 0.482353 0.482353
0.509804 0.509804 0.509804
0.384314 0.384314 0.384314
0.411765 0.411765 0.411765
0.439216 0.439216 0.439216
0.466667 0.466667 0.466667
0.494118 0.494118 0.494118
0.517647 0.517647 0.517647
0.545098 0.545098 0.545098
0.572549 0.572549 0.572549
0.600000 0.600000 0.600000
0.474510 0.474510 0.474510
0.498039 0.498039 0.498039
0.525490 0.525490 0.525490
0.552941 0.552941 0.552941
0.580392 0.580392 0.580392
0.603922 0.603922 0.603922
0.631373 0.631373 0.631373
0.658824 0.658824 0.658824
0.686275 0.686275 0.686275
0.564706 0.564706 0.564706
0.588235 0.588235 0.588235
0.615686 0.615686 0.615686
0.643137 0.643137 0.643137
0.670588 0.670588 0.670588
0.694118 0.694118 0.694118
0.721569 0.721569 0.721569
0.749020 0.749020 0.749020
0.776471 0.776471 0.776471
0.650980 0.650980 0.650980
0.678431 0.678431 0.678431
0.705882 0.705882 0.705882
0.733333 0.733333 0.733333
0.760784 0.760784 0.760784
0.784314 0.784314 0.784314
0.811765 0.811765 0.811765
0.839216 0.839216 0.839216
0.866667 0.866667 0.866667
0.741176 0.741176 0.741176
0.768627 0.768627 0.768627
0.796078 0.796078 0.796078
0.823529 0.823529 0.823529
0.850980 0.850980 0.850980
0.874510 0.874510 0.874510
0.901961 0.901961 0.901961
0.929412 0.929412 0.929412
0.956863 0.956863 0.956863
0.035294 0.035294 0.035294
0.062745 0.062745 0.062745
0.090196 0.090196 0.090196
0.117647 0.117647 0.117647
0.141176 0.141176 0.141176
0.168627 0.168627 0.168627
0.196078 0.196078 0.196078
0.223529 0.223529 0.223529
0.247059 0.247059 0.247059
0.125490 0.125490 0.125490
0.152941 0.152941 0.152941
0.180392 0.180392 0.180392
0.207843 0.207843 0.207843
0.231373 0.231373 0.231373
0.258824 0.258824 0.258824
0.286275 0.286275 0.286275
0.313725 0.313725 0.313725
0.337255 0.337255 0.337255
0.215686 0.215686 0.215686
0.243137 0.243137 0.243137
0.270588 0.270588 0.270588
0.294118 0.294118 0.294118
0.321569 0.321569 0.321569
0.349020 0.349020 0.349020
0.376471 0.376471 0.376471
0.400000 0.400000 0.400000
0.427451 0.427451 0.427451
0.305882 0.305882 0.305882
0.333333 0.333333 0.333333
0.360784 0.360784 0.360784
0.384314 0.384314 0.384314
0.411765 0.411765 0.411765
0.439216 0.439216 0.439216
0.466667 0.466667 0.466667
0.490196 0.490196 0.490196
0.517647 0.517647 0.517647
0.396078 0.396078 0.396078
0.423529 0.423529 0.423529
0.447059 0.447059 0.447059
0.474510 0.474510 0.474510
0.501961 0.501961 0.501961
0.529412 0.529412 0.529412
0.552941 0.552941 0.552941
0.580392 0.580392 0.580392
0.607843 0.607843 0.607843
0.482353 0.482353 0.482353
0.509804 0.509804 0.509804
0.537255 0.537255 0.537255
0.560784 0.560784 0.560784
0.588235 0.588235 0.588235
0.615686 0.615686 0.615686
0.643137 0.643137 0.643137
0.666667 0.666667 0.666667
0.694118 0.694118 0.694118
0.572549 0.572549 0.572549
0.600000 0.600000 0.600000
0.623529 0.623529 0.623529
0.650980 0.650980 0.650980
0.678431 0.678431 0.678431
0.705882 0.705882 0.705882
0.729412 0.729412 0.729412
0.756863 0.756863 0.756863
0.784314 0.784314 0.784314
0.662745 0.662745 0.662745
0.690196 0.690196 0.690196
0.713725 0.713725 0.713725
0.741176 0.741176 0.741176
0.768627 0.768627 0.768627
0.796078 0.796078 0.796078
0.819608 0.819608 0.819608
0.847059 0.847059 0.847059
0.874510 0.874510 0.874510
0.752941 0.752941 0.752941
0.776471 0.776471 0.776471
0.803922 0.803922 0.803922
0.831373 0.831373 0.831373
0.858824 0.858824 0.858824
0.882353 0.882353 0.882353
0.909804 0.909804 0.909804
0.937255 0.937255 0.937255
0.964706 0.964706 0.964706
0.043137 0.043137 0.043137
0.070588 0.070588 0.070588
0.098039 0.098039 0.098039
0.125490 0.125490 0.125490
0.152941 0.152941 0.152941
0.176471 0.176471 0.176471
0.203922 0.203922 0.203922
0.231373 0.231373 0.231373
0.258824 0.258824 0.258824
0.133333 0.133333 0.133333
0.160784 0.160784 0.160784
0.188235 0.188235 0.188235
0.215686 0.215686 0.215686
0.243137 0.243137 0.243137
0.266667 0.266667 0.266667
0.294118 0.294118 0.294118
0.321569 0.321569 0.321569
0.349020 0.349020 0.349020
0.223529 0.223529 0.223529
0.250980 0.250980 0.250980
0.278431 0.278431 0.278431
0.305882 0.305882 0.305882
0.329412 0.329412 0.329412
0.356863 0.356863 0.356863
0.384314 0.384314 0.384314
0.411765 0.411765 0.411765
0.435294 0.435294 0.435294
0.313725 0.313725 0.313725
0.341176 0.341176 0.341176
0.368627 0.368627 0.368627
0.396078 0.396078 0.396078
0.419608 0.419608 0.419608
0.447059 0.447059 0.447059
0.474510 0.474510 0.474510
0.501961 0.501961 0.501961
0.525490 0.525490 0.525490
0.403922 0.403922 0.403922
0.431373 0.431373 0.431373
0.458824 0.458824 0.458824
0.482353 0.482353 0.482353
0.509804 0.509804 0.509804
0.537255 0.537255 0.537255
0.564706 0.564706 0.564706
0.588235 0.588235 0.588235
0.615686 0.615686 0.615686
0.490196 0.490196 0.490196
0.517647 0.517647 0.517647
0.545098 0.545098 0.545098
0.572549 0.572549 0.572549
0.596078 0.596078 0.596078
0.623529 0.623529 0.623529
0.650980 0.650980 0.650980
0.678431 0.678431 0.678431
0.701961 0.701961 0.701961
0.580392 0.580392 0.580392
0.607843 0.607843 0.607843
0.635294 0.635294 0.635294
0.658824 0.658824 0.658824
0.686275 0.686275 0.686275
0.713725 0.713725 0.713725
0.741176 0.741176 0.741176
0.764706 0.764706 0.764706
0.792157 0.792157 0.792157
0.670588 0.670588 0.670588
0.698039 0.698039 0.698039
0.725490 0.725490 0.725490
0.749020 0.749020 0.749020
0.776471 0.776471 0.776471
0.803922 0.803922 0.803922
0.831373 0.831373 0.831373
0.854902 0.854902 0.854902
0.882353 0.882353 0.882353
0.760784 0.760784 0.760784
0.788235 0.788235 0.788235
0.811765 0.811765 0.811765
0.839216 0.839216 0.839216
0.866667 0.866667 0.866667
0.894118 0.894118 0.894118
0.917647 0.917647 0.917647
0.945098 0.945098 0.945098
0.972549 0.972549 0.972549
0.054902 0.054902 0.054902
0.082353 0.082353 0.082353
0.105882 0.105882 0.105882
0.133333 0.133333 0.133333
0.160784 0.160784 0.160784
0.188235 0.188235 0.188235
0.211765 0.211765 0.211765
0.239216 0.239216 0.239216
0.266667 0.266667 0.266667
0.145098 0.145098 0.145098
0.168627 0.168627 0.168627
0.196078 0.196078 0.196078
0.223529 0.223529 0.223529
0.250980 0.250980 0.250980
0.274510 0.274510 0.274510
0.301961 0.301961 0.301961
0.329412 0.329412 0.329412
0.356863 0.356863 0.356863
0.235294 0.235294 0.235294
0.258824 0.258824 0.258824
0.286275 0.286275 0.286275
0.313725 0.313725 0.313725
0.341176 0.341176 0.341176
0.364706 0.364706 0.364706
0.392157 0.392157 0.392157
0.419608 0.419608 0.419608
0.447059 0.447059 0.447059
0.321569 0.321569 0.321569
0.349020 0.349020 0.349020
0.376471 0.376471 0.376471
0.403922 0.403922 0.403922
0.431373 0.431373 0.431373
0.454902 0.454902 0.454902
0.482353 0.482353 0.482353
0.509804 0.509804 0.509804
0.537255 0.537255 0.537255
0.411765 0.411765 0.411765
0.439216 0.439216 0.439216
0.466667 0.466667 0.466667
0.494118 0.494118 0.494118
0.521569 0.521569 0.521569
0.545098 0.545098 0.545098
0.572549 0.572549 0.572549
0.600000 0.600000 0.600000
0.627451 0.627451 0.627451
0.501961 0.501961 0.501961
0.525490 0.525490 0.525490
0.552941 0.552941 0.552941
0.580392 0.580392 0.580392
0.607843 0.607843 0.607843
0.631373 0.631373 0.631373
0.658824 0.658824 0.658824
0.686275 0.686275 0.686275
0.713725 0.713725 0.713725
0.588235 0.588235 0.588235
0.615686 0.615686 0.615686
0.643137 0.643137 0.643137
0.670588 0.670588 0.670588
0.698039 0.698039 0.698039
0.721569 0.721569 0.721569
0.749020 0.749020 0.749020
0.776471 0.776471 0.776471
0.803922 0.803922 0.803922
0.678431 0.678431 0.678431
0.705882 0.705882 0.705882
0.733333 0.733333 0.733333
0.760784 0.760784 0.760784
0.784314 0.784314 0.784314
0.811765 0.811765 0.811765
0.839216 0.839216 0.839216
0.866667 0.866667 0.866667
0.890196 0.890196 0.890196
0.768627 0.768627 0.768627
0.796078 0.796078 0.796078
0.823529 0.823529 0.823529
0.850980 0.850980 0.850980
0.874510 0.874510 0.874510
0.901961 0.901961 0.901961
0.929412 0.929412 0.929412
0.956863 0.956863 0.956863
0.980392 0.980392 0.980392
0.062745 0.062745 0.062745
0.090196 0.090196 0.090196
0.117647 0.117647 0.117647
0.145098 0.145098 0.145098
0.168627 0.168627 0.168627
0.196078 0.196078 0.196078
0.223529 0.223529 0.223529
0.250980 0.250980 0.250980
0.274510 0.274510 0.274510
0.152941 0.152941 0.152941
0.180392 0.180392 0.180392
0.207843 0.207843 0.207843
0.231373 0.231373 0.231373
0.258824 0.258824 0.258824
0.286275 0.286275 0.286275
0.313725 0.313725 0.313725
0.337255 0.337255 0.337255
0.364706 0.364706 0.364706
0.243137 0.243137 0.243137
0.270588 0.270588 0.270588
0.294118 0.294118 0.294118
0.321569 0.321569 0.321569
0.349020 0.349020 0.349020
0.376471 0.376471 0.376471
0.400000 0.400000 0.400000
0.427451 0.427451 0.427451
0.454902 0.454902 0.454902
0.333333 0.333333 0.333333
0.360784 0.360784 0.360784
0.384314 0.384314 0.384314
0.411765 0.411765 0.411765
0.439216 0.439216 0.439216
0.466667 0.466667 0.466667
0.490196 0.490196 0.490196
0.517647 0.517647 0.517647
0.545098 0.545098 0.545098
0.423529 0.423529 0.423529
0.447059 0.447059 0.447059
0.474510 0.474510 0.474510
0.501961 0.501961 0.501961
0.529412 0.529412 0.529412
0.552941 0.552941 0.552941
0.580392 0.580392 0.580392
0.607843 0.607843 0.607843
0.635294 0.635294 0.635294
0.509804 0.509804 0.509804
0.537255 0.537255 0.537255
0.560784 0.560784 0.560784
0.588235 0.588235 0.588235
0.615686 0.615686 0.615686
0.643137 0.643137 0.643137
0.666667 0.666667 0.666667
0.694118 0.694118 0.694118
0.721569 0.721569 0.721569
0.600000 0.600000 0.600000
0.627451 0.627451 0.627451
0.650980 0.650980 0.650980
0.678431 0.678431 0.678431
0.705882 0.705882 0.705882
0.733333 0.733333 0.733333
0.756863 0.756863 0.756863
0.784314 0.784314 0.784314
0.811765 0.811765 0.811765
0.690196 0.690196 0.690196
0.713725 0.713725 0.713725
0.741176 0.741176 0.741176
0.768627 0.768627 0.768627
0.796078 0.796078 0.796078
0.819608 0.819608 0.819608
0.847059 0.847059 0.847059
0.874510 0.874510 0.874510
0.901961 0.901961 0.901961
0.776471 0.776471 0.776471
0.803922 0.803922 0.803922
0.831373 0.831373 0.831373
0.858824 0.858824 0.858824
0.886275 0.886275 0.886275
0.909804 0.909804 0.909804
0.937255 0.937255 0.937255
0.964706 0.964706 0.964706
0.992157 0.992157 0.992157
0.070588 0.070588 0.070588
0.098039 0.098039 0.098039
0.125490 0.125490 0.125490
0.152941 0.152941 0.152941
0.180392 0.180392 0.180392
0.203922 0.203922 0.203922
0.231373 0.231373 0.231373
0.258824 0.258824 0.258824
0.286275 0.286275 0.286275
0.160784 0.160784 0.160784
0.188235 0.188235 0.188235
0.215686 0.215686 0.215686
0.243137 0.243137 0.243137
0.270588 0.270588 0.270588
0.294118 0.294118 0.294118
0.321569 0.321569 0.321569
0.349020 0.349020 0.349020
0.376471 0.376471 0.376471
0.250980 0.250980 0.250980
0.278431 0.278431 0.278431
0.305882 0.305882 0.305882
0.333333 0.333333 0.333333
0.356863 0.356863 0.356863
0.384314 0.384314 0.384314
0.411765 0.411765 0.411765
0.439216 0.439216 0.439216
0.462745 0.462745 0.462745
0.341176 0.341176 0.341176
0.368627 0.368627 0.368627
0.396078 0.396078 0.396078
0.419608 0.419608 0.419608
0.447059 0.447059 0.447059
0.474510 0.474510 0.474510
0.501961 0.501961 0.501961
0.525490 0.525490 0.525490
0.552941 0.552941 0.552941
0.431373 0.431373 0.431373
0.458824 0.458824 0.458824
0.486275 0.486275 0.486275
0.509804 0.509804 0.509804
0.537255 0.537255 0.537255
0.564706 0.564706 0.564706
0.592157 0.592157 0.592157
0.615686 0.615686 0.615686
0.643137 0.643137 0.643137
0.517647 0.517647 0.517647
0.545098 0.545098 0.545098
0.572549 0.572549 0.572549
0.600000 0.600000 0.600000
0.623529 0.623529 0.623529
0.650980 0.650980 0.650980
0.678431 0.678431 0.678431
0.705882 0.705882 0.705882
0.729412 0.729412 0.729412
0.607843 0.607843 0.607843
0.635294 0.635294 0.635294
0.662745 0.662745 0.662745
0.686275 0.686275 0.686275
0.713725 0.713725 0.713725
0.741176 0.741176 0.741176
0.768627 0.768627 0.768627
0.792157 0.792157 0.792157
0.819608 0.819608 0.819608
0.698039 0.698039 0.698039
0.725490 0.725490 0.725490
0.752941 0.752941 0.752941
0.776471 0.776471 0.776471
0.803922 0.803922 0.803922
0.831373 0.831373 0.831373
0.858824 0.858824 0.858824
0.882353 0.882353 0.882353
0.909804 0.909804 0.909804
0.788235 0.788235 0.788235
0.815686 0.815686 0.815686
0.839216 0.839216 0.839216
0.866667 0.866667 0.866667
0.894118 0.894118 0.894118
0.921569 0.921569 0.921569
0.945098 0.945098 0.945098
0.972549 0.972549 0.972549
1.000000 1.000000 1.000000
