infra/render-server/luts/mono.cube
TITLE "Mono"
LUT_3D_SIZE 5
DOMAIN_MIN 0.0 0.0 0.0
DOMAIN_MAX 1.0 1.0 1.0
0.000000 0.000000 0.000000
0.054902 0.054902 0.054902
0.105882 0.105882 0.105882
0.160784 0.160784 0.160784
0.211765 0.211765 0.211765
0.180392 0.180392 0.180392
0.231373 0.231373 0.231373
0.286275 0.286275 0.286275
0.337255 0.337255 0.337255
0.392157 0.392157 0.392157
0.360784 0.360784 0.360784
0.411765 0.411765 0.411765
0.466667 0.466667 0.466667
0.517647 0.517647 0.517647
0.572549 0.572549 0.572549
0.537255 0.537255 0.537255
0.588235 0.588235 0.588235
0.643137 0.643137 0.643137
0.694118 0.694118 0.694118
0.749020 0.749020 0.749020
0.713725 0.713725 0.713725
0.768627 0.768627 0.768627
0.823529 0.823529 0.823529
0.874510 0.874510 0.874510
0.929412 0.929412 0.929412
0.019608 0.019608 0.019608
0.070588 0.070588 0.070588
0.125490 0.125490 0.125490
0.176471 0.176471 0.176471
0.231373 0.231373 0.231373
0.196078 0.196078 0.196078
0.250980 0.250980 0.250980
0.305882 0.305882 0.305882
0.356863 0.356863 0.356863
0.411765 0.411765 0.411765
0.376471 0.376471 0.376471
0.431373 0.431373 0.431373
0.482353 0.482353 0.482353
0.537255 0.537255 0.537255
0.588235 0.588235 0.588235
0.552941 0.552941 0.552941
0.607843 0.607843 0.607843
0.658824 0.658824 0.658824
0.713725 0.713725 0.713725
0.764706 0.764706 0.764706
0.733333 0.733333 0.733333
0.788235 0.788235 0.788235
0.839216 0.839216 0.839216
0.894118 0.894118 0.894118
0.945098 0.945098 0.945098
0.035294 0.035294 0.035294
0.090196 0.090196 0.090196
0.141176 0.141176 0.141176
0.196078 0.196078 0.196078
0.247059 0.247059 0.247059
0.215686 0.215686 0.215686
0.270588 0.270588 0.270588
0.321569 0.321569 0.321569
0.376471 0.376471 0.376471
0.427451 0.427451 0.427451
0.396078 0.396078 0.396078
0.447059 0.447059 0.447059
0.501961 0.501961 0.501961
0.552941 0.552941 0.552941
0.607843 0.607843 0.607843
0.572549 0.572549 0.572549
0.623529 0.623529 0.623529
0.678431 0.678431 0.678431
0.729412 0.729412 0.729412
0.784314 0.784314 0.784314
0.752941 0.752941 0.752941
0.803922 0.803922 0.803922
0.858824 0.858824 0.858824
0.909804 0.909804 0.909804
0.964706 0.964706 0.964706
0.054902 0.054902 0.054902
0.105882 0.105882 0.105882
0.160784 0.160784 0.160784
0.211765 0.211765 0.211765
0.266667 0.266667 0.266667
0.235294 0.235294 0.235294
0.286275 0.286275 0.286275
0.341176 0.341176 0.341176
0.392157 0.392157 0.392157
0.447059 0.447059 0.447059
0.411765 0.411765 0.411765
0.466667 0.466667 0.466667
0.521569 0.521569 0.521569
0.572549 0.572549 0.572549
0.627451 0.627451 0.627451
0.588235 0.588235 0.588235
0.643137 0.643137 0.643137
0.698039 0.698039 0.698039
0.749020 0.749020 0.749020
0.803922 0.803922 0.803922
0.768627 0.768627 0.768627
0.823529 0.823529 0.823529
0.874510 0.874510 0.874510
0.929412 0.929412 0.929412
0.980392 0.980392 0.980392
0.070588 0.070588 0.070588
0.125490 0.125490 0.125490
0.180392 0.180392 0.180392
0.231373 0.231373 0.231373
0.286275 0.286275 0.286275
0.250980 0.250980 0.250980
0.305882 0.305882 0.305882
0.356863 0.356863 0.356863
0.411765 0.411765 0.411765
0.462745 0.462745 0.462745
0.431373 0.431373 0.431373
0.486275 0.486275 0.486275
0.537255 0.537255 0.537255
0.592157 0.592157 0.592157
0.643137 0.643137 0.643137
0.607843 0.607843 0.607843
0.662745 0.662745 0.662745
0.713725 0.713725 0.713725
0.768627 0.768627 0.768627
0.819608 0.819608 0.819608
0.788235 0.788235 0.788235
0.839216 0.839216 0.839216
0.894118 0.894118 0.894118
0.945098 0.945098 0.945098
1.000000 1.000000 1.000000
