infra/render-server/luts/noir.cube
TITLE "Noir"
LUT_3D_SIZE 5
DOMAIN_MIN 0.0 0.0 0.0
DOMAIN_MAX 1.0 1.0 1.0
0.000000 0.000000 0.000000
0.019608 0.019608 0.019608
0.039216 0.039216 0.039216
0.062745 0.062745 0.062745
0.113725 0.113725 0.113725
0.082353 0.082353 0.082353
0.133333 0.133333 0.133333
0.192157 0.192157 0.192157
0.243137 0.243137 0.243137
0.313725 0.313725 0.313725
0.266667 0.266667 0.266667
0.352941 0.352941 0.352941
0.458824 0.458824 0.458824
0.560784 0.560784 0.560784
0.674510 0.674510 0.674510
0.600000 0.600000 0.600000
0.705882 0.705882 0.705882
0.796078 0.796078 0.796078
0.835294 0.835294 0.835294
0.878431 0.878431 0.878431
0.850980 0.850980 0.850980
0.894118 0.894118 0.894118
0.937255 0.937255 0.937255
0.976471 0.976471 0.976471
0.988235 0.988235 0.988235
0.007843 0.007843 0.007843
0.027451 0.027451 0.027451
0.047059 0.047059 0.047059
0.078431 0.078431 0.078431
0.133333 0.133333 0.133333
0.098039 0.098039 0.098039
0.152941 0.152941 0.152941
0.211765 0.211765 0.211765
0.262745 0.262745 0.262745
0.352941 0.352941 0.352941
0.282353 0.282353 0.282353
0.392157 0.392157 0.392157
0.490196 0.490196 0.490196
0.600000 0.600000 0.600000
0.705882 0.705882 0.705882
0.631373 0.631373 0.631373
0.745098 0.745098 0.745098
0.807843 0.807843 0.807843
0.850980 0.850980 0.850980
0.890196 0.890196 0.890196
0.866667 0.866667 0.866667
0.909804 0.909804 0.909804
0.949020 0.949020 0.949020
0.984314 0.984314 0.984314
0.992157 0.992157 0.992157
0.011765 0.011765 0.011765
0.035294 0.035294 0.035294
0.054902 0.054902 0.054902
0.098039 0.098039 0.098039
0.149020 0.149020 0.149020
0.117647 0.117647 0.117647
0.176471 0.176471 0.176471
0.227451 0.227451 0.227451
0.282353 0.282353 0.282353
0.384314 0.384314 0.384314
0.321569 0.321569 0.321569
0.419608 0.419608 0.419608
0.529412 0.529412 0.529412
0.631373 0.631373 0.631373
0.745098 0.745098 0.745098
0.674510 0.674510 0.674510
0.776471 0.776471 0.776471
0.823529 0.823529 0.823529
0.862745 0.862745 0.862745
0.905882 0.905882 0.905882
0.882353 0.882353 0.882353
0.921569 0.921569 0.921569
0.964706 0.964706 0.964706
0.984314 0.984314 0.984314
0.996078 0.996078 0.996078
0.019608 0.019608 0.019608
0.039216 0.039216 0.039216
0.062745 0.062745 0.062745
0.113725 0.113725 0.113725
0.172549 0.172549 0.172549
0.137255 0.137255 0.137255
0.192157 0.192157 0.192157
0.247059 0.247059 0.247059
0.313725 0.313725 0.313725
0.419608 0.419608 0.419608
0.352941 0.352941 0.352941
0.458824 0.458824 0.458824
0.568627 0.568627 0.568627
0.674510 0.674510 0.674510
0.784314 0.784314 0.784314
0.705882 0.705882 0.705882
0.796078 0.796078 0.796078
0.839216 0.839216 0.839216
0.878431 0.878431 0.878431
0.921569 0.921569 0.921569
0.894118 0.894118 0.894118
0.937255 0.937255 0.937255
0.976471 0.976471 0.976471
0.988235 0.988235 0.988235
0.996078 0.996078 0.996078
0.027451 0.027451 0.027451
0.047059 0.047059 0.047059
0.082353 0.082353 0.082353
0.133333 0.133333 0.133333
0.192157 0.192157 0.192157
0.152941 0.152941 0.152941
0.211765 0.211765 0.211765
0.262745 0.262745 0.262745
0.352941 0.352941 0.352941
0.450980 0.450980 0.450980
0.392157 0.392157 0.392157
0.498039 0.498039 0.498039
0.600000 0.600000 0.600000
0.713725 0.713725 0.713725
0.796078 0.796078 0.796078
0.745098 0.745098 0.745098
0.811765 0.811765 0.811765
0.850980 0.850980 0.850980
0.894118 0.894118 0.894118
0.933333 0.933333 0.933333
0.909804 0.909804 0.909804
0.949020 0.949020 0.949020
0.984314 0.984314 0.984314
0.992157 0.992157 0.992157
1.000000 1.000000 1.000000
