infra/render-server/luts/noir.cube
TITLE "Noir"
LUT_3D_SIZE 9
DOMAIN_MIN 0.0 0.0 0.0
DOMAIN_MAX 1.0 1.0 1.0
0.000000 0.000000 0.000000
0.011765 0.011765 0.011765
0.019608 0.019608 0.019608
0.031373 0.031373 0.031373
0.039216 0.039216 0.039216
0.050980 0.050980 0.050980
0.062745 0.062745 0.062745
0.086275 0.086275 0.086275
0.113725 0.113725 0.113725
0.035294 0.035294 0.035294
0.043137 0.043137 0.043137
0.054902 0.054902 0.054902
0.070588 0.070588 0.070588
0.098039 0.098039 0.098039
0.125490 0.125490 0.125490
0.149020 0.149020 0.149020
0.180392 0.180392 0.180392
0.207843 0.207843 0.207843
0.082353 0.082353 0.082353
0.109804 0.109804 0.109804
0.133333 0.133333 0.133333
0.160784 0.160784 0.160784
0.192157 0.192157 0.192157
0.219608 0.219608 0.219608
0.243137 0.243137 0.243137
0.270588 0.270588 0.270588
0.313725 0.313725 0.313725
0.176471 0.176471 0.176471
0.200000 0.200000 0.200000
0.227451 0.227451 0.227451
0.254902 0.254902 0.254902
0.282353 0.282353 0.282353
0.329412 0.329412 0.329412
0.384314 0.384314 0.384314
0.435294 0.435294 0.435294
0.490196 0.490196 0.490196
0.266667 0.266667 0.266667
0.298039 0.298039 0.298039
0.352941 0.352941 0.352941
0.407843 0.407843 0.407843
0.458824 0.458824 0.458824
0.505882 0.505882 0.505882
0.560784 0.560784 0.560784
0.615686 0.615686 0.615686
0.674510 0.674510 0.674510
0.419608 0.419608 0.419608
0.474510 0.474510 0.474510
0.521569 0.521569 0.521569
0.576471 0.576471 0.576471
0.631373 0.631373 0.631373
0.690196 0.690196 0.690196
0.737255 0.737255 0.737255
0.788235 0.788235 0.788235
0.807843 0.807843 0.807843
0.600000 0.600000 0.600000
0.647059 0.647059 0.647059
0.705882 0.705882 0.705882
0.760784 0.760784 0.760784
0.796078 0.796078 0.796078
0.815686 0.815686 0.815686
0.835294 0.835294 0.835294
0.858824 0.858824 0.858824
0.878431 0.878431 0.878431
0.776471 0.776471 0.776471
0.803922 0.803922 0.803922
0.823529 0.823529 0.823529
0.847059 0.847059 0.847059
0.866667 0.866667 0.866667
0.886275 0.886275 0.886275
0.905882 0.905882 0.905882
0.929412 0.929412 0.929412
0.949020 0.949020 0.949020
0.850980 0.850980 0.850980
0.874510 0.874510 0.874510
0.894118 0.894118 0.894118
0.917647 0.917647 0.917647
0.937255 0.937255 0.937255
0.956863 0.956863 0.956863
0.976471 0.976471 0.976471
0.984314 0.984314 0.984314
0.988235 0.988235 0.988235
0.003922 0.003922 0.003922
0.011765 0.011765 0.011765
0.023529 0.023529 0.023529
0.035294 0.035294 0.035294
0.043137 0.043137 0.043137
0.054902 0.054902 0.054902
0.070588 0.070588 0.070588
0.098039 0.098039 0.098039
0.125490 0.125490 0.125490
0.035294 0.035294 0.035294
0.047059 0.047059 0.047059
0.058824 0.058824 0.058824
0.082353 0.082353 0.082353
0.105882 0.105882 0.105882
0.133333 0.133333 0.133333
0.160784 0.160784 0.160784
0.192157 0.192157 0.192157
0.215686 0.215686 0.215686
0.090196 0.090196 0.090196
0.117647 0.117647 0.117647
0.145098 0.145098 0.145098
0.172549 0.172549 0.172549
0.200000 0.200000 0.200000
0.227451 0.227451 0.227451
0.254902 0.254902 0.254902
0.278431 0.278431 0.278431
0.329412 0.329412 0.329412
0.184314 0.184314 0.184314
0.211765 0.211765 0.211765
0.239216 0.239216 0.239216
0.262745 0.262745 0.262745
0.298039 0.298039 0.298039
0.352941 0.352941 0.352941
0.407843 0.407843 0.407843
0.450980 0.450980 0.450980
0.505882 0.505882 0.505882
0.274510 0.274510 0.274510
0.321569 0.321569 0.321569
0.368627 0.368627 0.368627
0.419608 0.419608 0.419608
0.474510 0.474510 0.474510
0.529412 0.529412 0.529412
0.576471 0.576471 0.576471
0.631373 0.631373 0.631373
0.690196 0.690196 0.690196
0.435294 0.435294 0.435294
0.490196 0.490196 0.490196
0.545098 0.545098 0.545098
0.592157 0.592157 0.592157
0.647059 0.647059 0.647059
0.705882 0.705882 0.705882
0.760784 0.760784 0.760784
0.792157 0.792157 0.792157
0.815686 0.815686 0.815686
0.615686 0.615686 0.615686
0.674510 0.674510 0.674510
0.729412 0.729412 0.729412
0.776471 0.776471 0.776471
0.803922 0.803922 0.803922
0.823529 0.823529 0.823529
0.847059 0.847059 0.847059
0.862745 0.862745 0.862745
0.886275 0.886275 0.886275
0.792157 0.792157 0.792157
0.811765 0.811765 0.811765
0.831373 0.831373 0.831373
0.850980 0.850980 0.850980
0.874510 0.874510 0.874510
0.894118 0.894118 0.894118
0.913725 0.913725 0.913725
0.933333 0.933333 0.933333
0.956863 0.956863 0.956863
0.862745 0.862745 0.862745
0.878431 0.878431 0.878431
0.901961 0.901961 0.901961
0.921569 0.921569 0.921569
0.945098 0.945098 0.945098
0.960784 0.960784 0.960784
0.980392 0.980392 0.980392
0.984314 0.984314 0.984314
0.988235 0.988235 0.988235
0.007843 0.007843 0.007843
0.015686 0.015686 0.015686
0.027451 0.027451 0.027451
0.035294 0.035294 0.035294
0.047059 0.047059 0.047059
0.054902 0.054902 0.054902
0.078431 0.078431 0.078431
0.105882 0.105882 0.105882
0.133333 0.133333 0.133333
0.039216 0.039216 0.039216
0.050980 0.050980 0.050980
0.062745 0.062745 0.062745
0.090196 0.090196 0.090196
0.117647 0.117647 0.117647
0.141176 0.141176 0.141176
0.172549 0.172549 0.172549
0.200000 0.200000 0.200000
0.227451 0.227451 0.227451
0.098039 0.098039 0.098039
0.125490 0.125490 0.125490
0.152941 0.152941 0.152941
0.184314 0.184314 0.184314
0.211765 0.211765 0.211765
0.235294 0.235294 0.235294
0.262745 0.262745 0.262745
0.298039 0.298039 0.298039
0.352941 0.352941 0.352941
0.192157 0.192157 0.192157
0.219608 0.219608 0.219608
0.247059 0.247059 0.247059
0.274510 0.274510 0.274510
0.313725 0.313725 0.313725
0.368627 0.368627 0.368627
0.419608 0.419608 0.419608
0.474510 0.474510 0.474510
0.521569 0.521569 0.521569
0.282353 0.282353 0.282353
0.337255 0.337255 0.337255
0.392157 0.392157 0.392157
0.443137 0.443137 0.443137
0.490196 0.490196 0.490196
0.545098 0.545098 0.545098
0.600000 0.600000 0.600000
0.658824 0.658824 0.658824
0.705882 0.705882 0.705882
0.450980 0.450980 0.450980
0.505882 0.505882 0.505882
0.560784 0.560784 0.560784
0.615686 0.615686 0.615686
0.674510 0.674510 0.674510
0.721569 0.721569 0.721569
0.776471 0.776471 0.776471
0.803922 0.803922 0.803922
0.823529 0.823529 0.823529
0.631373 0.631373 0.631373
0.690196 0.690196 0.690196
0.745098 0.745098 0.745098
0.792157 0.792157 0.792157
0.807843 0.807843 0.807843
0.831373 0.831373 0.831373
0.850980 0.850980 0.850980
0.874510 0.874510 0.874510
0.890196 0.890196 0.890196
0.796078 0.796078 0.796078
0.819608 0.819608 0.819608
0.839216 0.839216 0.839216
0.862745 0.862745 0.862745
0.878431 0.878431 0.878431
0.901961 0.901961 0.901961
0.921569 0.921569 0.921569
0.945098 0.945098 0.945098
0.960784 0.960784 0.960784
0.866667 0.866667 0.866667
0.890196 0.890196 0.890196
0.909804 0.909804 0.909804
0.929412 0.929412 0.929412
0.949020 0.949020 0.949020
0.972549 0.972549 0.972549
0.984314 0.984314 0.984314
0.988235 0.988235 0.988235
0.992157 0.992157 0.992157
0.011765 0.011765 0.011765
0.019608 0.019608 0.019608
0.031373 0.031373 0.031373
0.039216 0.039216 0.039216
0.050980 0.050980 0.050980
0.062745 0.062745 0.062745
0.090196 0.090196 0.090196
0.113725 0.113725 0.113725
0.141176 0.141176 0.141176
0.043137 0.043137 0.043137
0.054902 0.054902 0.054902
0.070588 0.070588 0.070588
0.098039 0.098039 0.098039
0.125490 0.125490 0.125490
0.152941 0.152941 0.152941
0.180392 0.180392 0.180392
0.207843 0.207843 0.207843
0.235294 0.235294 0.235294
0.109804 0.109804 0.109804
0.137255 0.137255 0.137255
0.160784 0.160784 0.160784
0.192157 0.192157 0.192157
0.219608 0.219608 0.219608
0.247059 0.247059 0.247059
0.270588 0.270588 0.270588
0.313725 0.313725 0.313725
0.368627 0.368627 0.368627
0.203922 0.203922 0.203922
0.227451 0.227451 0.227451
0.254902 0.254902 0.254902
0.282353 0.282353 0.282353
0.337255 0.337255 0.337255
0.384314 0.384314 0.384314
0.435294 0.435294 0.435294
0.490196 0.490196 0.490196
0.545098 0.545098 0.545098
0.298039 0.298039 0.298039
0.352941 0.352941 0.352941
0.407843 0.407843 0.407843
0.458824 0.458824 0.458824
0.513725 0.513725 0.513725
0.560784 0.560784 0.560784
0.615686 0.615686 0.615686
0.674510 0.674510 0.674510
0.729412 0.729412 0.729412
0.474510 0.474510 0.474510
0.521569 0.521569 0.521569
0.576471 0.576471 0.576471
0.631373 0.631373 0.631373
0.690196 0.690196 0.690196
0.737255 0.737255 0.737255
0.788235 0.788235 0.788235
0.807843 0.807843 0.807843
0.831373 0.831373 0.831373
0.658824 0.658824 0.658824
0.705882 0.705882 0.705882
0.760784 0.760784 0.760784
0.796078 0.796078 0.796078
0.819608 0.819608 0.819608
0.835294 0.835294 0.835294
0.858824 0.858824 0.858824
0.878431 0.878431 0.878431
0.901961 0.901961 0.901961
0.803922 0.803922 0.803922
0.823529 0.823529 0.823529
0.847059 0.847059 0.847059
0.866667 0.866667 0.866667
0.890196 0.890196 0.890196
0.905882 0.905882 0.905882
0.929412 0.929412 0.929412
0.949020 0.949020 0.949020
0.972549 0.972549 0.972549
0.874510 0.874510 0.874510
0.894118 0.894118 0.894118
0.917647 0.917647 0.917647
0.937255 0.937255 0.937255
0.960784 0.960784 0.960784
0.976471 0.976471 0.976471
0.984314 0.984314 0.984314
0.988235 0.988235 0.988235
0.992157 0.992157 0.992157
0.011765 0.011765 0.011765
0.023529 0.023529 0.023529
0.035294 0.035294 0.035294
0.043137 0.043137 0.043137
0.054902 0.054902 0.054902
0.070588 0.070588 0.070588
0.098039 0.098039 0.098039
0.125490 0.125490 0.125490
0.149020 0.149020 0.149020
0.047059 0.047059 0.047059
0.058824 0.058824 0.058824
0.082353 0.082353 0.082353
0.109804 0.109804 0.109804
0.133333 0.133333 0.133333
0.160784 0.160784 0.160784
0.192157 0.192157 0.192157
0.219608 0.219608 0.219608
0.243137 0.243137 0.243137
0.117647 0.117647 0.117647
0.145098 0.145098 0.145098
0.176471 0.176471 0.176471
0.200000 0.200000 0.200000
0.227451 0.227451 0.227451
0.254902 0.254902 0.254902
0.282353 0.282353 0.282353
0.329412 0.329412 0.329412
0.384314 0.384314 0.384314
0.211765 0.211765 0.211765
0.239216 0.239216 0.239216
0.266667 0.266667 0.266667
0.298039 0.298039 0.298039
0.352941 0.352941 0.352941
0.407843 0.407843 0.407843
0.458824 0.458824 0.458824
0.505882 0.505882 0.505882
0.560784 0.560784 0.560784
0.321569 0.321569 0.321569
0.376471 0.376471 0.376471
0.419608 0.419608 0.419608
0.474510 0.474510 0.474510
0.529412 0.529412 0.529412
0.584314 0.584314 0.584314
0.631373 0.631373 0.631373
0.690196 0.690196 0.690196
0.745098 0.745098 0.745098
0.490196 0.490196 0.490196
0.545098 0.545098 0.545098
0.600000 0.600000 0.600000
0.647059 0.647059 0.647059
0.705882 0.705882 0.705882
0.760784 0.760784 0.760784
0.796078 0.796078 0.796078
0.815686 0.815686 0.815686
0.835294 0.835294 0.835294
0.674510 0.674510 0.674510
0.729412 0.729412 0.729412
0.776471 0.776471 0.776471
0.803922 0.803922 0.803922
0.823529 0.823529 0.823529
0.847059 0.847059 0.847059
0.862745 0.862745 0.862745
0.886275 0.886275 0.886275
0.905882 0.905882 0.905882
0.811765 0.811765 0.811765
0.831373 0.831373 0.831373
0.850980 0.850980 0.850980
0.874510 0.874510 0.874510
0.894118 0.894118 0.894118
0.917647 0.917647 0.917647
0.933333 0.933333 0.933333
0.956863 0.956863 0.956863
0.976471 0.976471 0.976471
0.882353 0.882353 0.882353
0.901961 0.901961 0.901961
0.921569 0.921569 0.921569
0.945098 0.945098 0.945098
0.964706 0.964706 0.964706
0.980392 0.980392 0.980392
0.984314 0.984314 0.984314
0.988235 0.988235 0.988235
0.996078 0.996078 0.996078
0.015686 0.015686 0.015686
0.027451 0.027451 0.027451
0.035294 0.035294 0.035294
0.047059 0.047059 0.047059
0.058824 0.058824 0.058824
0.078431 0.078431 0.078431
0.105882 0.105882 0.105882
0.133333 0.133333 0.133333
0.160784 0.160784 0.160784
0.050980 0.050980 0.050980
0.062745 0.062745 0.062745
0.090196 0.090196 0.090196
0.117647 0.117647 0.117647
0.145098 0.145098 0.145098
0.172549 0.172549 0.172549
0.200000 0.200000 0.200000
0.227451 0.227451 0.227451
0.254902 0.254902 0.254902
0.125490 0.125490 0.125490
0.152941 0.152941 0.152941
0.184314 0.184314 0.184314
0.211765 0.211765 0.211765
0.235294 0.235294 0.235294
0.262745 0.262745 0.262745
0.298039 0.298039 0.298039
0.352941 0.352941 0.352941
0.400000 0.400000 0.400000
0.219608 0.219608 0.219608
0.247059 0.247059 0.247059
0.274510 0.274510 0.274510
0.321569 0.321569 0.321569
0.368627 0.368627 0.368627
0.419608 0.419608 0.419608
0.474510 0.474510 0.474510
0.529412 0.529412 0.529412
0.576471 0.576471 0.576471
0.337255 0.337255 0.337255
0.392157 0.392157 0.392157
0.443137 0.443137 0.443137
0.490196 0.490196 0.490196
0.545098 0.545098 0.545098
0.600000 0.600000 0.600000
0.658824 0.658824 0.658824
0.705882 0.705882 0.705882
0.760784 0.760784 0.760784
0.505882 0.505882 0.505882
0.560784 0.560784 0.560784
0.615686 0.615686 0.615686
0.674510 0.674510 0.674510
0.721569 0.721569 0.721569
0.776471 0.776471 0.776471
0.803922 0.803922 0.803922
0.823529 0.823529 0.823529
0.843137 0.843137 0.843137
0.690196 0.690196 0.690196
0.745098 0.745098 0.745098
0.792157 0.792157 0.792157
0.807843 0.807843 0.807843
0.831373 0.831373 0.831373
0.850980 0.850980 0.850980
0.874510 0.874510 0.874510
0.890196 0.890196 0.890196
0.913725 0.913725 0.913725
0.819608 0.819608 0.819608
0.839216 0.839216 0.839216
0.862745 0.862745 0.862745
0.878431 0.878431 0.878431
0.901961 0.901961 0.901961
0.921569 0.921569 0.921569
0.945098 0.945098 0.945098
0.960784 0.960784 0.960784
0.980392 0.980392 0.980392
0.890196 0.890196 0.890196
0.909804 0.909804 0.909804
0.929412 0.929412 0.929412
0.949020 0.949020 0.949020
0.972549 0.972549 0.972549
0.984314 0.984314 0.984314
0.988235 0.988235 0.988235
0.992157 0.992157 0.992157
0.996078 0.996078 0.996078
0.019608 0.019608 0.019608
0.031373 0.031373 0.031373
0.039216 0.039216 0.039216
0.050980 0.050980 0.050980
0.062745 0.062745 0.062745
0.090196 0.090196 0.090196
0.113725 0.113725 0.113725
0.141176 0.141176 0.141176
0.172549 0.172549 0.172549
0.054902 0.054902 0.054902
0.070588 0.070588 0.070588
0.098039 0.098039 0.098039
0.125490 0.125490 0.125490
0.152941 0.152941 0.152941
0.180392 0.180392 0.180392
0.207843 0.207843 0.207843
0.235294 0.235294 0.235294
0.262745 0.262745 0.262745
0.137255 0.137255 0.137255
0.160784 0.160784 0.160784
0.192157 0.192157 0.192157
0.219608 0.219608 0.219608
0.247059 0.247059 0.247059
0.270588 0.270588 0.270588
0.313725 0.313725 0.313725
0.368627 0.368627 0.368627
0.419608 0.419608 0.419608
0.227451 0.227451 0.227451
0.254902 0.254902 0.254902
0.282353 0.282353 0.282353
0.337255 0.337255 0.337255
0.392157 0.392157 0.392157
0.435294 0.435294 0.435294
0.490196 0.490196 0.490196
0.545098 0.545098 0.545098
0.600000 0.600000 0.600000
0.352941 0.352941 0.352941
0.407843 0.407843 0.407843
0.458824 0.458824 0.458824
0.513725 0.513725 0.513725
0.568627 0.568627 0.568627
0.615686 0.615686 0.615686
0.674510 0.674510 0.674510
0.729412 0.729412 0.729412
0.784314 0.784314 0.784314
0.529412 0.529412 0.529412
0.576471 0.576471 0.576471
0.631373 0.631373 0.631373
0.690196 0.690196 0.690196
0.745098 0.745098 0.745098
0.788235 0.788235 0.788235
0.807843 0.807843 0.807843
0.831373 0.831373 0.831373
0.850980 0.850980 0.850980
0.705882 0.705882 0.705882
0.760784 0.760784 0.760784
0.796078 0.796078 0.796078
0.819608 0.819608 0.819608
0.839216 0.839216 0.839216
0.858824 0.858824 0.858824
0.878431 0.878431 0.878431
0.901961 0.901961 0.901961
0.921569 0.921569 0.921569
0.823529 0.823529 0.823529
0.847059 0.847059 0.847059
0.866667 0.866667 0.866667
0.890196 0.890196 0.890196
0.905882 0.905882 0.905882
0.929412 0.929412 0.929412
0.949020 0.949020 0.949020
0.972549 0.972549 0.972549
0.980392 0.980392 0.980392
0.894118 0.894118 0.894118
0.917647 0.917647 0.917647
0.937255 0.937255 0.937255
0.960784 0.960784 0.960784
0.976471 0.976471 0.976471
0.984314 0.984314 0.984314
0.988235 0.988235 0.988235
0.992157 0.992157 0.992157
0.996078 0.996078 0.996078
0.023529 0.023529 0.023529
0.035294 0.035294 0.035294
0.043137 0.043137 0.043137
0.054902 0.054902 0.054902
0.070588 0.070588 0.070588
0.098039 0.098039 0.098039
0.125490 0.125490 0.125490
0.152941 0.152941 0.152941
0.180392 0.180392 0.180392
0.058824 0.058824 0.058824
0.082353 0.082353 0.082353
0.109804 0.109804 0.109804
0.133333 0.133333 0.133333
0.160784 0.160784 0.160784
0.192157 0.192157 0.192157
0.219608 0.219608 0.219608
0.243137 0.243137 0.243137
0.270588 0.270588 0.270588
0.145098 0.145098 0.145098
0.176471 0.176471 0.176471
0.200000 0.200000 0.200000
0.227451 0.227451 0.227451
0.254902 0.254902 0.254902
0.282353 0.282353 0.282353
0.329412 0.329412 0.329412
0.384314 0.384314 0.384314
0.435294 0.435294 0.435294
0.239216 0.239216 0.239216
0.266667 0.266667 0.266667
0.298039 0.298039 0.298039
0.352941 0.352941 0.352941
0.407843 0.407843 0.407843
0.458824 0.458824 0.458824
0.505882 0.505882 0.505882
0.560784 0.560784 0.560784
0.615686 0.615686 0.615686
0.376471 0.376471 0.376471
0.419608 0.419608 0.419608
0.474510 0.474510 0.474510
0.529412 0.529412 0.529412
0.584314 0.584314 0.584314
0.631373 0.631373 0.631373
0.690196 0.690196 0.690196
0.745098 0.745098 0.745098
0.792157 0.792157 0.792157
0.545098 0.545098 0.545098
0.600000 0.600000 0.600000
0.647059 0.647059 0.647059
0.705882 0.705882 0.705882
0.760784 0.760784 0.760784
0.796078 0.796078 0.796078
0.815686 0.815686 0.815686
0.835294 0.835294 0.835294
0.858824 0.858824 0.858824
0.729412 0.729412 0.729412
0.784314 0.784314 0.784314
0.803922 0.803922 0.803922
0.823529 0.823529 0.823529
0.847059 0.847059 0.847059
0.866667 0.866667 0.866667
0.886275 0.886275 0.886275
0.905882 0.905882 0.905882
0.929412 0.929412 0.929412
0.831373 0.831373 0.831373
0.850980 0.850980 0.850980
0.874510 0.874510 0.874510
0.894118 0.894118 0.894118
0.917647 0.917647 0.917647
0.933333 0.933333 0.933333
0.956863 0.956863 0.956863
0.976471 0.976471 0.976471
0.984314 0.984314 0.984314
0.901961 0.901961 0.901961
0.921569 0.921569 0.921569
0.945098 0.945098 0.945098
0.964706 0.964706 0.964706
0.980392 0.980392 0.980392
0.984314 0.984314 0.984314
0.988235 0.988235 0.988235
0.996078 0.996078 0.996078
1.000000 1.000000 1.000000
0.027451 0.027451 0.027451
0.035294 0.035294 0.035294
0.047059 0.047059 0.047059
0.058824 0.058824 0.058824
0.082353 0.082353 0.082353
0.105882 0.105882 0.105882
0.133333 0.133333 0.133333
0.160784 0.160784 0.160784
0.192157 0.192157 0.192157
0.062745 0.062745 0.062745
0.090196 0.090196 0.090196
0.117647 0.117647 0.117647
0.145098 0.145098 0.145098
0.176471 0.176471 0.176471
0.200000 0.200000 0.200000
0.227451 0.227451 0.227451
0.254902 0.254902 0.254902
0.282353 0.282353 0.282353
0.152941 0.152941 0.152941
0.184314 0.184314 0.184314
0.211765 0.211765 0.211765
0.239216 0.239216 0.239216
0.262745 0.262745 0.262745
0.298039 0.298039 0.298039
0.352941 0.352941 0.352941
0.407843 0.407843 0.407843
0.450980 0.450980 0.450980
0.247059 0.247059 0.247059
0.274510 0.274510 0.274510
0.321569 0.321569 0.321569
0.368627 0.368627 0.368627
0.419608 0.419608 0.419608
0.474510 0.474510 0.474510
0.529412 0.529412 0.529412
0.576471 0.576471 0.576471
0.631373 0.631373 0.631373
0.392157 0.392157 0.392157
0.443137 0.443137 0.443137
0.498039 0.498039 0.498039
0.545098 0.545098 0.545098
0.600000 0.600000 0.600000
0.658824 0.658824 0.658824
0.713725 0.713725 0.713725
0.760784 0.760784 0.760784
0.796078 0.796078 0.796078
0.560784 0.560784 0.560784
0.615686 0.615686 0.615686
0.674510 0.674510 0.674510
0.729412 0.729412 0.729412
0.776471 0.776471 0.776471
0.803922 0.803922 0.803922
0.823529 0.823529 0.823529
0.847059 0.847059 0.847059
0.862745 0.862745 0.862745
0.745098 0.745098 0.745098
0.792157 0.792157 0.792157
0.811765 0.811765 0.811765
0.831373 0.831373 0.831373
0.850980 0.850980 0.850980
0.874510 0.874510 0.874510
0.894118 0.894118 0.894118
0.913725 0.913725 0.913725
0.933333 0.933333 0.933333
0.839216 0.839216 0.839216
0.862745 0.862745 0.862745
0.882353 0.882353 0.882353
0.901961 0.901961 0.901961
0.921569 0.921569 0.921569
0.945098 0.945098 0.945098
0.964706 0.964706 0.964706
0.980392 0.980392 0.980392
0.984314 0.984314 0.984314
0.909804 0.909804 0.909804
0.933333 0.933333 0.933333
0.949020 0.949020 0.949020
0.972549 0.972549 0.972549
0.984314 0.984314 0.984314
0.988235 0.988235 0.988235
0.992157 0.992157 0.992157
0.996078 0.996078 0.996078
1.000000 1.000000 1.000000
