infra/render-server/luts/noir.cube
TITLE "Noir"
LUT_3D_SIZE 33
DOMAIN_MIN 0.0 0.0 0.0
DOMAIN_MAX 1.0 1.0 1.0
0.000000 0.000000 0.000000
0.003922 0.003922 0.003922
0.003922 0.003922 0.003922
0.007843 0.007843 0.007843
0.011765 0.011765 0.011765
0.011765 0.011765 0.011765
0.015686 0.015686 0.015686
0.015686 0.015686 0.015686
0.019608 0.019608 0.019608
0.023529 0.023529 0.023529
0.023529 0.023529 0.023529
0.027451 0.027451 0.027451
0.031373 0.031373 0.031373
0.031373 0.031373 0.031373
0.035294 0.035294 0.035294
0.039216 0.039216 0.039216
0.039216 0.039216 0.039216
0.043137 0.043137 0.043137
0.043137 0.043137 0.043137
0.047059 0.047059 0.047059
0.050980 0.050980 0.050980
0.054902 0.054902 0.054902
0.054902 0.054902 0.054902
0.058824 0.058824 0.058824
0.062745 0.062745 0.062745
0.066667 0.066667 0.066667
0.074510 0.074510 0.074510
0.082353 0.082353 0.082353
0.086275 0.086275 0.086275
0.094118 0.094118 0.094118
0.101961 0.101961 0.101961
0.109804 0.109804 0.109804
0.113725 0.113725 0.113725
0.007843 0.007843 0.007843
0.011765 0.011765 0.011765
0.011765 0.011765 0.011765
0.015686 0.015686 0.015686
0.019608 0.019608 0.019608
0.019608 0.019608 0.019608
0.023529 0.023529 0.023529
0.027451 0.027451 0.027451
0.027451 0.027451 0.027451
0.031373 0.031373 0.031373
0.035294 0.035294 0.035294
0.035294 0.035294 0.035294
0.039216 0.039216 0.039216
0.039216 0.039216 0.039216
0.043137 0.043137 0.043137
0.047059 0.047059 0.047059
0.047059 0.047059 0.047059
0.050980 0.050980 0.050980
0.054902 0.054902 0.054902
0.054902 0.054902 0.054902
0.058824 0.058824 0.058824
0.062745 0.062745 0.062745
0.070588 0.070588 0.070588
0.078431 0.078431 0.078431
0.082353 0.082353 0.082353
0.090196 0.090196 0.090196
0.098039 0.098039 0.098039
0.101961 0.101961 0.101961
0.109804 0.109804 0.109804
0.117647 0.117647 0.117647
0.125490 0.125490 0.125490
0.129412 0.129412 0.129412
0.137255 0.137255 0.137255
0.015686 0.015686 0.015686
0.019608 0.019608 0.019608
0.023529 0.023529 0.023529
0.023529 0.023529 0.023529
0.027451 0.027451 0.027451
0.031373 0.031373 0.031373
0.031373 0.031373 0.031373
0.035294 0.035294 0.035294
0.035294 0.035294 0.035294
0.039216 0.039216 0.039216
0.039216 0.039216 0.039216
0.043137 0.043137 0.043137
0.047059 0.047059 0.047059
0.050980 0.050980 0.050980
0.050980 0.050980 0.050980
0.054902 0.054902 0.054902
0.058824 0.058824 0.058824
0.058824 0.058824 0.058824
0.066667 0.066667 0.066667
0.074510 0.074510 0.074510
0.078431 0.078431 0.078431
0.086275 0.086275 0.086275
0.094118 0.094118 0.094118
0.098039 0.098039 0.098039
0.105882 0.105882 0.105882
0.113725 0.113725 0.113725
0.117647 0.117647 0.117647
0.125490 0.125490 0.125490
0.133333 0.133333 0.133333
0.141176 0.141176 0.141176
0.145098 0.145098 0.145098
0.152941 0.152941 0.152941
0.160784 0.160784 0.160784
0.023529 0.023529 0.023529
0.027451 0.027451 0.027451
0.031373 0.031373 0.031373
0.031373 0.031373 0.031373
0.035294 0.035294 0.035294
0.039216 0.039216 0.039216
0.039216 0.039216 0.039216
0.043137 0.043137 0.043137
0.047059 0.047059 0.047059
0.047059 0.047059 0.047059
0.050980 0.050980 0.050980
0.054902 0.054902 0.054902
0.054902 0.054902 0.054902
0.058824 0.058824 0.058824
0.062745 0.062745 0.062745
0.070588 0.070588 0.070588
0.074510 0.074510 0.074510
0.082353 0.082353 0.082353
0.090196 0.090196 0.090196
0.094118 0.094118 0.094118
0.101961 0.101961 0.101961
0.109804 0.109804 0.109804
0.113725 0.113725 0.113725
0.121569 0.121569 0.121569
0.129412 0.129412 0.129412
0.133333 0.133333 0.133333
0.141176 0.141176 0.141176
0.149020 0.149020 0.149020
0.156863 0.156863 0.156863
0.160784 0.160784 0.160784
0.172549 0.172549 0.172549
0.180392 0.180392 0.180392
0.184314 0.184314 0.184314
0.035294 0.035294 0.035294
0.035294 0.035294 0.035294
0.039216 0.039216 0.039216
0.039216 0.039216 0.039216
0.043137 0.043137 0.043137
0.047059 0.047059 0.047059
0.047059 0.047059 0.047059
0.050980 0.050980 0.050980
0.054902 0.054902 0.054902
0.054902 0.054902 0.054902
0.058824 0.058824 0.058824
0.066667 0.066667 0.066667
0.070588 0.070588 0.070588
0.078431 0.078431 0.078431
0.086275 0.086275 0.086275
0.090196 0.090196 0.090196
0.098039 0.098039 0.098039
0.105882 0.105882 0.105882
0.109804 0.109804 0.109804
0.117647 0.117647 0.117647
0.125490 0.125490 0.125490
0.129412 0.129412 0.129412
0.137255 0.137255 0.137255
0.145098 0.145098 0.145098
0.149020 0.149020 0.149020
0.156863 0.156863 0.156863
0.164706 0.164706 0.164706
0.176471 0.176471 0.176471
0.180392 0.180392 0.180392
0.188235 0.188235 0.188235
0.196078 0.196078 0.196078
0.200000 0.200000 0.200000
0.207843 0.207843 0.207843
0.043137 0.043137 0.043137
0.043137 0.043137 0.043137
0.047059 0.047059 0.047059
0.050980 0.050980 0.050980
0.050980 0.050980 0.050980
0.054902 0.054902 0.054902
0.058824 0.058824 0.058824
0.062745 0.062745 0.062745
0.066667 0.066667 0.066667
0.074510 0.074510 0.074510
0.082353 0.082353 0.082353
0.086275 0.086275 0.086275
0.094118 0.094118 0.094118
0.101961 0.101961 0.101961
0.105882 0.105882 0.105882
0.113725 0.113725 0.113725
0.121569 0.121569 0.121569
0.125490 0.125490 0.125490
0.133333 0.133333 0.133333
0.141176 0.141176 0.141176
0.145098 0.145098 0.145098
0.152941 0.152941 0.152941
0.160784 0.160784 0.160784
0.172549 0.172549 0.172549
0.176471 0.176471 0.176471
0.184314 0.184314 0.184314
0.192157 0.192157 0.192157
0.196078 0.196078 0.196078
0.203922 0.203922 0.203922
0.211765 0.211765 0.211765
0.215686 0.215686 0.215686
0.223529 0.223529 0.223529
0.231373 0.231373 0.231373
0.050980 0.050980 0.050980
0.054902 0.054902 0.054902
0.054902 0.054902 0.054902
0.058824 0.058824 0.058824
0.062745 0.062745 0.062745
0.070588 0.070588 0.070588
0.078431 0.078431 0.078431
0.082353 0.082353 0.082353
0.090196 0.090196 0.090196
0.098039 0.098039 0.098039
0.101961 0.101961 0.101961
0.109804 0.109804 0.109804
0.117647 0.117647 0.117647
0.121569 0.121569 0.121569
0.129412 0.129412 0.129412
0.137255 0.137255 0.137255
0.145098 0.145098 0.145098
0.149020 0.149020 0.149020
0.156863 0.156863 0.156863
0.160784 0.160784 0.160784
0.172549 0.172549 0.172549
0.180392 0.180392 0.180392
0.188235 0.188235 0.188235
0.192157 0.192157 0.192157
0.200000 0.200000 0.200000
0.207843 0.207843 0.207843
0.211765 0.211765 0.211765
0.219608 0.219608 0.219608
0.227451 0.227451 0.227451
0.231373 0.231373 0.231373
0.239216 0.239216 0.239216
0.247059 0.247059 0.247059
0.254902 0.254902 0.254902
0.058824 0.058824 0.058824
0.066667 0.066667 0.066667
0.070588 0.070588 0.070588
0.078431 0.078431 0.078431
0.086275 0.086275 0.086275
0.094118 0.094118 0.094118
0.098039 0.098039 0.098039
0.105882 0.105882 0.105882
0.113725 0.113725 0.113725
0.117647 0.117647 0.117647
0.125490 0.125490 0.125490
0.133333 0.133333 0.133333
0.137255 0.137255 0.137255
0.145098 0.145098 0.145098
0.152941 0.152941 0.152941
0.160784 0.160784 0.160784
0.164706 0.164706 0.164706
0.176471 0.176471 0.176471
0.180392 0.180392 0.180392
0.188235 0.188235 0.188235
0.196078 0.196078 0.196078
0.203922 0.203922 0.203922
0.207843 0.207843 0.207843
0.215686 0.215686 0.215686
0.223529 0.223529 0.223529
0.227451 0.227451 0.227451
0.235294 0.235294 0.235294
0.243137 0.243137 0.243137
0.247059 0.247059 0.247059
0.254902 0.254902 0.254902
0.262745 0.262745 0.262745
0.270588 0.270588 0.270588
0.274510 0.274510 0.274510
0.082353 0.082353 0.082353
0.086275 0.086275 0.086275
0.094118 0.094118 0.094118
0.101961 0.101961 0.101961
0.109804 0.109804 0.109804
0.113725 0.113725 0.113725
0.121569 0.121569 0.121569
0.129412 0.129412 0.129412
0.133333 0.133333 0.133333
0.141176 0.141176 0.141176
0.149020 0.149020 0.149020
0.152941 0.152941 0.152941
0.160784 0.160784 0.160784
0.172549 0.172549 0.172549
0.180392 0.180392 0.180392
0.184314 0.184314 0.184314
0.192157 0.192157 0.192157
0.196078 0.196078 0.196078
0.203922 0.203922 0.203922
0.211765 0.211765 0.211765
0.219608 0.219608 0.219608
0.223529 0.223529 0.223529
0.231373 0.231373 0.231373
0.239216 0.239216 0.239216
0.243137 0.243137 0.243137
0.250980 0.250980 0.250980
0.258824 0.258824 0.258824
0.262745 0.262745 0.262745
0.270588 0.270588 0.270588
0.278431 0.278431 0.278431
0.290196 0.290196 0.290196
0.298039 0.298039 0.298039
0.313725 0.313725 0.313725
0.101961 0.101961 0.101961
0.109804 0.109804 0.109804
0.117647 0.117647 0.117647
0.125490 0.125490 0.125490
0.129412 0.129412 0.129412
0.137255 0.137255 0.137255
0.145098 0.145098 0.145098
0.149020 0.149020 0.149020
0.156863 0.156863 0.156863
0.164706 0.164706 0.164706
0.176471 0.176471 0.176471
0.180392 0.180392 0.180392
0.188235 0.188235 0.188235
0.196078 0.196078 0.196078
0.200000 0.200000 0.200000
0.207843 0.207843 0.207843
0.215686 0.215686 0.215686
0.219608 0.219608 0.219608
0.227451 0.227451 0.227451
0.235294 0.235294 0.235294
0.239216 0.239216 0.239216
0.247059 0.247059 0.247059
0.254902 0.254902 0.254902
0.258824 0.258824 0.258824
0.266667 0.266667 0.266667
0.274510 0.274510 0.274510
0.282353 0.282353 0.282353
0.290196 0.290196 0.290196
0.305882 0.305882 0.305882
0.321569 0.321569 0.321569
0.329412 0.329412 0.329412
0.345098 0.345098 0.345098
0.360784 0.360784 0.360784
0.125490 0.125490 0.125490
0.133333 0.133333 0.133333
0.141176 0.141176 0.141176
0.145098 0.145098 0.145098
0.152941 0.152941 0.152941
0.160784 0.160784 0.160784
0.164706 0.164706 0.164706
0.176471 0.176471 0.176471
0.184314 0.184314 0.184314
0.192157 0.192157 0.192157
0.196078 0.196078 0.196078
0.203922 0.203922 0.203922
0.211765 0.211765 0.211765
0.215686 0.215686 0.215686
0.223529 0.223529 0.223529
0.231373 0.231373 0.231373
0.235294 0.235294 0.235294
0.243137 0.243137 0.243137
0.250980 0.250980 0.250980
0.254902 0.254902 0.254902
0.262745 0.262745 0.262745
0.270588 0.270588 0.270588
0.274510 0.274510 0.274510
0.282353 0.282353 0.282353
0.298039 0.298039 0.298039
0.313725 0.313725 0.313725
0.321569 0.321569 0.321569
0.337255 0.337255 0.337255
0.352941 0.352941 0.352941
0.360784 0.360784 0.360784
0.376471 0.376471 0.376471
0.392157 0.392157 0.392157
0.400000 0.400000 0.400000
0.149020 0.149020 0.149020
0.156863 0.156863 0.156863
0.160784 0.160784 0.160784
0.172549 0.172549 0.172549
0.180392 0.180392 0.180392
0.184314 0.184314 0.184314
0.192157 0.192157 0.192157
0.200000 0.200000 0.200000
0.207843 0.207843 0.207843
0.211765 0.211765 0.211765
0.219608 0.219608 0.219608
0.227451 0.227451 0.227451
0.231373 0.231373 0.231373
0.239216 0.239216 0.239216
0.247059 0.247059 0.247059
0.250980 0.250980 0.250980
0.258824 0.258824 0.258824
0.266667 0.266667 0.266667
0.270588 0.270588 0.270588
0.278431 0.278431 0.278431
0.290196 0.290196 0.290196
0.298039 0.298039 0.298039
0.313725 0.313725 0.313725
0.329412 0.329412 0.329412
0.345098 0.345098 0.345098
0.352941 0.352941 0.352941
0.368627 0.368627 0.368627
0.384314 0.384314 0.384314
0.392157 0.392157 0.392157
0.407843 0.407843 0.407843
0.419608 0.419608 0.419608
0.427451 0.427451 0.427451
0.443137 0.443137 0.443137
0.176471 0.176471 0.176471
0.180392 0.180392 0.180392
0.188235 0.188235 0.188235
0.196078 0.196078 0.196078
0.200000 0.200000 0.200000
0.207843 0.207843 0.207843
0.215686 0.215686 0.215686
0.223529 0.223529 0.223529
0.227451 0.227451 0.227451
0.235294 0.235294 0.235294
0.243137 0.243137 0.243137
0.247059 0.247059 0.247059
0.254902 0.254902 0.254902
0.262745 0.262745 0.262745
0.266667 0.266667 0.266667
0.274510 0.274510 0.274510
0.282353 0.282353 0.282353
0.290196 0.290196 0.290196
0.305882 0.305882 0.305882
0.321569 0.321569 0.321569
0.329412 0.329412 0.329412
0.345098 0.345098 0.345098
0.360784 0.360784 0.360784
0.376471 0.376471 0.376471
0.384314 0.384314 0.384314
0.400000 0.400000 0.400000
0.411765 0.411765 0.411765
0.419608 0.419608 0.419608
0.435294 0.435294 0.435294
0.450980 0.450980 0.450980
0.458824 0.458824 0.458824
0.474510 0.474510 0.474510
0.490196 0.490196 0.490196
0.196078 0.196078 0.196078
0.203922 0.203922 0.203922
0.211765 0.211765 0.211765
0.215686 0.215686 0.215686
0.223529 0.223529 0.223529
0.231373 0.231373 0.231373
0.239216 0.239216 0.239216
0.243137 0.243137 0.243137
0.250980 0.250980 0.250980
0.258824 0.258824 0.258824
0.262745 0.262745 0.262745
0.270588 0.270588 0.270588
0.278431 0.278431 0.278431
0.282353 0.282353 0.282353
0.298039 0.298039 0.298039
0.313725 0.313725 0.313725
0.329412 0.329412 0.329412
0.337255 0.337255 0.337255
0.352941 0.352941 0.352941
0.360784 0.360784 0.360784
0.376471 0.376471 0.376471
0.392157 0.392157 0.392157
0.407843 0.407843 0.407843
0.411765 0.411765 0.411765
0.427451 0.427451 0.427451
0.443137 0.443137 0.443137
0.450980 0.450980 0.450980
0.466667 0.466667 0.466667
0.482353 0.482353 0.482353
0.490196 0.490196 0.490196
0.505882 0.505882 0.505882
0.521569 0.521569 0.521569
0.537255 0.537255 0.537255
0.219608 0.219608 0.219608
0.227451 0.227451 0.227451
0.235294 0.235294 0.235294
0.239216 0.239216 0.239216
0.247059 0.247059 0.247059
0.254902 0.254902 0.254902
0.258824 0.258824 0.258824
0.266667 0.266667 0.266667
0.274510 0.274510 0.274510
0.278431 0.278431 0.278431
0.290196 0.290196 0.290196
0.305882 0.305882 0.305882
0.321569 0.321569 0.321569
0.329412 0.329412 0.329412
0.345098 0.345098 0.345098
0.360784 0.360784 0.360784
0.368627 0.368627 0.368627
0.384314 0.384314 0.384314
0.400000 0.400000 0.400000
0.407843 0.407843 0.407843
0.419608 0.419608 0.419608
0.435294 0.435294 0.435294
0.443137 0.443137 0.443137
0.458824 0.458824 0.458824
0.474510 0.474510 0.474510
0.482353 0.482353 0.482353
0.498039 0.498039 0.498039
0.513725 0.513725 0.513725
0.529412 0.529412 0.529412
0.537255 0.537255 0.537255
0.552941 0.552941 0.552941
0.568627 0.568627 0.568627
0.576471 0.576471 0.576471
0.243137 0.243137 0.243137
0.250980 0.250980 0.250980
0.254902 0.254902 0.254902
0.262745 0.262745 0.262745
0.270588 0.270588 0.270588
0.274510 0.274510 0.274510
0.282353 0.282353 0.282353
0.298039 0.298039 0.298039
0.305882 0.305882 0.305882
0.321569 0.321569 0.321569
0.337255 0.337255 0.337255
0.352941 0.352941 0.352941
0.360784 0.360784 0.360784
0.376471 0.376471 0.376471
0.392157 0.392157 0.392157
0.400000 0.400000 0.400000
0.411765 0.411765 0.411765
0.427451 0.427451 0.427451
0.435294 0.435294 0.435294
0.450980 0.450980 0.450980
0.466667 0.466667 0.466667
0.474510 0.474510 0.474510
0.490196 0.490196 0.490196
0.505882 0.505882 0.505882
0.513725 0.513725 0.513725
0.529412 0.529412 0.529412
0.545098 0.545098 0.545098
0.560784 0.560784 0.560784
0.568627 0.568627 0.568627
0.584314 0.584314 0.584314
0.600000 0.600000 0.600000
0.607843 0.607843 0.607843
0.623529 0.623529 0.623529
0.266667 0.266667 0.266667
0.270588 0.270588 0.270588
0.278431 0.278431 0.278431
0.290196 0.290196 0.290196
0.298039 0.298039 0.298039
0.313725 0.313725 0.313725
0.329412 0.329412 0.329412
0.337255 0.337255 0.337255
0.352941 0.352941 0.352941
0.368627 0.368627 0.368627
0.384314 0.384314 0.384314
0.392157 0.392157 0.392157
0.407843 0.407843 0.407843
0.419608 0.419608 0.419608
0.427451 0.427451 0.427451
0.443137 0.443137 0.443137
0.458824 0.458824 0.458824
0.466667 0.466667 0.466667
0.482353 0.482353 0.482353
0.498039 0.498039 0.498039
0.505882 0.505882 0.505882
0.521569 0.521569 0.521569
0.537255 0.537255 0.537255
0.545098 0.545098 0.545098
0.560784 0.560784 0.560784
0.576471 0.576471 0.576471
0.592157 0.592157 0.592157
0.600000 0.600000 0.600000
0.615686 0.615686 0.615686
0.631373 0.631373 0.631373
0.639216 0.639216 0.639216
0.658824 0.658824 0.658824
0.674510 0.674510 0.674510
0.290196 0.290196 0.290196
0.298039 0.298039 0.298039
0.313725 0.313725 0.313725
0.329412 0.329412 0.329412
0.337255 0.337255 0.337255
0.352941 0.352941 0.352941
0.368627 0.368627 0.368627
0.376471 0.376471 0.376471
0.392157 0.392157 0.392157
0.407843 0.407843 0.407843
0.419608 0.419608 0.419608
0.427451 0.427451 0.427451
0.443137 0.443137 0.443137
0.458824 0.458824 0.458824
0.466667 0.466667 0.466667
0.482353 0.482353 0.482353
0.498039 0.498039 0.498039
0.505882 0.505882 0.505882
0.521569 0.521569 0.521569
0.537255 0.537255 0.537255
0.545098 0.545098 0.545098
0.560784 0.560784 0.560784
0.576471 0.576471 0.576471
0.584314 0.584314 0.584314
0.600000 0.600000 0.600000
0.615686 0.615686 0.615686
0.631373 0.631373 0.631373
0.639216 0.639216 0.639216
0.658824 0.658824 0.658824
0.674510 0.674510 0.674510
0.682353 0.682353 0.682353
0.698039 0.698039 0.698039
0.713725 0.713725 0.713725
0.329412 0.329412 0.329412
0.345098 0.345098 0.345098
0.360784 0.360784 0.360784
0.368627 0.368627 0.368627
0.384314 0.384314 0.384314
0.400000 0.400000 0.400000
0.407843 0.407843 0.407843
0.419608 0.419608 0.419608
0.435294 0.435294 0.435294
0.450980 0.450980 0.450980
0.458824 0.458824 0.458824
0.474510 0.474510 0.474510
0.490196 0.490196 0.490196
0.498039 0.498039 0.498039
0.513725 0.513725 0.513725
0.529412 0.529412 0.529412
0.537255 0.537255 0.537255
0.552941 0.552941 0.552941
0.568627 0.568627 0.568627
0.576471 0.576471 0.576471
0.592157 0.592157 0.592157
0.607843 0.607843 0.607843
0.615686 0.615686 0.615686
0.631373 0.631373 0.631373
0.647059 0.647059 0.647059
0.666667 0.666667 0.666667
0.674510 0.674510 0.674510
0.690196 0.690196 0.690196
0.705882 0.705882 0.705882
0.713725 0.713725 0.713725
0.729412 0.729412 0.729412
0.745098 0.745098 0.745098
0.752941 0.752941 0.752941
0.376471 0.376471 0.376471
0.392157 0.392157 0.392157
0.400000 0.400000 0.400000
0.411765 0.411765 0.411765
0.427451 0.427451 0.427451
0.435294 0.435294 0.435294
0.450980 0.450980 0.450980
0.466667 0.466667 0.466667
0.482353 0.482353 0.482353
0.490196 0.490196 0.490196
0.505882 0.505882 0.505882
0.521569 0.521569 0.521569
0.529412 0.529412 0.529412
0.545098 0.545098 0.545098
0.560784 0.560784 0.560784
0.576471 0.576471 0.576471
0.584314 0.584314 0.584314
0.600000 0.600000 0.600000
0.607843 0.607843 0.607843
0.623529 0.623529 0.623529
0.639216 0.639216 0.639216
0.647059 0.647059 0.647059
0.666667 0.666667 0.666667
0.682353 0.682353 0.682353
0.698039 0.698039 0.698039
0.705882 0.705882 0.705882
0.721569 0.721569 0.721569
0.737255 0.737255 0.737255
0.745098 0.745098 0.745098
0.760784 0.760784 0.760784
0.776471 0.776471 0.776471
0.788235 0.788235 0.788235
0.792157 0.792157 0.792157
0.419608 0.419608 0.419608
0.427451 0.427451 0.427451
0.443137 0.443137 0.443137
0.458824 0.458824 0.458824
0.474510 0.474510 0.474510
0.482353 0.482353 0.482353
0.498039 0.498039 0.498039
0.513725 0.513725 0.513725
0.521569 0.521569 0.521569
0.537255 0.537255 0.537255
0.552941 0.552941 0.552941
0.560784 0.560784 0.560784
0.576471 0.576471 0.576471
0.592157 0.592157 0.592157
0.607843 0.607843 0.607843
0.615686 0.615686 0.615686
0.631373 0.631373 0.631373
0.639216 0.639216 0.639216
0.658824 0.658824 0.658824
0.674510 0.674510 0.674510
0.690196 0.690196 0.690196
0.698039 0.698039 0.698039
0.713725 0.713725 0.713725
0.729412 0.729412 0.729412
0.737255 0.737255 0.737255
0.752941 0.752941 0.752941
0.768627 0.768627 0.768627
0.776471 0.776471 0.776471
0.788235 0.788235 0.788235
0.792157 0.792157 0.792157
0.800000 0.800000 0.800000
0.803922 0.803922 0.803922
0.807843 0.807843 0.807843
0.458824 0.458824 0.458824
0.474510 0.474510 0.474510
0.490196 0.490196 0.490196
0.505882 0.505882 0.505882
0.513725 0.513725 0.513725
0.529412 0.529412 0.529412
0.545098 0.545098 0.545098
0.552941 0.552941 0.552941
0.568627 0.568627 0.568627
0.584314 0.584314 0.584314
0.592157 0.592157 0.592157
0.607843 0.607843 0.607843
0.623529 0.623529 0.623529
0.639216 0.639216 0.639216
0.647059 0.647059 0.647059
0.666667 0.666667 0.666667
0.682353 0.682353 0.682353
0.690196 0.690196 0.690196
0.705882 0.705882 0.705882
0.721569 0.721569 0.721569
0.729412 0.729412 0.729412
0.745098 0.745098 0.745098
0.760784 0.760784 0.760784
0.768627 0.768627 0.768627
0.784314 0.784314 0.784314
0.792157 0.792157 0.792157
0.792157 0.792157 0.792157
0.800000 0.800000 0.800000
0.803922 0.803922 0.803922
0.811765 0.811765 0.811765
0.815686 0.815686 0.815686
0.819608 0.819608 0.819608
0.827451 0.827451 0.827451
0.505882 0.505882 0.505882
0.521569 0.521569 0.521569
0.537255 0.537255 0.537255
0.545098 0.545098 0.545098
0.560784 0.560784 0.560784
0.576471 0.576471 0.576471
0.584314 0.584314 0.584314
0.600000 0.600000 0.600000
0.615686 0.615686 0.615686
0.623529 0.623529 0.623529
0.639216 0.639216 0.639216
0.658824 0.658824 0.658824
0.674510 0.674510 0.674510
0.682353 0.682353 0.682353
0.698039 0.698039 0.698039
0.713725 0.713725 0.713725
0.721569 0.721569 0.721569
0.737255 0.737255 0.737255
0.752941 0.752941 0.752941
0.760784 0.760784 0.760784
0.776471 0.776471 0.776471
0.788235 0.788235 0.788235
0.792157 0.792157 0.792157
0.796078 0.796078 0.796078
0.803922 0.803922 0.803922
0.803922 0.803922 0.803922
0.811765 0.811765 0.811765
0.819608 0.819608 0.819608
0.823529 0.823529 0.823529
0.827451 0.827451 0.827451
0.831373 0.831373 0.831373
0.839216 0.839216 0.839216
0.843137 0.843137 0.843137
0.552941 0.552941 0.552941
0.568627 0.568627 0.568627
0.576471 0.576471 0.576471
0.592157 0.592157 0.592157
0.607843 0.607843 0.607843
0.615686 0.615686 0.615686
0.631373 0.631373 0.631373
0.647059 0.647059 0.647059
0.658824 0.658824 0.658824
0.674510 0.674510 0.674510
0.690196 0.690196 0.690196
0.705882 0.705882 0.705882
0.713725 0.713725 0.713725
0.729412 0.729412 0.729412
0.745098 0.745098 0.745098
0.752941 0.752941 0.752941
0.768627 0.768627 0.768627
0.784314 0.784314 0.784314
0.788235 0.788235 0.788235
0.792157 0.792157 0.792157
0.800000 0.800000 0.800000
0.803922 0.803922 0.803922
0.807843 0.807843 0.807843
0.815686 0.815686 0.815686
0.819608 0.819608 0.819608
0.823529 0.823529 0.823529
0.831373 0.831373 0.831373
0.835294 0.835294 0.835294
0.839216 0.839216 0.839216
0.847059 0.847059 0.847059
0.850980 0.850980 0.850980
0.854902 0.854902 0.854902
0.862745 0.862745 0.862745
0.600000 0.600000 0.600000
0.607843 0.607843 0.607843
0.623529 0.623529 0.623529
0.639216 0.639216 0.639216
0.647059 0.647059 0.647059
0.666667 0.666667 0.666667
0.682353 0.682353 0.682353
0.698039 0.698039 0.698039
0.705882 0.705882 0.705882
0.721569 0.721569 0.721569
0.737255 0.737255 0.737255
0.745098 0.745098 0.745098
0.760784 0.760784 0.760784
0.776471 0.776471 0.776471
0.784314 0.784314 0.784314
0.792157 0.792157 0.792157
0.796078 0.796078 0.796078
0.800000 0.800000 0.800000
0.803922 0.803922 0.803922
0.811765 0.811765 0.811765
0.815686 0.815686 0.815686
0.819608 0.819608 0.819608
0.827451 0.827451 0.827451
0.831373 0.831373 0.831373
0.835294 0.835294 0.835294
0.843137 0.843137 0.843137
0.847059 0.847059 0.847059
0.850980 0.850980 0.850980
0.858824 0.858824 0.858824
0.862745 0.862745 0.862745
0.866667 0.866667 0.866667
0.874510 0.874510 0.874510
0.878431 0.878431 0.878431
0.639216 0.639216 0.639216
0.658824 0.658824 0.658824
0.674510 0.674510 0.674510
0.682353 0.682353 0.682353
0.698039 0.698039 0.698039
0.713725 0.713725 0.713725
0.729412 0.729412 0.729412
0.737255 0.737255 0.737255
0.752941 0.752941 0.752941
0.768627 0.768627 0.768627
0.776471 0.776471 0.776471
0.788235 0.788235 0.788235
0.792157 0.792157 0.792157
0.796078 0.796078 0.796078
0.803922 0.803922 0.803922
0.807843 0.807843 0.807843
0.815686 0.815686 0.815686
0.819608 0.819608 0.819608
0.823529 0.823529 0.823529
0.827451 0.827451 0.827451
0.831373 0.831373 0.831373
0.839216 0.839216 0.839216
0.847059 0.847059 0.847059
0.847059 0.847059 0.847059
0.854902 0.854902 0.854902
0.862745 0.862745 0.862745
0.862745 0.862745 0.862745
0.870588 0.870588 0.870588
0.874510 0.874510 0.874510
0.878431 0.878431 0.878431
0.886275 0.886275 0.886275
0.890196 0.890196 0.890196
0.898039 0.898039 0.898039
0.690196 0.690196 0.690196
0.705882 0.705882 0.705882
0.713725 0.713725 0.713725
0.729412 0.729412 0.729412
0.745098 0.745098 0.745098
0.760784 0.760784 0.760784
0.768627 0.768627 0.768627
0.784314 0.784314 0.784314
0.792157 0.792157 0.792157
0.792157 0.792157 0.792157
0.800000 0.800000 0.800000
0.803922 0.803922 0.803922
0.807843 0.807843 0.807843
0.815686 0.815686 0.815686
0.819608 0.819608 0.819608
0.827451 0.827451 0.827451
0.831373 0.831373 0.831373
0.835294 0.835294 0.835294
0.839216 0.839216 0.839216
0.847059 0.847059 0.847059
0.850980 0.850980 0.850980
0.858824 0.858824 0.858824
0.862745 0.862745 0.862745
0.866667 0.866667 0.866667
0.874510 0.874510 0.874510
0.874510 0.874510 0.874510
0.882353 0.882353 0.882353
0.890196 0.890196 0.890196
