infra/render-server/luts/silvertone.cube
TITLE "Silvertone"
LUT_3D_SIZE 33
DOMAIN_MIN 0.0 0.0 0.0
DOMAIN_MAX 1.0 1.0 1.0
0.000000 0.000000 0.000000
0.003922 0.003922 0.003922
0.011765 0.011765 0.007843
0.019608 0.019608 0.015686
0.027451 0.023529 0.019608
0.035294 0.031373 0.027451
0.043137 0.039216 0.031373
0.050980 0.043137 0.039216
0.054902 0.050980 0.043137
0.062745 0.058824 0.050980
0.070588 0.066667 0.054902
0.078431 0.070588 0.058824
0.086275 0.078431 0.066667
0.094118 0.086275 0.070588
0.101961 0.090196 0.078431
0.109804 0.098039 0.082353
0.113725 0.105882 0.090196
0.121569 0.109804 0.094118
0.129412 0.117647 0.098039
0.137255 0.125490 0.105882
0.145098 0.129412 0.109804
0.152941 0.137255 0.117647
0.156863 0.145098 0.121569
0.164706 0.149020 0.129412
0.172549 0.156863 0.133333
0.180392 0.164706 0.137255
0.188235 0.172549 0.145098
0.196078 0.176471 0.149020
0.203922 0.184314 0.156863
0.211765 0.192157 0.160784
0.215686 0.196078 0.168627
0.223529 0.203922 0.172549
0.231373 0.211765 0.180392
0.023529 0.019608 0.015686
0.031373 0.027451 0.023529
0.039216 0.035294 0.027451
0.043137 0.039216 0.035294
0.050980 0.047059 0.039216
0.058824 0.054902 0.047059
0.066667 0.058824 0.050980
0.074510 0.066667 0.054902
0.082353 0.074510 0.062745
0.090196 0.082353 0.066667
0.098039 0.086275 0.074510
0.101961 0.094118 0.078431
0.109804 0.101961 0.086275
0.117647 0.105882 0.090196
0.125490 0.113725 0.098039
0.133333 0.121569 0.101961
0.141176 0.125490 0.105882
0.145098 0.133333 0.113725
0.152941 0.141176 0.117647
0.160784 0.145098 0.125490
0.168627 0.152941 0.129412
0.176471 0.160784 0.137255
0.184314 0.164706 0.141176
0.192157 0.172549 0.145098
0.196078 0.180392 0.152941
0.203922 0.188235 0.156863
0.211765 0.192157 0.164706
0.219608 0.200000 0.168627
0.227451 0.207843 0.176471
0.235294 0.211765 0.180392
0.243137 0.219608 0.188235
0.250980 0.227451 0.192157
0.254902 0.231373 0.196078
0.047059 0.043137 0.035294
0.054902 0.050980 0.043137
0.062745 0.054902 0.047059
0.070588 0.062745 0.054902
0.078431 0.070588 0.058824
0.082353 0.074510 0.062745
0.090196 0.082353 0.070588
0.098039 0.090196 0.074510
0.105882 0.098039 0.082353
0.113725 0.101961 0.086275
0.121569 0.109804 0.094118
0.129412 0.117647 0.098039
0.137255 0.121569 0.105882
0.141176 0.129412 0.109804
0.149020 0.137255 0.113725
0.156863 0.141176 0.121569
0.164706 0.149020 0.125490
0.172549 0.156863 0.133333
0.180392 0.160784 0.137255
0.184314 0.168627 0.145098
0.192157 0.176471 0.149020
0.200000 0.180392 0.152941
0.207843 0.188235 0.160784
0.215686 0.196078 0.164706
0.223529 0.203922 0.172549
0.231373 0.207843 0.176471
0.235294 0.215686 0.184314
0.243137 0.223529 0.188235
0.250980 0.227451 0.196078
0.258824 0.235294 0.200000
0.266667 0.243137 0.203922
0.274510 0.247059 0.211765
0.282353 0.254902 0.215686
0.070588 0.066667 0.054902
0.078431 0.070588 0.062745
0.086275 0.078431 0.066667
0.094118 0.086275 0.070588
0.101961 0.090196 0.078431
0.109804 0.098039 0.082353
0.117647 0.105882 0.090196
0.121569 0.113725 0.094118
0.129412 0.117647 0.101961
0.137255 0.125490 0.105882
0.145098 0.133333 0.113725
0.152941 0.137255 0.117647
0.160784 0.145098 0.121569
0.168627 0.152941 0.129412
0.176471 0.156863 0.133333
0.180392 0.164706 0.141176
0.188235 0.172549 0.145098
0.196078 0.176471 0.149020
0.203922 0.184314 0.156863
0.211765 0.192157 0.160784
0.219608 0.196078 0.168627
0.223529 0.203922 0.172549
0.231373 0.211765 0.180392
0.239216 0.219608 0.184314
0.247059 0.223529 0.192157
0.254902 0.231373 0.196078
0.262745 0.239216 0.200000
0.270588 0.243137 0.207843
0.278431 0.250980 0.211765
0.282353 0.258824 0.219608
0.290196 0.262745 0.223529
0.298039 0.270588 0.231373
0.305882 0.278431 0.235294
0.098039 0.086275 0.074510
0.105882 0.094118 0.078431
0.109804 0.101961 0.086275
0.117647 0.105882 0.090196
0.125490 0.113725 0.098039
0.133333 0.121569 0.101961
0.141176 0.129412 0.109804
0.149020 0.133333 0.113725
0.156863 0.141176 0.121569
0.164706 0.149020 0.125490
0.168627 0.152941 0.129412
0.176471 0.160784 0.137255
0.184314 0.168627 0.141176
0.192157 0.172549 0.149020
0.200000 0.180392 0.152941
0.207843 0.188235 0.160784
0.215686 0.196078 0.164706
0.219608 0.200000 0.168627
0.227451 0.207843 0.176471
0.235294 0.211765 0.180392
0.243137 0.219608 0.188235
0.250980 0.227451 0.192157
0.258824 0.235294 0.200000
0.262745 0.239216 0.203922
0.270588 0.247059 0.207843
0.278431 0.254902 0.215686
0.286275 0.258824 0.219608
0.294118 0.266667 0.227451
0.301961 0.274510 0.231373
0.309804 0.278431 0.239216
0.317647 0.286275 0.243137
0.321569 0.294118 0.250980
0.329412 0.301961 0.254902
0.121569 0.109804 0.094118
0.129412 0.117647 0.098039
0.137255 0.125490 0.105882
0.145098 0.129412 0.109804
0.149020 0.137255 0.117647
0.156863 0.145098 0.121569
0.164706 0.149020 0.125490
0.172549 0.156863 0.133333
0.180392 0.164706 0.137255
0.188235 0.168627 0.145098
0.196078 0.176471 0.149020
0.203922 0.184314 0.156863
0.207843 0.192157 0.160784
0.215686 0.196078 0.168627
0.223529 0.203922 0.172549
0.231373 0.211765 0.180392
0.239216 0.215686 0.184314
0.247059 0.223529 0.188235
0.250980 0.231373 0.196078
0.258824 0.235294 0.200000
0.266667 0.243137 0.207843
0.274510 0.250980 0.211765
0.282353 0.254902 0.215686
0.290196 0.262745 0.223529
0.298039 0.270588 0.227451
0.305882 0.274510 0.235294
0.309804 0.282353 0.239216
0.317647 0.290196 0.247059
0.325490 0.298039 0.250980
0.333333 0.301961 0.258824
0.341176 0.309804 0.262745
0.349020 0.317647 0.266667
0.356863 0.321569 0.274510
0.145098 0.133333 0.113725
0.152941 0.141176 0.117647
0.160784 0.145098 0.125490
0.168627 0.152941 0.129412
0.176471 0.160784 0.133333
0.184314 0.164706 0.141176
0.188235 0.172549 0.145098
0.196078 0.180392 0.152941
0.203922 0.184314 0.156863
0.211765 0.192157 0.164706
0.219608 0.200000 0.168627
0.227451 0.207843 0.176471
0.235294 0.211765 0.180392
0.243137 0.219608 0.184314
0.247059 0.227451 0.192157
0.254902 0.231373 0.196078
0.262745 0.239216 0.203922
0.270588 0.247059 0.207843
0.278431 0.250980 0.215686
0.286275 0.258824 0.219608
0.290196 0.266667 0.223529
0.298039 0.270588 0.231373
0.305882 0.278431 0.235294
0.313725 0.286275 0.243137
0.321569 0.290196 0.247059
0.329412 0.298039 0.254902
0.337255 0.305882 0.258824
0.345098 0.313725 0.266667
0.349020 0.317647 0.270588
0.356863 0.325490 0.274510
0.364706 0.333333 0.282353
0.372549 0.337255 0.286275
0.380392 0.345098 0.294118
0.172549 0.156863 0.133333
0.176471 0.160784 0.137255
0.184314 0.168627 0.141176
0.192157 0.176471 0.149020
0.200000 0.180392 0.152941
0.207843 0.188235 0.160784
0.215686 0.196078 0.164706
0.223529 0.200000 0.172549
0.231373 0.207843 0.176471
0.235294 0.215686 0.184314
0.243137 0.223529 0.188235
0.250980 0.227451 0.192157
0.258824 0.235294 0.200000
0.266667 0.243137 0.203922
0.274510 0.247059 0.211765
0.282353 0.254902 0.215686
0.286275 0.262745 0.223529
0.294118 0.266667 0.227451
0.301961 0.274510 0.231373
0.309804 0.282353 0.239216
0.317647 0.286275 0.243137
0.325490 0.294118 0.250980
0.329412 0.301961 0.254902
0.337255 0.305882 0.262745
0.345098 0.313725 0.266667
0.352941 0.321569 0.274510
0.360784 0.329412 0.278431
0.368627 0.333333 0.282353
0.376471 0.341176 0.290196
0.384314 0.349020 0.294118
0.388235 0.352941 0.301961
0.396078 0.360784 0.305882
0.403922 0.368627 0.313725
0.196078 0.176471 0.149020
0.203922 0.184314 0.156863
0.211765 0.192157 0.160784
0.215686 0.196078 0.168627
0.223529 0.203922 0.172549
0.231373 0.211765 0.180392
0.239216 0.215686 0.184314
0.247059 0.223529 0.192157
0.254902 0.231373 0.196078
0.262745 0.239216 0.200000
0.270588 0.243137 0.207843
0.274510 0.250980 0.211765
0.282353 0.258824 0.219608
0.290196 0.262745 0.223529
0.298039 0.270588 0.231373
0.305882 0.278431 0.235294
0.313725 0.282353 0.243137
0.317647 0.290196 0.247059
0.325490 0.298039 0.250980
0.333333 0.301961 0.258824
0.341176 0.309804 0.262745
0.349020 0.317647 0.270588
0.356863 0.321569 0.274510
0.364706 0.329412 0.278431
0.372549 0.337255 0.286275
0.376471 0.345098 0.290196
0.384314 0.349020 0.298039
0.392157 0.356863 0.301961
0.400000 0.364706 0.309804
0.407843 0.368627 0.313725
0.415686 0.376471 0.321569
0.423529 0.384314 0.325490
0.427451 0.388235 0.329412
0.219608 0.200000 0.168627
0.227451 0.207843 0.176471
0.235294 0.211765 0.180392
0.243137 0.219608 0.188235
0.250980 0.227451 0.192157
0.254902 0.231373 0.196078
0.262745 0.239216 0.203922
0.270588 0.247059 0.207843
0.278431 0.254902 0.215686
0.286275 0.258824 0.219608
0.294118 0.266667 0.227451
0.301961 0.274510 0.231373
0.309804 0.278431 0.239216
0.313725 0.286275 0.243137
0.321569 0.294118 0.250980
0.329412 0.301961 0.254902
0.337255 0.305882 0.258824
0.345098 0.313725 0.266667
0.352941 0.317647 0.270588
0.356863 0.325490 0.278431
0.364706 0.333333 0.282353
0.372549 0.337255 0.286275
0.380392 0.345098 0.294118
0.388235 0.352941 0.298039
0.396078 0.360784 0.305882
0.403922 0.364706 0.309804
0.411765 0.372549 0.317647
0.415686 0.380392 0.321569
0.423529 0.384314 0.329412
0.431373 0.392157 0.333333
0.439216 0.400000 0.337255
0.447059 0.407843 0.345098
0.454902 0.411765 0.349020
0.243137 0.223529 0.188235
0.250980 0.227451 0.196078
0.258824 0.235294 0.200000
0.266667 0.243137 0.203922
0.274510 0.250980 0.211765
0.282353 0.254902 0.215686
0.290196 0.262745 0.223529
0.298039 0.270588 0.227451
0.301961 0.274510 0.235294
0.309804 0.282353 0.239216
0.317647 0.290196 0.247059
0.325490 0.294118 0.250980
0.333333 0.301961 0.254902
0.341176 0.309804 0.262745
0.349020 0.317647 0.266667
0.356863 0.321569 0.274510
0.360784 0.329412 0.278431
0.368627 0.333333 0.286275
0.376471 0.341176 0.290196
0.384314 0.349020 0.294118
0.392157 0.356863 0.301961
0.396078 0.360784 0.305882
0.403922 0.368627 0.313725
0.411765 0.376471 0.317647
0.419608 0.380392 0.325490
0.427451 0.388235 0.329412
0.435294 0.396078 0.337255
0.443137 0.400000 0.341176
0.450980 0.407843 0.345098
0.454902 0.415686 0.352941
0.462745 0.423529 0.356863
0.470588 0.427451 0.364706
0.478431 0.435294 0.368627
0.270588 0.243137 0.207843
0.278431 0.250980 0.211765
0.282353 0.258824 0.219608
0.290196 0.266667 0.223529
0.298039 0.270588 0.231373
0.305882 0.278431 0.235294
0.313725 0.286275 0.243137
0.321569 0.290196 0.247059
0.329412 0.298039 0.254902
0.337255 0.305882 0.258824
0.341176 0.309804 0.262745
0.349020 0.317647 0.270588
0.356863 0.325490 0.274510
0.364706 0.333333 0.282353
0.372549 0.337255 0.286275
0.380392 0.345098 0.294118
0.388235 0.352941 0.298039
0.392157 0.356863 0.301961
0.400000 0.364706 0.309804
0.407843 0.372549 0.313725
0.415686 0.376471 0.321569
0.423529 0.384314 0.325490
0.431373 0.392157 0.333333
0.439216 0.396078 0.337255
0.443137 0.403922 0.345098
0.450980 0.411765 0.349020
0.458824 0.415686 0.352941
0.466667 0.423529 0.360784
0.474510 0.431373 0.364706
0.482353 0.439216 0.372549
0.490196 0.443137 0.376471
0.494118 0.450980 0.384314
0.501961 0.458824 0.388235
0.294118 0.266667 0.227451
0.301961 0.274510 0.231373
0.309804 0.282353 0.239216
0.317647 0.286275 0.243137
0.325490 0.294118 0.250980
0.329412 0.301961 0.254902
0.337255 0.305882 0.262745
0.345098 0.313725 0.266667
0.352941 0.321569 0.270588
0.360784 0.325490 0.278431
0.368627 0.333333 0.282353
0.376471 0.341176 0.290196
0.380392 0.349020 0.294118
0.388235 0.352941 0.301961
0.396078 0.360784 0.305882
0.403922 0.368627 0.313725
0.411765 0.372549 0.317647
0.419608 0.380392 0.321569
0.423529 0.388235 0.329412
0.431373 0.392157 0.333333
0.439216 0.400000 0.341176
0.447059 0.407843 0.345098
0.454902 0.411765 0.349020
0.462745 0.419608 0.356863
0.470588 0.427451 0.360784
0.478431 0.431373 0.368627
0.482353 0.439216 0.372549
0.490196 0.447059 0.380392
0.498039 0.454902 0.384314
0.505882 0.458824 0.392157
0.513725 0.466667 0.396078
0.521569 0.474510 0.400000
0.529412 0.478431 0.407843
0.317647 0.290196 0.247059
0.325490 0.298039 0.250980
0.333333 0.301961 0.258824
0.341176 0.309804 0.262745
0.349020 0.317647 0.270588
0.356863 0.321569 0.274510
0.364706 0.329412 0.278431
0.368627 0.337255 0.286275
0.376471 0.341176 0.290196
0.384314 0.349020 0.298039
0.392157 0.356863 0.301961
0.400000 0.364706 0.309804
0.407843 0.368627 0.313725
0.415686 0.376471 0.321569
0.423529 0.384314 0.325490
0.427451 0.388235 0.329412
0.435294 0.396078 0.337255
0.443137 0.403922 0.341176
0.450980 0.407843 0.349020
0.458824 0.415686 0.352941
0.466667 0.423529 0.356863
0.470588 0.427451 0.364706
0.478431 0.435294 0.368627
0.486275 0.443137 0.376471
0.494118 0.447059 0.380392
0.501961 0.454902 0.388235
0.509804 0.462745 0.392157
0.517647 0.470588 0.400000
0.521569 0.474510 0.403922
0.529412 0.482353 0.407843
0.537255 0.490196 0.415686
0.545098 0.494118 0.419608
0.552941 0.501961 0.427451
0.345098 0.313725 0.266667
0.349020 0.317647 0.270588
0.356863 0.325490 0.274510
0.364706 0.333333 0.282353
0.372549 0.337255 0.286275
0.380392 0.345098 0.294118
0.388235 0.352941 0.298039
0.396078 0.360784 0.305882
0.403922 0.364706 0.309804
0.407843 0.372549 0.317647
0.415686 0.380392 0.321569
0.423529 0.384314 0.325490
0.431373 0.392157 0.333333
0.439216 0.400000 0.337255
0.447059 0.403922 0.345098
0.454902 0.411765 0.349020
0.462745 0.419608 0.356863
0.466667 0.423529 0.360784
0.474510 0.431373 0.364706
0.482353 0.439216 0.372549
0.490196 0.443137 0.376471
0.498039 0.450980 0.384314
0.505882 0.458824 0.388235
0.509804 0.466667 0.396078
0.517647 0.470588 0.400000
0.525490 0.478431 0.407843
0.533333 0.486275 0.411765
0.541176 0.490196 0.415686
0.549020 0.498039 0.423529
0.556863 0.505882 0.427451
0.564706 0.509804 0.435294
0.568627 0.517647 0.439216
0.576471 0.525490 0.447059
0.368627 0.333333 0.282353
0.376471 0.341176 0.290196
0.384314 0.349020 0.294118
0.392157 0.352941 0.301961
0.396078 0.360784 0.305882
0.403922 0.368627 0.313725
0.411765 0.376471 0.317647
0.419608 0.380392 0.325490
0.427451 0.388235 0.329412
0.435294 0.396078 0.333333
0.443137 0.400000 0.341176
0.447059 0.407843 0.345098
0.454902 0.415686 0.352941
0.462745 0.419608 0.356863
0.470588 0.427451 0.364706
0.478431 0.435294 0.368627
0.486275 0.443137 0.376471
0.490196 0.447059 0.380392
0.498039 0.454902 0.384314
0.505882 0.458824 0.392157
0.513725 0.466667 0.396078
0.521569 0.474510 0.403922
0.529412 0.482353 0.407843
0.537255 0.486275 0.415686
0.545098 0.494118 0.419608
0.549020 0.501961 0.423529
0.556863 0.505882 0.431373
0.564706 0.513725 0.435294
0.572549 0.521569 0.443137
0.580392 0.525490 0.447059
0.588235 0.533333 0.454902
0.596078 0.541176 0.458824
0.603922 0.549020 0.466667
0.392157 0.356863 0.301961
0.400000 0.364706 0.309804
0.407843 0.368627 0.313725
0.415686 0.376471 0.321569
0.423529 0.384314 0.325490
0.431373 0.392157 0.333333
0.435294 0.396078 0.337255
0.443137 0.403922 0.341176
0.450980 0.411765 0.349020
0.458824 0.415686 0.352941
0.466667 0.423529 0.360784
0.474510 0.431373 0.364706
0.482353 0.435294 0.372549
0.490196 0.443137 0.376471
0.494118 0.450980 0.384314
0.501961 0.458824 0.388235
0.509804 0.462745 0.392157
0.517647 0.470588 0.400000
0.525490 0.474510 0.403922
0.533333 0.482353 0.411765
0.537255 0.490196 0.415686
0.545098 0.498039 0.419608
0.552941 0.501961 0.427451
0.560784 0.509804 0.431373
0.568627 0.517647 0.439216
0.576471 0.521569 0.443137
0.584314 0.529412 0.450980
0.588235 0.537255 0.454902
0.596078 0.541176 0.462745
0.603922 0.549020 0.466667
0.611765 0.556863 0.474510
0.619608 0.564706 0.478431
0.627451 0.568627 0.482353
0.415686 0.376471 0.321569
0.423529 0.384314 0.325490
0.427451 0.388235 0.329412
0.435294 0.396078 0.337255
0.443137 0.403922 0.341176
0.450980 0.411765 0.349020
0.458824 0.415686 0.352941
0.466667 0.423529 0.360784
0.474510 0.431373 0.364706
0.482353 0.435294 0.372549
0.486275 0.443137 0.376471
0.494118 0.450980 0.380392
0.501961 0.454902 0.388235
0.509804 0.462745 0.392157
0.517647 0.470588 0.400000
0.525490 0.478431 0.403922
0.533333 0.482353 0.411765
0.537255 0.490196 0.415686
0.545098 0.494118 0.419608
0.552941 0.501961 0.427451
0.560784 0.509804 0.431373
0.568627 0.517647 0.439216
0.576471 0.521569 0.443137
0.584314 0.529412 0.450980
0.588235 0.537255 0.454902
0.596078 0.541176 0.462745
0.603922 0.549020 0.466667
0.611765 0.556863 0.470588
0.619608 0.560784 0.478431
0.627451 0.568627 0.482353
0.635294 0.576471 0.490196
0.639216 0.584314 0.494118
0.647059 0.588235 0.501961
0.439216 0.400000 0.337255
0.447059 0.403922 0.345098
0.454902 0.411765 0.349020
0.462745 0.419608 0.356863
0.466667 0.427451 0.360784
0.474510 0.431373 0.368627
0.482353 0.439216 0.372549
0.490196 0.447059 0.380392
0.498039 0.450980 0.384314
0.505882 0.458824 0.388235
0.513725 0.466667 0.396078
0.521569 0.470588 0.400000
0.525490 0.478431 0.407843
0.533333 0.486275 0.411765
0.541176 0.494118 0.419608
0.549020 0.498039 0.423529
0.556863 0.505882 0.431373
0.564706 0.509804 0.435294
0.568627 0.517647 0.439216
0.576471 0.525490 0.447059
0.584314 0.533333 0.450980
0.592157 0.537255 0.458824
0.600000 0.545098 0.462745
0.607843 0.552941 0.470588
0.615686 0.556863 0.474510
0.623529 0.564706 0.478431
0.627451 0.572549 0.486275
0.635294 0.576471 0.490196
0.643137 0.584314 0.498039
0.650980 0.592157 0.501961
0.658824 0.600000 0.509804
0.666667 0.603922 0.513725
0.674510 0.611765 0.521569
0.462745 0.419608 0.356863
0.470588 0.427451 0.364706
0.478431 0.435294 0.368627
0.486275 0.443137 0.376471
0.494118 0.447059 0.380392
0.501961 0.454902 0.388235
0.509804 0.462745 0.392157
0.513725 0.466667 0.396078
0.521569 0.474510 0.403922
0.529412 0.482353 0.407843
0.537255 0.490196 0.415686
0.545098 0.494118 0.419608
0.552941 0.501961 0.427451
0.560784 0.509804 0.431373
0.564706 0.513725 0.439216
0.572549 0.521569 0.443137
0.580392 0.529412 0.447059
0.588235 0.533333 0.454902
0.596078 0.541176 0.458824
0.603922 0.549020 0.466667
0.607843 0.552941 0.470588
0.615686 0.560784 0.474510
0.623529 0.568627 0.482353
0.631373 0.572549 0.486275
0.639216 0.580392 0.494118
0.647059 0.588235 0.498039
0.654902 0.596078 0.505882
0.662745 0.600000 0.509804
0.666667 0.607843 0.517647
0.674510 0.615686 0.521569
0.682353 0.619608 0.525490
0.690196 0.627451 0.533333
0.698039 0.635294 0.537255
0.490196 0.443137 0.376471
0.494118 0.450980 0.384314
0.501961 0.458824 0.388235
0.509804 0.462745 0.392157
0.517647 0.470588 0.400000
0.525490 0.478431 0.403922
0.533333 0.482353 0.411765
0.541176 0.490196 0.415686
0.549020 0.498039 0.423529
0.552941 0.505882 0.427451
0.560784 0.509804 0.435294
0.568627 0.517647 0.439216
0.576471 0.525490 0.447059
0.584314 0.529412 0.450980
0.592157 0.537255 0.454902
0.600000 0.545098 0.462745
0.607843 0.549020 0.466667
0.611765 0.556863 0.474510
0.619608 0.564706 0.478431
0.627451 0.568627 0.482353
0.635294 0.576471 0.490196
0.643137 0.584314 0.494118
0.650980 0.588235 0.501961
0.654902 0.596078 0.505882
0.662745 0.603922 0.513725
0.670588 0.611765 0.517647
0.678431 0.615686 0.525490
0.686275 0.623529 0.529412
0.694118 0.631373 0.533333
0.701961 0.635294 0.541176
0.705882 0.643137 0.545098
0.713725 0.650980 0.552941
0.721569 0.654902 0.556863
0.513725 0.466667 0.396078
0.521569 0.474510 0.400000
0.529412 0.478431 0.407843
0.533333 0.486275 0.411765
0.541176 0.494118 0.419608
0.549020 0.498039 0.423529
0.556863 0.505882 0.431373
0.564706 0.513725 0.435294
0.572549 0.521569 0.443137
0.580392 0.525490 0.447059
0.588235 0.533333 0.450980
0.592157 0.541176 0.458824
0.600000 0.545098 0.462745
0.607843 0.552941 0.470588
0.615686 0.560784 0.474510
0.623529 0.564706 0.482353
0.631373 0.572549 0.486275
0.635294 0.580392 0.490196
0.643137 0.584314 0.498039
0.650980 0.592157 0.501961
0.658824 0.600000 0.509804
0.666667 0.603922 0.513725
0.674510 0.611765 0.521569
0.682353 0.619608 0.525490
0.690196 0.627451 0.533333
0.694118 0.631373 0.537255
0.701961 0.639216 0.541176
0.709804 0.647059 0.549020
0.717647 0.650980 0.552941
0.725490 0.658824 0.560784
0.733333 0.666667 0.564706
0.741176 0.670588 0.572549
0.749020 0.678431 0.576471
0.537255 0.490196 0.415686
0.545098 0.494118 0.419608
0.552941 0.501961 0.427451
0.560784 0.509804 0.431373
0.568627 0.513725 0.439216
0.576471 0.521569 0.443137
0.580392 0.529412 0.450980
0.588235 0.537255 0.454902
0.596078 0.541176 0.458824
0.603922 0.549020 0.466667
0.611765 0.556863 0.470588
0.619608 0.560784 0.478431
0.627451 0.568627 0.482353
0.631373 0.576471 0.490196
0.639216 0.580392 0.494118
0.647059 0.588235 0.501961
0.654902 0.596078 0.505882
0.662745 0.600000 0.509804
0.670588 0.607843 0.517647
0.674510 0.615686 0.521569
0.682353 0.619608 0.529412
0.690196 0.627451 0.533333
0.698039 0.635294 0.541176
0.705882 0.643137 0.545098
0.713725 0.647059 0.549020
0.721569 0.654902 0.556863
0.729412 0.662745 0.560784
0.733333 0.666667 0.568627
0.741176 0.674510 0.572549
0.749020 0.682353 0.580392
0.756863 0.686275 0.584314
0.764706 0.694118 0.592157
0.772549 0.701961 0.596078
0.560784 0.509804 0.435294
0.568627 0.517647 0.439216
0.576471 0.525490 0.447059
0.584314 0.529412 0.450980
0.592157 0.537255 0.458824
0.600000 0.545098 0.462745
0.607843 0.552941 0.466667
0.615686 0.556863 0.474510
0.619608 0.564706 0.478431
0.627451 0.572549 0.486275
0.635294 0.576471 0.490196
0.643137 0.584314 0.498039
0.650980 0.592157 0.501961
0.658824 0.596078 0.509804
0.666667 0.603922 0.513725
0.674510 0.611765 0.517647
0.678431 0.619608 0.525490
0.686275 0.623529 0.529412
0.694118 0.631373 0.537255
0.701961 0.635294 0.541176
0.709804 0.643137 0.545098
0.717647 0.650980 0.552941
0.721569 0.658824 0.556863
0.729412 0.662745 0.564706
0.737255 0.670588 0.568627
0.745098 0.678431 0.576471
0.752941 0.682353 0.580392
0.760784 0.690196 0.588235
0.768627 0.698039 0.592157
0.772549 0.701961 0.596078
0.780392 0.709804 0.603922
0.788235 0.717647 0.607843
0.796078 0.725490 0.615686
0.588235 0.533333 0.454902
0.596078 0.541176 0.458824
0.603922 0.549020 0.466667
0.607843 0.552941 0.470588
0.615686 0.560784 0.474510
0.623529 0.568627 0.482353
0.631373 0.572549 0.486275
0.639216 0.580392 0.494118
0.647059 0.588235 0.498039
0.654902 0.592157 0.505882
0.658824 0.600000 0.509804
0.666667 0.607843 0.517647
0.674510 0.615686 0.521569
0.682353 0.619608 0.525490
0.690196 0.627451 0.533333
0.698039 0.635294 0.537255
0.705882 0.639216 0.545098
0.709804 0.647059 0.549020
0.717647 0.654902 0.552941
0.725490 0.658824 0.560784
0.733333 0.666667 0.564706
0.741176 0.674510 0.572549
0.749020 0.678431 0.576471
0.756863 0.686275 0.584314
0.760784 0.694118 0.588235
0.768627 0.698039 0.596078
0.776471 0.705882 0.600000
0.784314 0.713725 0.603922
0.792157 0.721569 0.611765
0.800000 0.725490 0.615686
0.807843 0.733333 0.623529
0.815686 0.741176 0.627451
0.819608 0.745098 0.635294
0.611765 0.556863 0.470588
0.619608 0.564706 0.478431
0.627451 0.568627 0.482353
0.635294 0.576471 0.490196
0.643137 0.584314 0.494118
0.647059 0.588235 0.501961
0.654902 0.596078 0.505882
0.662745 0.603922 0.513725
0.670588 0.607843 0.517647
0.678431 0.615686 0.521569
0.686275 0.623529 0.529412
0.694118 0.631373 0.533333
0.701961 0.635294 0.541176
0.705882 0.643137 0.545098
0.713725 0.650980 0.552941
0.721569 0.654902 0.556863
0.729412 0.662745 0.564706
0.737255 0.670588 0.568627
0.741176 0.674510 0.572549
0.749020 0.682353 0.580392
0.756863 0.690196 0.584314
0.764706 0.694118 0.592157
0.772549 0.701961 0.596078
0.780392 0.709804 0.603922
0.788235 0.713725 0.607843
0.796078 0.721569 0.611765
0.800000 0.729412 0.619608
0.807843 0.737255 0.623529
0.815686 0.741176 0.631373
0.823529 0.749020 0.635294
0.831373 0.756863 0.643137
0.839216 0.760784 0.647059
0.847059 0.768627 0.654902
0.635294 0.580392 0.490196
0.643137 0.584314 0.498039
0.650980 0.592157 0.501961
0.658824 0.600000 0.509804
0.666667 0.603922 0.513725
0.674510 0.611765 0.521569
0.682353 0.619608 0.525490
0.686275 0.623529 0.529412
0.694118 0.631373 0.537255
0.701961 0.639216 0.541176
0.709804 0.647059 0.549020
0.717647 0.650980 0.552941
0.725490 0.658824 0.560784
0.733333 0.666667 0.564706
0.741176 0.670588 0.572549
0.745098 0.678431 0.576471
0.752941 0.686275 0.580392
0.760784 0.690196 0.588235
0.768627 0.698039 0.592157
0.776471 0.705882 0.600000
0.784314 0.709804 0.603922
0.788235 0.717647 0.611765
0.796078 0.725490 0.615686
0.803922 0.729412 0.619608
0.811765 0.737255 0.627451
0.819608 0.745098 0.631373
0.827451 0.752941 0.639216
