infra/render-server/luts/silvertone.cube
TITLE "Silvertone"
LUT_3D_SIZE 9
DOMAIN_MIN 0.0 0.0 0.0
DOMAIN_MAX 1.0 1.0 1.0
0.000000 0.000000 0.000000
0.027451 0.023529 0.019608
0.054902 0.050980 0.043137
0.086275 0.078431 0.066667
0.113725 0.105882 0.090196
0.145098 0.129412 0.109804
0.172549 0.156863 0.133333
0.203922 0.184314 0.156863
0.231373 0.211765 0.180392
0.098039 0.086275 0.074510
0.125490 0.113725 0.098039
0.156863 0.141176 0.121569
0.184314 0.168627 0.141176
0.215686 0.196078 0.164706
0.243137 0.219608 0.188235
0.270588 0.247059 0.207843
0.301961 0.274510 0.231373
0.329412 0.301961 0.254902
0.196078 0.176471 0.149020
0.223529 0.203922 0.172549
0.254902 0.231373 0.196078
0.282353 0.258824 0.219608
0.313725 0.282353 0.243137
0.341176 0.309804 0.262745
0.372549 0.337255 0.286275
0.400000 0.364706 0.309804
0.427451 0.388235 0.329412
0.294118 0.266667 0.227451
0.325490 0.294118 0.250980
0.352941 0.321569 0.270588
0.380392 0.349020 0.294118
0.411765 0.372549 0.317647
0.439216 0.400000 0.341176
0.470588 0.427451 0.360784
0.498039 0.454902 0.384314
0.529412 0.478431 0.407843
0.392157 0.356863 0.301961
0.423529 0.384314 0.325490
0.450980 0.411765 0.349020
0.482353 0.435294 0.372549
0.509804 0.462745 0.392157
0.537255 0.490196 0.415686
0.568627 0.517647 0.439216
0.596078 0.541176 0.462745
0.627451 0.568627 0.482353
0.490196 0.443137 0.376471
0.517647 0.470588 0.400000
0.549020 0.498039 0.423529
0.576471 0.525490 0.447059
0.607843 0.549020 0.466667
0.635294 0.576471 0.490196
0.662745 0.603922 0.513725
0.694118 0.631373 0.533333
0.721569 0.654902 0.556863
0.588235 0.533333 0.454902
0.615686 0.560784 0.474510
0.647059 0.588235 0.498039
0.674510 0.615686 0.521569
0.705882 0.639216 0.545098
0.733333 0.666667 0.564706
0.760784 0.694118 0.588235
0.792157 0.721569 0.611765
0.819608 0.745098 0.635294
0.686275 0.623529 0.529412
0.713725 0.650980 0.552941
0.745098 0.678431 0.576471
0.772549 0.701961 0.596078
0.803922 0.729412 0.619608
0.831373 0.756863 0.643137
0.862745 0.784314 0.666667
0.890196 0.807843 0.686275
0.921569 0.835294 0.709804
0.784314 0.713725 0.607843
0.815686 0.741176 0.627451
0.843137 0.764706 0.650980
0.874510 0.792157 0.674510
0.901961 0.819608 0.698039
0.929412 0.847059 0.717647
0.960784 0.870588 0.741176
0.988235 0.898039 0.764706
1.000000 0.925490 0.788235
0.007843 0.007843 0.003922
0.039216 0.035294 0.027451
0.066667 0.058824 0.050980
0.094118 0.086275 0.074510
0.125490 0.113725 0.098039
0.152941 0.141176 0.117647
0.184314 0.164706 0.141176
0.211765 0.192157 0.164706
0.243137 0.219608 0.188235
0.105882 0.098039 0.082353
0.137255 0.125490 0.105882
0.164706 0.149020 0.125490
0.196078 0.176471 0.149020
0.223529 0.203922 0.172549
0.250980 0.231373 0.196078
0.282353 0.254902 0.215686
0.309804 0.282353 0.239216
0.341176 0.309804 0.262745
0.203922 0.188235 0.156863
0.235294 0.211765 0.180392
0.262745 0.239216 0.203922
0.294118 0.266667 0.227451
0.321569 0.294118 0.250980
0.352941 0.317647 0.270588
0.380392 0.345098 0.294118
0.411765 0.372549 0.317647
0.439216 0.400000 0.337255
0.305882 0.274510 0.235294
0.333333 0.301961 0.258824
0.364706 0.329412 0.278431
0.392157 0.356863 0.301961
0.423529 0.384314 0.325490
0.450980 0.407843 0.349020
0.478431 0.435294 0.368627
0.509804 0.462745 0.392157
0.537255 0.490196 0.415686
0.403922 0.364706 0.309804
0.431373 0.392157 0.333333
0.462745 0.419608 0.356863
0.490196 0.447059 0.380392
0.521569 0.474510 0.400000
0.549020 0.498039 0.423529
0.576471 0.525490 0.447059
0.607843 0.552941 0.470588
0.635294 0.580392 0.490196
0.498039 0.454902 0.384314
0.529412 0.478431 0.407843
0.556863 0.505882 0.431373
0.588235 0.533333 0.450980
0.615686 0.560784 0.474510
0.643137 0.584314 0.498039
0.674510 0.611765 0.521569
0.701961 0.639216 0.541176
0.733333 0.666667 0.564706
0.596078 0.541176 0.462745
0.627451 0.568627 0.482353
0.654902 0.596078 0.505882
0.686275 0.623529 0.529412
0.713725 0.650980 0.552941
0.741176 0.674510 0.572549
0.772549 0.701961 0.596078
0.800000 0.729412 0.619608
0.831373 0.756863 0.643137
0.694118 0.631373 0.537255
0.725490 0.658824 0.560784
0.752941 0.686275 0.584314
0.784314 0.713725 0.603922
0.811765 0.741176 0.627451
0.843137 0.764706 0.650980
0.870588 0.792157 0.674510
0.901961 0.819608 0.694118
0.929412 0.847059 0.717647
0.796078 0.721569 0.611765
0.823529 0.749020 0.635294
0.854902 0.776471 0.658824
0.882353 0.803922 0.682353
0.913725 0.827451 0.705882
0.941176 0.854902 0.725490
0.968627 0.882353 0.749020
1.000000 0.909804 0.772549
1.000000 0.933333 0.796078
0.019608 0.015686 0.011765
0.047059 0.043137 0.035294
0.078431 0.070588 0.058824
0.105882 0.098039 0.082353
0.137255 0.121569 0.105882
0.164706 0.149020 0.125490
0.192157 0.176471 0.149020
0.223529 0.203922 0.172549
0.250980 0.227451 0.196078
0.117647 0.105882 0.090196
0.145098 0.133333 0.113725
0.176471 0.160784 0.133333
0.203922 0.184314 0.156863
0.235294 0.211765 0.180392
0.262745 0.239216 0.203922
0.290196 0.266667 0.223529
0.321569 0.290196 0.247059
0.349020 0.317647 0.270588
0.215686 0.196078 0.164706
0.243137 0.223529 0.188235
0.274510 0.250980 0.211765
0.301961 0.274510 0.235294
0.333333 0.301961 0.254902
0.360784 0.329412 0.278431
0.392157 0.356863 0.301961
0.419608 0.380392 0.325490
0.450980 0.407843 0.345098
0.313725 0.286275 0.243137
0.345098 0.313725 0.266667
0.372549 0.337255 0.286275
0.403922 0.364706 0.309804
0.431373 0.392157 0.333333
0.458824 0.419608 0.356863
0.490196 0.443137 0.376471
0.517647 0.470588 0.400000
0.549020 0.498039 0.423529
0.411765 0.376471 0.317647
0.443137 0.400000 0.341176
0.470588 0.427451 0.364706
0.501961 0.454902 0.388235
0.529412 0.482353 0.407843
0.556863 0.505882 0.431373
0.588235 0.533333 0.454902
0.615686 0.560784 0.478431
0.647059 0.588235 0.498039
0.509804 0.462745 0.392157
0.537255 0.490196 0.415686
0.568627 0.513725 0.439216
0.596078 0.541176 0.458824
0.627451 0.568627 0.482353
0.654902 0.596078 0.505882
0.682353 0.619608 0.529412
0.713725 0.647059 0.549020
0.741176 0.674510 0.572549
0.607843 0.552941 0.470588
0.635294 0.580392 0.490196
0.666667 0.603922 0.513725
0.694118 0.631373 0.537255
0.725490 0.658824 0.560784
0.752941 0.686275 0.580392
0.784314 0.709804 0.603922
0.811765 0.737255 0.627451
0.839216 0.764706 0.650980
0.705882 0.643137 0.545098
0.737255 0.666667 0.568627
0.764706 0.694118 0.592157
0.792157 0.721569 0.611765
0.823529 0.749020 0.635294
0.850980 0.772549 0.658824
0.882353 0.800000 0.682353
0.909804 0.827451 0.701961
0.941176 0.854902 0.725490
0.803922 0.729412 0.619608
0.835294 0.756863 0.643137
0.862745 0.784314 0.666667
0.894118 0.811765 0.690196
0.921569 0.839216 0.713725
0.949020 0.862745 0.733333
0.980392 0.890196 0.756863
1.000000 0.917647 0.780392
1.000000 0.945098 0.803922
0.027451 0.023529 0.019608
0.058824 0.050980 0.043137
0.086275 0.078431 0.066667
0.117647 0.105882 0.090196
0.145098 0.133333 0.113725
0.172549 0.156863 0.133333
0.203922 0.184314 0.156863
0.231373 0.211765 0.180392
0.262745 0.239216 0.200000
0.125490 0.113725 0.098039
0.156863 0.141176 0.121569
0.184314 0.168627 0.141176
0.215686 0.196078 0.164706
0.243137 0.223529 0.188235
0.270588 0.247059 0.211765
0.301961 0.274510 0.231373
0.329412 0.301961 0.254902
0.360784 0.329412 0.278431
0.223529 0.203922 0.172549
0.254902 0.231373 0.196078
0.282353 0.258824 0.219608
0.313725 0.286275 0.243137
0.341176 0.309804 0.262745
0.372549 0.337255 0.286275
0.400000 0.364706 0.309804
0.431373 0.392157 0.333333
0.458824 0.415686 0.352941
0.325490 0.294118 0.250980
0.352941 0.321569 0.274510
0.384314 0.349020 0.294118
0.411765 0.376471 0.317647
0.443137 0.400000 0.341176
0.470588 0.427451 0.360784
0.498039 0.454902 0.384314
0.529412 0.482353 0.407843
0.556863 0.505882 0.431373
0.423529 0.384314 0.325490
0.450980 0.411765 0.349020
0.482353 0.439216 0.372549
0.509804 0.462745 0.396078
0.541176 0.490196 0.415686
0.568627 0.517647 0.439216
0.596078 0.545098 0.462745
0.627451 0.568627 0.486275
0.654902 0.596078 0.505882
0.517647 0.470588 0.400000
0.549020 0.498039 0.423529
0.576471 0.525490 0.447059
0.607843 0.552941 0.466667
0.635294 0.576471 0.490196
0.662745 0.603922 0.513725
0.694118 0.631373 0.537255
0.721569 0.658824 0.556863
0.752941 0.682353 0.580392
0.615686 0.560784 0.478431
0.647059 0.588235 0.498039
0.674510 0.615686 0.521569
0.705882 0.639216 0.545098
0.733333 0.666667 0.568627
0.764706 0.694118 0.588235
0.792157 0.721569 0.611765
0.823529 0.745098 0.635294
0.850980 0.772549 0.658824
0.717647 0.650980 0.552941
0.745098 0.678431 0.576471
0.776471 0.705882 0.600000
0.803922 0.729412 0.619608
0.831373 0.756863 0.643137
0.862745 0.784314 0.666667
0.890196 0.811765 0.686275
0.921569 0.835294 0.709804
0.949020 0.862745 0.733333
0.815686 0.741176 0.627451
0.843137 0.768627 0.650980
0.874510 0.792157 0.674510
0.901961 0.819608 0.698039
0.933333 0.847059 0.721569
0.960784 0.874510 0.741176
0.988235 0.898039 0.764706
1.000000 0.925490 0.788235
1.000000 0.952941 0.807843
0.039216 0.035294 0.027451
0.066667 0.062745 0.050980
0.098039 0.086275 0.074510
0.125490 0.113725 0.098039
0.156863 0.141176 0.117647
0.184314 0.168627 0.141176
0.211765 0.192157 0.164706
0.243137 0.219608 0.188235
0.270588 0.247059 0.207843
0.137255 0.125490 0.105882
0.164706 0.149020 0.129412
0.196078 0.176471 0.149020
0.223529 0.203922 0.172549
0.254902 0.231373 0.196078
0.282353 0.254902 0.219608
0.313725 0.282353 0.239216
0.341176 0.309804 0.262745
0.368627 0.337255 0.286275
0.235294 0.215686 0.180392
0.262745 0.239216 0.203922
0.294118 0.266667 0.227451
0.321569 0.294118 0.250980
0.352941 0.321569 0.270588
0.380392 0.345098 0.294118
0.411765 0.372549 0.317647
0.439216 0.400000 0.341176
0.470588 0.427451 0.360784
0.333333 0.301961 0.258824
0.364706 0.329412 0.278431
0.392157 0.356863 0.301961
0.423529 0.384314 0.325490
0.450980 0.411765 0.349020
0.478431 0.435294 0.368627
0.509804 0.462745 0.392157
0.537255 0.490196 0.415686
0.568627 0.517647 0.439216
0.431373 0.392157 0.333333
0.462745 0.419608 0.356863
0.490196 0.447059 0.380392
0.521569 0.474510 0.403922
0.549020 0.501961 0.423529
0.580392 0.525490 0.447059
0.607843 0.552941 0.470588
0.639216 0.580392 0.490196
0.666667 0.607843 0.513725
0.529412 0.478431 0.407843
0.556863 0.505882 0.431373
0.588235 0.533333 0.454902
0.615686 0.560784 0.474510
0.647059 0.588235 0.498039
0.674510 0.611765 0.521569
0.701961 0.639216 0.545098
0.733333 0.666667 0.564706
0.760784 0.694118 0.588235
0.627451 0.568627 0.482353
0.654902 0.596078 0.505882
0.686275 0.623529 0.529412
0.713725 0.650980 0.552941
0.745098 0.678431 0.576471
0.772549 0.701961 0.596078
0.803922 0.729412 0.619608
0.831373 0.756863 0.643137
0.862745 0.784314 0.666667
0.725490 0.658824 0.560784
0.756863 0.686275 0.584314
0.784314 0.713725 0.603922
0.815686 0.741176 0.627451
0.843137 0.764706 0.650980
0.870588 0.792157 0.674510
0.901961 0.819608 0.694118
0.929412 0.847059 0.717647
0.960784 0.870588 0.741176
0.823529 0.749020 0.635294
0.854902 0.776471 0.658824
0.882353 0.803922 0.682353
0.913725 0.831373 0.705882
0.941176 0.854902 0.729412
0.968627 0.882353 0.749020
1.000000 0.909804 0.772549
1.000000 0.937255 0.796078
1.000000 0.960784 0.815686
0.047059 0.043137 0.035294
0.078431 0.070588 0.058824
0.105882 0.098039 0.082353
0.137255 0.121569 0.105882
0.164706 0.149020 0.125490
0.192157 0.176471 0.149020
0.223529 0.203922 0.172549
0.250980 0.227451 0.196078
0.282353 0.254902 0.215686
0.145098 0.133333 0.113725
0.176471 0.160784 0.133333
0.203922 0.184314 0.156863
0.235294 0.211765 0.180392
0.262745 0.239216 0.203922
0.290196 0.266667 0.223529
0.321569 0.290196 0.247059
0.349020 0.317647 0.270588
0.380392 0.345098 0.294118
0.243137 0.223529 0.188235
0.274510 0.250980 0.211765
0.301961 0.274510 0.235294
0.333333 0.301961 0.258824
0.360784 0.329412 0.278431
0.392157 0.356863 0.301961
0.419608 0.380392 0.325490
0.450980 0.407843 0.345098
0.478431 0.435294 0.368627
0.345098 0.313725 0.266667
0.372549 0.337255 0.286275
0.403922 0.364706 0.309804
0.431373 0.392157 0.333333
0.462745 0.419608 0.356863
0.490196 0.443137 0.376471
0.517647 0.470588 0.400000
0.549020 0.498039 0.423529
0.576471 0.525490 0.447059
0.443137 0.403922 0.341176
0.470588 0.427451 0.364706
0.501961 0.454902 0.388235
0.529412 0.482353 0.407843
0.560784 0.509804 0.431373
0.588235 0.533333 0.454902
0.615686 0.560784 0.478431
0.647059 0.588235 0.498039
0.674510 0.615686 0.521569
0.537255 0.490196 0.415686
0.568627 0.513725 0.439216
0.596078 0.541176 0.458824
0.627451 0.568627 0.482353
0.654902 0.596078 0.505882
0.682353 0.623529 0.529412
0.713725 0.647059 0.549020
0.741176 0.674510 0.572549
0.772549 0.701961 0.596078
0.635294 0.580392 0.490196
0.666667 0.603922 0.513725
0.694118 0.631373 0.537255
0.725490 0.658824 0.560784
0.752941 0.686275 0.584314
0.784314 0.709804 0.603922
0.811765 0.737255 0.627451
0.843137 0.764706 0.650980
0.870588 0.792157 0.670588
0.737255 0.666667 0.568627
0.764706 0.694118 0.592157
0.796078 0.721569 0.611765
0.823529 0.749020 0.635294
0.854902 0.776471 0.658824
0.882353 0.800000 0.682353
0.909804 0.827451 0.701961
0.941176 0.854902 0.725490
0.968627 0.882353 0.749020
0.835294 0.756863 0.643137
0.862745 0.784314 0.666667
0.894118 0.811765 0.690196
0.921569 0.839216 0.713725
0.952941 0.866667 0.733333
0.980392 0.890196 0.756863
1.000000 0.917647 0.780392
1.000000 0.945098 0.803922
1.000000 0.972549 0.823529
0.058824 0.050980 0.043137
0.086275 0.078431 0.066667
0.117647 0.105882 0.090196
0.145098 0.133333 0.113725
0.176471 0.160784 0.133333
0.203922 0.184314 0.156863
0.231373 0.211765 0.180392
0.262745 0.239216 0.203922
0.290196 0.266667 0.223529
0.156863 0.141176 0.121569
0.184314 0.168627 0.141176
0.215686 0.196078 0.164706
0.243137 0.223529 0.188235
0.274510 0.247059 0.211765
0.301961 0.274510 0.231373
0.333333 0.301961 0.254902
0.360784 0.329412 0.278431
0.388235 0.352941 0.301961
0.254902 0.231373 0.196078
0.286275 0.258824 0.219608
0.313725 0.286275 0.243137
0.341176 0.309804 0.262745
0.372549 0.337255 0.286275
0.400000 0.364706 0.309804
0.431373 0.392157 0.333333
0.458824 0.415686 0.352941
0.490196 0.443137 0.376471
0.352941 0.321569 0.274510
0.384314 0.349020 0.294118
0.411765 0.376471 0.317647
0.443137 0.400000 0.341176
0.470588 0.427451 0.364706
0.498039 0.454902 0.384314
0.529412 0.482353 0.407843
0.556863 0.505882 0.431373
0.588235 0.533333 0.454902
0.450980 0.411765 0.349020
0.482353 0.439216 0.372549
0.509804 0.462745 0.396078
0.541176 0.490196 0.415686
0.568627 0.517647 0.439216
0.600000 0.545098 0.462745
0.627451 0.568627 0.486275
0.658824 0.596078 0.505882
0.686275 0.623529 0.529412
0.549020 0.498039 0.423529
0.576471 0.525490 0.447059
0.607843 0.552941 0.466667
0.635294 0.576471 0.490196
0.666667 0.603922 0.513725
0.694118 0.631373 0.537255
0.721569 0.658824 0.556863
0.752941 0.682353 0.580392
0.780392 0.709804 0.603922
0.647059 0.588235 0.498039
0.674510 0.615686 0.521569
0.705882 0.639216 0.545098
0.733333 0.666667 0.568627
0.764706 0.694118 0.588235
0.792157 0.721569 0.611765
0.823529 0.745098 0.635294
0.850980 0.772549 0.658824
0.882353 0.800000 0.678431
0.745098 0.678431 0.576471
0.776471 0.705882 0.600000
0.803922 0.729412 0.619608
0.835294 0.756863 0.643137
0.862745 0.784314 0.666667
0.890196 0.811765 0.690196
0.921569 0.835294 0.709804
0.949020 0.862745 0.733333
0.980392 0.890196 0.756863
0.843137 0.768627 0.650980
0.874510 0.792157 0.674510
0.901961 0.819608 0.698039
0.933333 0.847059 0.721569
0.960784 0.874510 0.741176
0.988235 0.898039 0.764706
1.000000 0.925490 0.788235
1.000000 0.952941 0.811765
1.000000 0.980392 0.831373
0.066667 0.062745 0.050980
0.098039 0.086275 0.074510
0.125490 0.113725 0.098039
0.156863 0.141176 0.121569
0.184314 0.168627 0.141176
0.211765 0.192157 0.164706
0.243137 0.219608 0.188235
0.270588 0.247059 0.207843
0.301961 0.274510 0.231373
0.164706 0.149020 0.129412
0.196078 0.176471 0.149020
0.223529 0.203922 0.172549
0.254902 0.231373 0.196078
0.282353 0.258824 0.219608
0.313725 0.282353 0.239216
0.341176 0.309804 0.262745
0.372549 0.337255 0.286275
0.400000 0.364706 0.309804
0.266667 0.239216 0.203922
0.294118 0.266667 0.227451
0.325490 0.294118 0.250980
0.352941 0.321569 0.270588
0.380392 0.349020 0.294118
0.411765 0.372549 0.317647
0.439216 0.400000 0.341176
0.470588 0.427451 0.360784
0.498039 0.454902 0.384314
0.364706 0.329412 0.282353
0.392157 0.356863 0.301961
0.423529 0.384314 0.325490
0.450980 0.411765 0.349020
0.482353 0.435294 0.372549
0.509804 0.462745 0.392157
0.537255 0.490196 0.415686
0.568627 0.517647 0.439216
0.596078 0.541176 0.462745
0.462745 0.419608 0.356863
0.490196 0.447059 0.380392
0.521569 0.474510 0.403922
0.549020 0.501961 0.423529
0.580392 0.525490 0.447059
0.607843 0.552941 0.470588
0.639216 0.580392 0.494118
0.666667 0.607843 0.513725
0.698039 0.631373 0.537255
0.556863 0.505882 0.431373
0.588235 0.533333 0.454902
0.615686 0.560784 0.474510
0.647059 0.588235 0.498039
0.674510 0.615686 0.521569
0.701961 0.639216 0.545098
0.733333 0.666667 0.564706
0.760784 0.694118 0.588235
0.792157 0.721569 0.611765
0.654902 0.596078 0.505882
0.686275 0.623529 0.529412
0.713725 0.650980 0.552941
0.745098 0.678431 0.576471
0.772549 0.701961 0.596078
0.803922 0.729412 0.619608
0.831373 0.756863 0.643137
0.862745 0.784314 0.666667
0.890196 0.807843 0.686275
0.756863 0.686275 0.584314
0.784314 0.713725 0.607843
0.815686 0.741176 0.627451
0.843137 0.764706 0.650980
0.874510 0.792157 0.674510
0.901961 0.819608 0.694118
0.929412 0.847059 0.717647
0.960784 0.874510 0.741176
0.988235 0.898039 0.764706
0.854902 0.776471 0.658824
0.882353 0.803922 0.682353
0.913725 0.831373 0.705882
0.941176 0.854902 0.729412
0.972549 0.882353 0.749020
1.000000 0.909804 0.772549
1.000000 0.937255 0.796078
1.000000 0.960784 0.819608
1.000000 0.988235 0.839216
0.078431 0.070588 0.058824
0.105882 0.098039 0.082353
0.137255 0.125490 0.105882
0.164706 0.149020 0.125490
0.196078 0.176471 0.149020
0.223529 0.203922 0.172549
0.250980 0.231373 0.196078
0.282353 0.254902 0.215686
0.309804 0.282353 0.239216
0.176471 0.160784 0.137255
0.203922 0.188235 0.156863
0.235294 0.211765 0.180392
0.262745 0.239216 0.203922
0.294118 0.266667 0.227451
0.321569 0.294118 0.247059
0.352941 0.317647 0.270588
0.380392 0.345098 0.294118
0.411765 0.372549 0.317647
0.274510 0.250980 0.211765
0.305882 0.274510 0.235294
0.333333 0.301961 0.258824
0.364706 0.329412 0.278431
0.392157 0.356863 0.301961
0.419608 0.380392 0.325490
0.450980 0.407843 0.349020
0.478431 0.435294 0.368627
0.509804 0.462745 0.392157
0.372549 0.341176 0.290196
0.403922 0.364706 0.309804
0.431373 0.392157 0.333333
0.462745 0.419608 0.356863
0.490196 0.447059 0.380392
0.517647 0.470588 0.400000
0.549020 0.498039 0.423529
0.576471 0.525490 0.447059
0.607843 0.552941 0.470588
0.470588 0.427451 0.364706
0.501961 0.454902 0.388235
0.529412 0.482353 0.411765
0.560784 0.509804 0.431373
0.588235 0.537255 0.454902
0.619608 0.560784 0.478431
0.647059 0.588235 0.498039
0.678431 0.615686 0.521569
0.705882 0.643137 0.545098
0.568627 0.517647 0.439216
0.596078 0.541176 0.462745
0.627451 0.568627 0.482353
0.654902 0.596078 0.505882
0.686275 0.623529 0.529412
0.713725 0.647059 0.552941
0.745098 0.674510 0.572549
0.772549 0.701961 0.596078
0.800000 0.729412 0.619608
0.666667 0.607843 0.513725
0.694118 0.631373 0.537255
0.725490 0.658824 0.560784
0.752941 0.686275 0.584314
0.784314 0.713725 0.603922
0.811765 0.737255 0.627451
0.843137 0.764706 0.650980
0.870588 0.792157 0.674510
0.901961 0.819608 0.694118
0.764706 0.694118 0.592157
0.796078 0.721569 0.611765
0.823529 0.749020 0.635294
0.854902 0.776471 0.658824
0.882353 0.803922 0.682353
0.909804 0.827451 0.701961
0.941176 0.854902 0.725490
0.968627 0.882353 0.749020
1.000000 0.909804 0.772549
0.862745 0.784314 0.666667
0.894118 0.811765 0.690196
0.921569 0.839216 0.713725
0.952941 0.866667 0.737255
0.980392 0.890196 0.756863
1.000000 0.917647 0.780392
1.000000 0.945098 0.803922
1.000000 0.972549 0.823529
1.000000 0.996078 0.847059
