infra/render-server/luts/silvertone.cube
TITLE "Silvertone"
LUT_3D_SIZE 5
DOMAIN_MIN 0.0 0.0 0.0
DOMAIN_MAX 1.0 1.0 1.0
0.000000 0.000000 0.000000
0.054902 0.050980 0.043137
0.113725 0.105882 0.090196
0.172549 0.156863 0.133333
0.231373 0.211765 0.180392
0.196078 0.176471 0.149020
0.254902 0.231373 0.196078
0.313725 0.282353 0.243137
0.372549 0.337255 0.286275
0.427451 0.388235 0.329412
0.392157 0.356863 0.301961
0.450980 0.411765 0.349020
0.509804 0.462745 0.392157
0.568627 0.517647 0.439216
0.627451 0.568627 0.482353
0.588235 0.533333 0.454902
0.647059 0.588235 0.498039
0.705882 0.639216 0.545098
0.760784 0.694118 0.588235
0.819608 0.745098 0.635294
0.784314 0.713725 0.607843
0.843137 0.764706 0.650980
0.901961 0.819608 0.698039
0.960784 0.870588 0.741176
1.000000 0.925490 0.788235
0.019608 0.015686 0.011765
0.078431 0.070588 0.058824
0.137255 0.121569 0.105882
0.192157 0.176471 0.149020
0.250980 0.227451 0.196078
0.215686 0.196078 0.164706
0.274510 0.250980 0.211765
0.333333 0.301961 0.254902
0.392157 0.356863 0.301961
0.450980 0.407843 0.345098
0.411765 0.376471 0.317647
0.470588 0.427451 0.364706
0.529412 0.482353 0.407843
0.588235 0.533333 0.454902
0.647059 0.588235 0.498039
0.607843 0.552941 0.470588
0.666667 0.603922 0.513725
0.725490 0.658824 0.560784
0.784314 0.709804 0.603922
0.839216 0.764706 0.650980
0.803922 0.729412 0.619608
0.862745 0.784314 0.666667
0.921569 0.839216 0.713725
0.980392 0.890196 0.756863
1.000000 0.945098 0.803922
0.039216 0.035294 0.027451
0.098039 0.086275 0.074510
0.156863 0.141176 0.117647
0.211765 0.192157 0.164706
0.270588 0.247059 0.207843
0.235294 0.215686 0.180392
0.294118 0.266667 0.227451
0.352941 0.321569 0.270588
0.411765 0.372549 0.317647
0.470588 0.427451 0.360784
0.431373 0.392157 0.333333
0.490196 0.447059 0.380392
0.549020 0.501961 0.423529
0.607843 0.552941 0.470588
0.666667 0.607843 0.513725
0.627451 0.568627 0.482353
0.686275 0.623529 0.529412
0.745098 0.678431 0.576471
0.803922 0.729412 0.619608
0.862745 0.784314 0.666667
0.823529 0.749020 0.635294
0.882353 0.803922 0.682353
0.941176 0.854902 0.729412
1.000000 0.909804 0.772549
1.000000 0.960784 0.815686
0.058824 0.050980 0.043137
0.117647 0.105882 0.090196
0.176471 0.160784 0.133333
0.231373 0.211765 0.180392
0.290196 0.266667 0.223529
0.254902 0.231373 0.196078
0.313725 0.286275 0.243137
0.372549 0.337255 0.286275
0.431373 0.392157 0.333333
0.490196 0.443137 0.376471
0.450980 0.411765 0.349020
0.509804 0.462745 0.396078
0.568627 0.517647 0.439216
0.627451 0.568627 0.486275
0.686275 0.623529 0.529412
0.647059 0.588235 0.498039
0.705882 0.639216 0.545098
0.764706 0.694118 0.588235
0.823529 0.745098 0.635294
0.882353 0.800000 0.678431
0.843137 0.768627 0.650980
0.901961 0.819608 0.698039
0.960784 0.874510 0.741176
1.000000 0.925490 0.788235
1.000000 0.980392 0.831373
0.078431 0.070588 0.058824
0.137255 0.125490 0.105882
0.196078 0.176471 0.149020
0.250980 0.231373 0.196078
0.309804 0.282353 0.239216
0.274510 0.250980 0.211765
0.333333 0.301961 0.258824
0.392157 0.356863 0.301961
0.450980 0.407843 0.349020
0.509804 0.462745 0.392157
0.470588 0.427451 0.364706
0.529412 0.482353 0.411765
0.588235 0.537255 0.454902
0.647059 0.588235 0.498039
0.705882 0.643137 0.545098
0.666667 0.607843 0.513725
0.725490 0.658824 0.560784
0.784314 0.713725 0.603922
0.843137 0.764706 0.650980
0.901961 0.819608 0.694118
0.862745 0.784314 0.666667
0.921569 0.839216 0.713725
0.980392 0.890196 0.756863
1.000000 0.945098 0.803922
1.000000 0.996078 0.847059
