infra/render-server/luts/vivid-cool.cube
TITLE "Vivid Cool"
LUT_3D_SIZE 5
DOMAIN_MIN 0.0 0.0 0.0
DOMAIN_MAX 1.0 1.0 1.0
0.000000 0.000000 0.000000
0.337255 0.000000 0.000000
0.666667 0.000000 0.000000
0.878431 0.000000 0.000000
0.878431 0.000000 0.000000
0.000000 0.321569 0.000000
0.254902 0.294118 0.000000
0.576471 0.262745 0.000000
0.847059 0.231373 0.000000
0.878431 0.207843 0.000000
0.000000 0.631373 0.000000
0.164706 0.600000 0.000000
0.486275 0.564706 0.000000
0.792157 0.537255 0.000000
0.878431 0.513725 0.000000
0.000000 0.913725 0.000000
0.074510 0.894118 0.000000
0.407843 0.874510 0.000000
0.737255 0.854902 0.000000
0.878431 0.835294 0.000000
0.000000 1.000000 0.000000
0.000000 1.000000 0.000000
0.329412 1.000000 0.000000
0.658824 1.000000 0.000000
0.878431 1.000000 0.000000
0.000000 0.000000 0.439216
0.325490 0.000000 0.407843
0.658824 0.000000 0.376471
0.878431 0.000000 0.349020
0.878431 0.000000 0.317647
0.000000 0.309804 0.333333
0.247059 0.286275 0.309804
0.572549 0.254902 0.274510
0.839216 0.223529 0.239216
0.878431 0.188235 0.203922
0.000000 0.619608 0.227451
0.156863 0.588235 0.196078
0.482353 0.556863 0.160784
0.788235 0.529412 0.129412
0.878431 0.501961 0.094118
0.000000 0.901961 0.117647
0.066667 0.886275 0.086275
0.400000 0.866667 0.050980
0.729412 0.847059 0.023529
0.878431 0.823529 0.000000
0.000000 1.000000 0.007843
0.000000 1.000000 0.000000
0.317647 1.000000 0.000000
0.647059 1.000000 0.000000
0.878431 1.000000 0.000000
0.000000 0.000000 0.878431
0.317647 0.000000 0.843137
0.650980 0.000000 0.811765
0.878431 0.000000 0.784314
0.878431 0.000000 0.749020
0.000000 0.301961 0.764706
0.235294 0.274510 0.737255
0.560784 0.243137 0.701961
0.835294 0.215686 0.670588
0.878431 0.180392 0.635294
0.000000 0.611765 0.658824
0.145098 0.576471 0.623529
0.474510 0.549020 0.592157
0.776471 0.521569 0.564706
0.878431 0.494118 0.533333
0.000000 0.898039 0.552941
0.058824 0.878431 0.525490
0.392157 0.858824 0.490196
0.725490 0.843137 0.458824
0.878431 0.811765 0.431373
0.000000 1.000000 0.450980
0.000000 1.000000 0.419608
0.313725 1.000000 0.392157
0.635294 1.000000 0.356863
0.878431 1.000000 0.329412
0.000000 0.000000 1.000000
0.313725 0.000000 1.000000
0.639216 0.000000 1.000000
0.878431 0.000000 1.000000
0.878431 0.000000 1.000000
0.000000 0.294118 1.000000
0.227451 0.262745 1.000000
0.549020 0.231373 1.000000
0.831373 0.203922 1.000000
0.878431 0.172549 1.000000
0.000000 0.600000 1.000000
0.137255 0.564706 1.000000
0.462745 0.537255 0.992157
0.776471 0.513725 0.968627
0.878431 0.486275 0.949020
0.000000 0.894118 0.964706
0.054902 0.874510 0.941176
0.384314 0.854902 0.921569
0.717647 0.835294 0.898039
0.878431 0.803922 0.866667
0.000000 1.000000 0.886275
0.000000 1.000000 0.850980
0.301961 1.000000 0.819608
0.631373 1.000000 0.788235
0.878431 1.000000 0.752941
0.000000 0.000000 1.000000
0.298039 0.000000 1.000000
0.631373 0.000000 1.000000
0.878431 0.000000 1.000000
0.878431 0.000000 1.000000
0.000000 0.282353 1.000000
0.219608 0.254902 1.000000
0.545098 0.223529 1.000000
0.827451 0.188235 1.000000
0.878431 0.156863 1.000000
0.000000 0.588235 1.000000
0.129412 0.556863 1.000000
0.458824 0.529412 1.000000
0.772549 0.501961 1.000000
0.878431 0.470588 1.000000
0.000000 0.882353 1.000000
0.039216 0.866667 1.000000
0.372549 0.847059 1.000000
0.709804 0.823529 1.000000
0.878431 0.788235 1.000000
0.000000 1.000000 1.000000
0.000000 1.000000 1.000000
0.294118 1.000000 1.000000
0.619608 1.000000 1.000000
0.878431 1.000000 1.000000
