infra/render-server/luts/vivid.cube
TITLE "Vivid"
LUT_3D_SIZE 9
DOMAIN_MIN 0.0 0.0 0.0
DOMAIN_MAX 1.0 1.0 1.0
0.000000 0.000000 0.000000
0.196078 0.000000 0.000000
0.384314 0.000000 0.000000
0.564706 0.000000 0.000000
0.760784 0.000000 0.000000
0.905882 0.000000 0.000000
1.000000 0.000000 0.000000
1.000000 0.000000 0.000000
1.000000 0.000000 0.000000
0.000000 0.156863 0.000000
0.145098 0.145098 0.000000
0.333333 0.129412 0.000000
0.517647 0.113725 0.000000
0.709804 0.098039 0.000000
0.874510 0.082353 0.000000
0.996078 0.070588 0.000000
1.000000 0.054902 0.000000
1.000000 0.039216 0.000000
0.000000 0.317647 0.000000
0.094118 0.301961 0.000000
0.290196 0.290196 0.000000
0.466667 0.274510 0.000000
0.658824 0.258824 0.000000
0.839216 0.247059 0.000000
0.964706 0.227451 0.000000
1.000000 0.215686 0.000000
1.000000 0.203922 0.000000
0.000000 0.462745 0.000000
0.043137 0.450980 0.000000
0.239216 0.435294 0.000000
0.423529 0.423529 0.000000
0.611765 0.411765 0.000000
0.800000 0.396078 0.000000
0.933333 0.384314 0.000000
1.000000 0.368627 0.000000
1.000000 0.356863 0.000000
0.000000 0.619608 0.000000
0.000000 0.603922 0.000000
0.188235 0.588235 0.000000
0.380392 0.576471 0.000000
0.556863 0.556863 0.000000
0.749020 0.545098 0.000000
0.901961 0.529412 0.000000
1.000000 0.517647 0.000000
1.000000 0.505882 0.000000
0.000000 0.776471 0.000000
0.000000 0.760784 0.000000
0.141176 0.745098 0.000000
0.329412 0.729412 0.000000
0.513725 0.717647 0.000000
0.698039 0.698039 0.000000
0.870588 0.686275 0.000000
0.996078 0.670588 0.000000
1.000000 0.654902 0.000000
0.000000 0.898039 0.000000
0.000000 0.886275 0.000000
0.086275 0.878431 0.000000
0.286275 0.866667 0.000000
0.466667 0.858824 0.000000
0.650980 0.847059 0.000000
0.839216 0.839216 0.000000
0.964706 0.827451 0.000000
1.000000 0.819608 0.000000
0.000000 0.996078 0.000000
0.000000 0.988235 0.000000
0.039216 0.976471 0.000000
0.239216 0.968627 0.000000
0.419608 0.960784 0.000000
0.600000 0.949020 0.000000
0.796078 0.941176 0.000000
0.933333 0.933333 0.000000
1.000000 0.921569 0.000000
0.000000 1.000000 0.000000
0.000000 1.000000 0.000000
0.000000 1.000000 0.000000
0.184314 1.000000 0.000000
0.376471 1.000000 0.000000
0.549020 1.000000 0.000000
0.749020 1.000000 0.000000
0.898039 1.000000 0.000000
1.000000 1.000000 0.000000
0.000000 0.000000 0.203922
0.188235 0.000000 0.188235
0.380392 0.000000 0.176471
0.556863 0.000000 0.156863
0.756863 0.000000 0.145098
0.901961 0.000000 0.129412
1.000000 0.000000 0.113725
1.000000 0.000000 0.101961
1.000000 0.000000 0.082353
0.000000 0.152941 0.152941
0.141176 0.141176 0.141176
0.329412 0.125490 0.125490
0.513725 0.109804 0.109804
0.705882 0.094118 0.094118
0.866667 0.078431 0.078431
0.996078 0.066667 0.066667
1.000000 0.047059 0.047059
1.000000 0.035294 0.035294
0.000000 0.309804 0.101961
0.086275 0.298039 0.086275
0.286275 0.286275 0.074510
0.462745 0.270588 0.058824
0.654902 0.254902 0.043137
0.839216 0.243137 0.031373
0.964706 0.223529 0.011765
1.000000 0.211765 0.000000
1.000000 0.196078 0.000000
0.000000 0.458824 0.054902
0.039216 0.447059 0.039216
0.235294 0.431373 0.023529
0.419608 0.419608 0.007843
0.603922 0.403922 0.000000
0.796078 0.392157 0.000000
0.929412 0.380392 0.000000
1.000000 0.364706 0.000000
1.000000 0.352941 0.000000
0.000000 0.615686 0.003922
0.000000 0.600000 0.000000
0.184314 0.584314 0.000000
0.372549 0.568627 0.000000
0.552941 0.552941 0.000000
0.745098 0.541176 0.000000
0.898039 0.525490 0.000000
1.000000 0.513725 0.000000
1.000000 0.498039 0.000000
0.000000 0.768627 0.000000
0.000000 0.756863 0.000000
0.137255 0.741176 0.000000
0.325490 0.725490 0.000000
0.509804 0.709804 0.000000
0.694118 0.694118 0.000000
0.866667 0.682353 0.000000
0.992157 0.666667 0.000000
1.000000 0.650980 0.000000
0.000000 0.894118 0.000000
0.000000 0.882353 0.000000
0.082353 0.874510 0.000000
0.282353 0.862745 0.000000
0.458824 0.854902 0.000000
0.647059 0.847059 0.000000
0.835294 0.835294 0.000000
0.960784 0.827451 0.000000
1.000000 0.811765 0.000000
0.000000 0.996078 0.000000
0.000000 0.984314 0.000000
0.035294 0.976471 0.000000
0.227451 0.964706 0.000000
0.415686 0.956863 0.000000
0.596078 0.945098 0.000000
0.792157 0.937255 0.000000
0.925490 0.925490 0.000000
1.000000 0.917647 0.000000
0.000000 1.000000 0.000000
0.000000 1.000000 0.000000
0.000000 1.000000 0.000000
0.180392 1.000000 0.000000
0.372549 1.000000 0.000000
0.545098 1.000000 0.000000
0.741176 1.000000 0.000000
0.898039 1.000000 0.000000
1.000000 1.000000 0.000000
0.000000 0.000000 0.400000
0.184314 0.000000 0.388235
0.372549 0.000000 0.372549
0.552941 0.000000 0.360784
0.752941 0.000000 0.345098
0.898039 0.000000 0.329412
1.000000 0.000000 0.317647
1.000000 0.000000 0.301961
1.000000 0.000000 0.290196
0.000000 0.149020 0.356863
0.133333 0.133333 0.337255
0.325490 0.117647 0.325490
0.509804 0.105882 0.313725
0.698039 0.086275 0.298039
0.866667 0.074510 0.286275
0.992157 0.058824 0.270588
1.000000 0.043137 0.254902
1.000000 0.031373 0.243137
0.000000 0.305882 0.305882
0.082353 0.294118 0.294118
0.282353 0.282353 0.282353
0.458824 0.266667 0.266667
0.650980 0.250980 0.250980
0.835294 0.235294 0.235294
0.956863 0.219608 0.219608
1.000000 0.207843 0.207843
1.000000 0.188235 0.188235
0.000000 0.454902 0.258824
0.031373 0.439216 0.243137
0.227451 0.427451 0.227451
0.415686 0.415686 0.215686
0.600000 0.400000 0.200000
0.788235 0.388235 0.184314
0.925490 0.376471 0.172549
1.000000 0.360784 0.152941
1.000000 0.345098 0.141176
0.000000 0.607843 0.207843
0.000000 0.596078 0.196078
0.180392 0.580392 0.180392
0.368627 0.564706 0.164706
0.549020 0.549020 0.149020
0.741176 0.537255 0.137255
0.898039 0.521569 0.117647
1.000000 0.509804 0.105882
1.000000 0.494118 0.086275
0.000000 0.764706 0.156863
0.000000 0.749020 0.145098
0.133333 0.737255 0.133333
0.321569 0.721569 0.113725
0.505882 0.705882 0.101961
0.690196 0.690196 0.082353
0.866667 0.678431 0.070588
0.988235 0.658824 0.058824
1.000000 0.647059 0.039216
0.000000 0.886275 0.109804
0.000000 0.878431 0.094118
0.078431 0.870588 0.078431
0.278431 0.858824 0.066667
0.454902 0.850980 0.047059
0.639216 0.839216 0.035294
0.831373 0.831373 0.023529
0.956863 0.823529 0.003922
1.000000 0.807843 0.000000
0.000000 0.992157 0.058824
0.000000 0.984314 0.043137
0.031373 0.972549 0.031373
0.223529 0.964706 0.011765
0.411765 0.952941 0.000000
0.588235 0.945098 0.000000
0.788235 0.937255 0.000000
0.925490 0.925490 0.000000
1.000000 0.917647 0.000000
0.000000 1.000000 0.007843
0.000000 1.000000 0.000000
0.000000 1.000000 0.000000
0.176471 1.000000 0.000000
0.364706 1.000000 0.000000
0.541176 1.000000 0.000000
0.737255 1.000000 0.000000
0.894118 1.000000 0.000000
1.000000 1.000000 0.000000
0.000000 0.000000 0.596078
0.180392 0.000000 0.580392
0.368627 0.000000 0.564706
0.549020 0.000000 0.549020
0.745098 0.000000 0.533333
0.898039 0.000000 0.521569
1.000000 0.000000 0.509804
1.000000 0.000000 0.494118
1.000000 0.000000 0.482353
0.000000 0.145098 0.545098
0.129412 0.129412 0.529412
0.321569 0.113725 0.517647
0.501961 0.098039 0.501961
0.694118 0.082353 0.490196
0.862745 0.070588 0.478431
0.988235 0.054902 0.458824
1.000000 0.039216 0.447059
1.000000 0.023529 0.431373
0.000000 0.301961 0.498039
0.078431 0.290196 0.486275
0.274510 0.274510 0.466667
0.454902 0.258824 0.454902
0.647059 0.247059 0.443137
0.831373 0.227451 0.427451
0.956863 0.215686 0.415686
1.000000 0.200000 0.400000
1.000000 0.184314 0.388235
0.000000 0.450980 0.450980
0.027451 0.435294 0.435294
0.223529 0.423529 0.423529
0.411765 0.411765 0.411765
0.596078 0.396078 0.396078
0.784314 0.384314 0.384314
0.925490 0.368627 0.368627
1.000000 0.356863 0.356863
1.000000 0.341176 0.341176
0.000000 0.603922 0.403922
0.000000 0.588235 0.392157
0.172549 0.572549 0.376471
0.364706 0.556863 0.364706
0.545098 0.545098 0.352941
0.737255 0.529412 0.333333
0.890196 0.517647 0.321569
1.000000 0.505882 0.309804
1.000000 0.490196 0.294118
0.000000 0.760784 0.360784
0.000000 0.745098 0.345098
0.125490 0.729412 0.329412
0.317647 0.713725 0.317647
0.501961 0.698039 0.305882
0.686275 0.686275 0.290196
0.858824 0.670588 0.278431
0.984314 0.654902 0.258824
1.000000 0.643137 0.247059
0.000000 0.886275 0.313725
0.000000 0.878431 0.298039
0.074510 0.866667 0.286275
0.274510 0.858824 0.274510
0.450980 0.847059 0.254902
0.635294 0.839216 0.243137
0.827451 0.827451 0.223529
0.956863 0.819608 0.211765
1.000000 0.800000 0.200000
0.000000 0.988235 0.266667
0.000000 0.976471 0.250980
0.023529 0.968627 0.235294
0.219608 0.960784 0.219608
0.407843 0.949020 0.207843
0.584314 0.941176 0.188235
0.780392 0.929412 0.176471
0.921569 0.921569 0.164706
1.000000 0.913725 0.145098
0.000000 1.000000 0.215686
0.000000 1.000000 0.200000
0.000000 1.000000 0.184314
0.172549 1.000000 0.172549
0.360784 1.000000 0.152941
0.533333 1.000000 0.141176
0.729412 1.000000 0.129412
0.890196 1.000000 0.109804
1.000000 1.000000 0.098039
0.000000 0.000000 0.800000
0.172549 0.000000 0.784314
0.364706 0.000000 0.768627
0.545098 0.000000 0.756863
0.741176 0.000000 0.741176
0.890196 0.000000 0.725490
1.000000 0.000000 0.713725
1.000000 0.000000 0.694118
1.000000 0.000000 0.682353
0.000000 0.137255 0.749020
0.125490 0.125490 0.737255
0.317647 0.109804 0.721569
0.498039 0.094118 0.705882
0.690196 0.078431 0.690196
0.858824 0.066667 0.678431
0.984314 0.047059 0.658824
1.000000 0.035294 0.647059
1.000000 0.015686 0.627451
0.000000 0.298039 0.698039
0.074510 0.286275 0.686275
0.270588 0.270588 0.670588
0.450980 0.254902 0.654902
0.639216 0.239216 0.639216
0.827451 0.223529 0.623529
0.952941 0.211765 0.611765
1.000000 0.196078 0.596078
1.000000 0.180392 0.580392
0.000000 0.447059 0.650980
0.023529 0.431373 0.635294
0.219608 0.419608 0.619608
0.403922 0.403922 0.603922
0.588235 0.392157 0.588235
0.780392 0.380392 0.576471
0.921569 0.364706 0.556863
1.000000 0.352941 0.545098
1.000000 0.333333 0.529412
0.000000 0.600000 0.600000
0.000000 0.584314 0.584314
0.168627 0.568627 0.568627
0.360784 0.552941 0.552941
0.541176 0.541176 0.541176
0.729412 0.525490 0.525490
0.886275 0.513725 0.513725
1.000000 0.498039 0.498039
1.000000 0.486275 0.486275
0.000000 0.756863 0.549020
0.000000 0.741176 0.537255
0.117647 0.725490 0.521569
0.313725 0.709804 0.509804
0.494118 0.694118 0.494118
0.682353 0.682353 0.482353
0.858824 0.666667 0.466667
0.984314 0.650980 0.450980
1.000000 0.635294 0.439216
0.000000 0.882353 0.505882
0.000000 0.874510 0.490196
0.070588 0.862745 0.478431
0.266667 0.854902 0.458824
0.447059 0.843137 0.447059
0.627451 0.835294 0.435294
0.827451 0.827451 0.419608
0.949020 0.811765 0.407843
1.000000 0.796078 0.392157
0.000000 0.984314 0.454902
0.000000 0.976471 0.443137
0.015686 0.964706 0.427451
0.215686 0.956863 0.415686
0.403922 0.945098 0.403922
0.580392 0.937255 0.388235
0.776471 0.925490 0.376471
0.917647 0.917647 0.360784
1.000000 0.909804 0.345098
0.000000 1.000000 0.411765
0.000000 1.000000 0.396078
0.000000 1.000000 0.384314
0.164706 1.000000 0.368627
0.356863 1.000000 0.356863
0.529412 1.000000 0.341176
0.725490 1.000000 0.325490
0.886275 1.000000 0.313725
1.000000 1.000000 0.301961
0.000000 0.000000 0.937255
0.168627 0.000000 0.925490
0.360784 0.000000 0.917647
0.541176 0.000000 0.905882
0.737255 0.000000 0.898039
0.886275 0.000000 0.886275
1.000000 0.000000 0.878431
1.000000 0.000000 0.870588
1.000000 0.000000 0.858824
0.000000 0.133333 0.905882
0.117647 0.117647 0.894118
0.313725 0.105882 0.886275
0.494118 0.086275 0.878431
0.686275 0.074510 0.866667
0.858824 0.058824 0.858824
0.984314 0.043137 0.847059
1.000000 0.031373 0.839216
1.000000 0.011765 0.827451
0.000000 0.294118 0.870588
0.066667 0.278431 0.862745
0.266667 0.266667 0.854902
0.447059 0.250980 0.843137
0.635294 0.235294 0.835294
0.823529 0.219608 0.823529
0.949020 0.207843 0.811765
1.000000 0.188235 0.796078
1.000000 0.176471 0.780392
0.000000 0.439216 0.839216
0.015686 0.427451 0.831373
0.215686 0.415686 0.819608
0.400000 0.400000 0.807843
0.584314 0.388235 0.788235
0.776471 0.376471 0.776471
0.917647 0.360784 0.760784
1.000000 0.345098 0.745098
1.000000 0.329412 0.729412
0.000000 0.596078 0.796078
0.000000 0.580392 0.784314
0.164706 0.564706 0.768627
0.356863 0.549020 0.752941
0.533333 0.533333 0.741176
0.725490 0.521569 0.725490
0.886275 0.509804 0.709804
1.000000 0.494118 0.694118
1.000000 0.482353 0.678431
0.000000 0.749020 0.749020
0.000000 0.737255 0.737255
0.113725 0.721569 0.721569
0.309804 0.705882 0.705882
0.490196 0.690196 0.690196
0.678431 0.678431 0.678431
0.854902 0.658824 0.658824
0.980392 0.647059 0.647059
1.000000 0.627451 0.627451
0.000000 0.878431 0.698039
0.000000 0.870588 0.686275
0.066667 0.858824 0.670588
0.258824 0.850980 0.654902
0.443137 0.839216 0.639216
0.623529 0.831373 0.623529
0.823529 0.823529 0.611765
0.945098 0.807843 0.596078
1.000000 0.792157 0.580392
0.000000 0.984314 0.650980
0.000000 0.972549 0.635294
0.011765 0.964706 0.619608
0.211765 0.952941 0.603922
0.396078 0.945098 0.588235
0.576471 0.937255 0.576471
0.768627 0.925490 0.556863
0.917647 0.917647 0.545098
1.000000 0.905882 0.529412
0.000000 1.000000 0.600000
0.000000 1.000000 0.584314
0.000000 1.000000 0.568627
0.156863 1.000000 0.552941
0.352941 1.000000 0.537255
0.525490 1.000000 0.525490
0.721569 1.000000 0.513725
0.882353 1.000000 0.498039
1.000000 1.000000 0.486275
0.000000 0.000000 1.000000
0.164706 0.000000 1.000000
0.356863 0.000000 1.000000
0.533333 0.000000 1.000000
0.729412 0.000000 1.000000
0.886275 0.000000 1.000000
1.000000 0.000000 1.000000
1.000000 0.000000 1.000000
1.000000 0.000000 0.992157
0.000000 0.129412 1.000000
0.113725 0.113725 1.000000
0.305882 0.098039 1.000000
0.490196 0.082353 1.000000
0.682353 0.070588 0.996078
0.854902 0.054902 0.988235
0.976471 0.039216 0.976471
1.000000 0.023529 0.968627
1.000000 0.007843 0.960784
0.000000 0.290196 1.000000
0.062745 0.274510 0.996078
0.258824 0.258824 0.984314
0.443137 0.247059 0.976471
0.627451 0.227451 0.964706
0.819608 0.215686 0.956863
0.945098 0.200000 0.945098
1.000000 0.184314 0.937255
1.000000 0.172549 0.925490
0.000000 0.435294 0.972549
0.011765 0.423529 0.960784
0.207843 0.407843 0.952941
0.396078 0.396078 0.945098
0.580392 0.384314 0.933333
0.768627 0.368627 0.925490
0.913725 0.356863 0.913725
1.000000 0.341176 0.905882
1.000000 0.325490 0.898039
0.000000 0.588235 0.937255
0.000000 0.572549 0.929412
0.156863 0.556863 0.921569
0.352941 0.545098 0.909804
0.529412 0.529412 0.901961
0.717647 0.517647 0.890196
0.882353 0.505882 0.882353
1.000000 0.490196 0.874510
1.000000 0.478431 0.862745
0.000000 0.745098 0.905882
0.000000 0.729412 0.898039
0.109804 0.713725 0.886275
0.305882 0.698039 0.878431
0.486275 0.686275 0.870588
0.670588 0.670588 0.858824
0.850980 0.654902 0.850980
0.976471 0.643137 0.843137
1.000000 0.623529 0.831373
0.000000 0.878431 0.878431
0.000000 0.866667 0.866667
0.062745 0.858824 0.858824
0.254902 0.847059 0.847059
0.439216 0.839216 0.839216
0.619608 0.827451 0.827451
0.819608 0.819608 0.819608
0.945098 0.800000 0.800000
1.000000 0.788235 0.788235
0.000000 0.976471 0.843137
0.000000 0.968627 0.835294
0.007843 0.960784 0.827451
0.207843 0.949020 0.811765
0.392157 0.941176 0.796078
0.568627 0.929412 0.780392
0.764706 0.921569 0.764706
0.913725 0.913725 0.752941
1.000000 0.901961 0.737255
0.000000 1.000000 0.807843
0.000000 1.000000 0.792157
0.000000 1.000000 0.776471
0.152941 1.000000 0.760784
0.345098 1.000000 0.745098
0.521569 1.000000 0.729412
0.717647 1.000000 0.717647
0.878431 1.000000 0.698039
1.000000 1.000000 0.686275
0.000000 0.000000 1.000000
0.156863 0.000000 1.000000
0.352941 0.000000 1.000000
0.529412 0.000000 1.000000
0.725490 0.000000 1.000000
0.882353 0.000000 1.000000
1.000000 0.000000 1.000000
1.000000 0.000000 1.000000
1.000000 0.000000 1.000000
0.000000 0.125490 1.000000
0.109804 0.109804 1.000000
0.301961 0.094118 1.000000
0.486275 0.078431 1.000000
0.674510 0.062745 1.000000
0.850980 0.047059 1.000000
0.976471 0.035294 1.000000
1.000000 0.015686 1.000000
1.000000 0.003922 1.000000
0.000000 0.286275 1.000000
0.058824 0.270588 1.000000
0.254902 0.254902 1.000000
0.435294 0.239216 1.000000
0.623529 0.223529 1.000000
0.815686 0.211765 1.000000
0.945098 0.196078 1.000000
1.000000 0.180392 1.000000
1.000000 0.164706 1.000000
0.000000 0.431373 1.000000
0.007843 0.419608 1.000000
0.203922 0.403922 1.000000
0.392157 0.392157 1.000000
0.576471 0.380392 1.000000
0.764706 0.364706 1.000000
0.909804 0.352941 1.000000
1.000000 0.333333 1.000000
1.000000 0.321569 1.000000
0.000000 0.584314 1.000000
0.000000 0.568627 1.000000
0.152941 0.552941 1.000000
0.341176 0.537255 1.000000
0.525490 0.525490 1.000000
0.713725 0.513725 1.000000
0.878431 0.498039 1.000000
1.000000 0.486275 1.000000
1.000000 0.470588 0.996078
0.000000 0.741176 1.000000
0.000000 0.725490 1.000000
0.105882 0.709804 1.000000
0.298039 0.694118 1.000000
0.482353 0.678431 1.000000
0.666667 0.666667 0.992157
0.847059 0.650980 0.984314
0.972549 0.635294 0.972549
1.000000 0.619608 0.964706
0.000000 0.874510 1.000000
0.000000 0.862745 0.996078
0.054902 0.854902 0.988235
0.250980 0.843137 0.976471
0.435294 0.835294 0.968627
0.615686 0.827451 0.960784
0.811765 0.811765 0.949020
0.941176 0.796078 0.941176
1.000000 0.784314 0.933333
0.000000 0.976471 0.976471
0.000000 0.964706 0.964706
0.003922 0.956863 0.956863
0.203922 0.945098 0.945098
0.388235 0.937255 0.937255
0.564706 0.925490 0.925490
0.760784 0.917647 0.917647
0.909804 0.909804 0.909804
1.000000 0.898039 0.898039
0.000000 1.000000 0.945098
0.000000 1.000000 0.933333
0.000000 1.000000 0.925490
0.149020 1.000000 0.917647
0.341176 1.000000 0.905882
0.517647 1.000000 0.898039
0.709804 1.000000 0.886275
0.878431 1.000000 0.878431
1.000000 1.000000 0.866667
0.000000 0.000000 1.000000
0.152941 0.000000 1.000000
0.341176 0.000000 1.000000
0.525490 0.000000 1.000000
0.721569 0.000000 1.000000
0.878431 0.000000 1.000000
1.000000 0.000000 1.000000
1.000000 0.000000 1.000000
1.000000 0.000000 1.000000
0.000000 0.117647 1.000000
0.101961 0.101961 1.000000
0.298039 0.086275 1.000000
0.482353 0.074510 1.000000
0.670588 0.058824 1.000000
0.847059 0.043137 1.000000
0.972549 0.031373 1.000000
1.000000 0.011765 1.000000
1.000000 0.000000 1.000000
0.000000 0.278431 1.000000
0.054902 0.266667 1.000000
0.250980 0.250980 1.000000
0.431373 0.235294 1.000000
0.619608 0.219608 1.000000
0.811765 0.207843 1.000000
0.941176 0.188235 1.000000
1.000000 0.176471 1.000000
1.000000 0.156863 1.000000
0.000000 0.427451 1.000000
0.003922 0.415686 1.000000
0.200000 0.400000 1.000000
0.388235 0.388235 1.000000
0.568627 0.372549 1.000000
0.760784 0.360784 1.000000
0.905882 0.345098 1.000000
1.000000 0.329412 1.000000
1.000000 0.317647 1.000000
0.000000 0.580392 1.000000
0.000000 0.564706 1.000000
0.149020 0.549020 1.000000
0.337255 0.533333 1.000000
0.521569 0.521569 1.000000
0.709804 0.509804 1.000000
0.878431 0.494118 1.000000
1.000000 0.482353 1.000000
1.000000 0.462745 1.000000
0.000000 0.737255 1.000000
0.000000 0.721569 1.000000
0.101961 0.705882 1.000000
0.294118 0.690196 1.000000
0.478431 0.674510 1.000000
0.658824 0.658824 1.000000
0.847059 0.647059 1.000000
0.968627 0.627451 1.000000
1.000000 0.615686 1.000000
0.000000 0.866667 1.000000
0.000000 0.858824 1.000000
0.047059 0.850980 1.000000
0.247059 0.839216 1.000000
0.427451 0.831373 1.000000
0.611765 0.823529 1.000000
0.807843 0.807843 1.000000
0.937255 0.792157 1.000000
1.000000 0.776471 1.000000
0.000000 0.972549 1.000000
0.000000 0.964706 1.000000
0.000000 0.952941 1.000000
0.196078 0.945098 1.000000
0.384314 0.933333 1.000000
0.556863 0.925490 1.000000
0.756863 0.917647 1.000000
0.905882 0.905882 1.000000
1.000000 0.898039 1.000000
0.000000 1.000000 1.000000
0.000000 1.000000 1.000000
0.000000 1.000000 1.000000
0.145098 1.000000 1.000000
0.337255 1.000000 1.000000
0.513725 1.000000 1.000000
0.705882 1.000000 1.000000
0.874510 1.000000 1.000000
1.000000 1.000000 1.000000
