infra/render-server/luts/vivid-warm.cube
TITLE "Vivid Warm"
LUT_3D_SIZE 5
DOMAIN_MIN 0.0 0.0 0.0
DOMAIN_MAX 1.0 1.0 1.0
0.000000 0.000000 0.000000
0.411765 0.000000 0.000000
0.819608 0.000000 0.000000
1.000000 0.000000 0.000000
1.000000 0.000000 0.000000
0.000000 0.321569 0.000000
0.309804 0.294118 0.000000
0.709804 0.262745 0.000000
1.000000 0.231373 0.000000
1.000000 0.207843 0.000000
0.000000 0.631373 0.000000
0.200000 0.600000 0.000000
0.600000 0.564706 0.000000
0.972549 0.537255 0.000000
1.000000 0.513725 0.000000
0.000000 0.913725 0.000000
0.090196 0.894118 0.000000
0.501961 0.874510 0.000000
0.905882 0.854902 0.000000
1.000000 0.835294 0.000000
0.000000 1.000000 0.000000
0.000000 1.000000 0.000000
0.403922 1.000000 0.000000
0.807843 1.000000 0.000000
1.000000 1.000000 0.000000
0.000000 0.000000 0.349020
0.400000 0.000000 0.325490
0.811765 0.000000 0.301961
1.000000 0.000000 0.278431
1.000000 0.000000 0.254902
0.000000 0.309804 0.266667
0.301961 0.286275 0.247059
0.701961 0.254902 0.219608
1.000000 0.223529 0.192157
1.000000 0.188235 0.164706
0.000000 0.619608 0.180392
0.192157 0.588235 0.156863
0.592157 0.556863 0.129412
0.968627 0.529412 0.101961
1.000000 0.501961 0.074510
0.000000 0.901961 0.094118
0.082353 0.886275 0.066667
0.490196 0.866667 0.039216
0.894118 0.847059 0.019608
1.000000 0.823529 0.000000
0.000000 1.000000 0.003922
0.000000 1.000000 0.000000
0.392157 1.000000 0.000000
0.796078 1.000000 0.000000
1.000000 1.000000 0.000000
0.000000 0.000000 0.701961
0.392157 0.000000 0.674510
0.800000 0.000000 0.650980
1.000000 0.000000 0.627451
1.000000 0.000000 0.600000
0.000000 0.301961 0.611765
0.290196 0.274510 0.588235
0.690196 0.243137 0.560784
1.000000 0.215686 0.537255
1.000000 0.180392 0.509804
0.000000 0.611765 0.525490
0.180392 0.576471 0.498039
0.584314 0.549020 0.474510
0.956863 0.521569 0.450980
1.000000 0.494118 0.427451
0.000000 0.898039 0.443137
0.074510 0.878431 0.419608
0.482353 0.858824 0.392157
0.890196 0.843137 0.368627
1.000000 0.811765 0.345098
0.000000 1.000000 0.360784
0.000000 1.000000 0.337255
0.384314 1.000000 0.313725
0.780392 1.000000 0.286275
1.000000 1.000000 0.262745
0.000000 0.000000 0.878431
0.384314 0.000000 0.878431
0.784314 0.000000 0.878431
1.000000 0.000000 0.878431
1.000000 0.000000 0.870588
0.000000 0.294118 0.878431
0.278431 0.262745 0.862745
0.674510 0.231373 0.847059
1.000000 0.203922 0.831373
1.000000 0.172549 0.811765
0.000000 0.600000 0.823529
0.168627 0.564706 0.807843
0.568627 0.537255 0.792157
0.952941 0.513725 0.776471
1.000000 0.486275 0.756863
0.000000 0.894118 0.772549
0.066667 0.874510 0.752941
0.470588 0.854902 0.737255
0.882353 0.835294 0.717647
1.000000 0.803922 0.690196
0.000000 1.000000 0.709804
0.000000 1.000000 0.682353
0.372549 1.000000 0.654902
0.772549 1.000000 0.631373
1.000000 1.000000 0.603922
0.000000 0.000000 0.878431
0.364706 0.000000 0.878431
0.776471 0.000000 0.878431
1.000000 0.000000 0.878431
1.000000 0.000000 0.878431
0.000000 0.282353 0.878431
0.270588 0.254902 0.878431
0.666667 0.223529 0.878431
1.000000 0.188235 0.878431
1.000000 0.156863 0.878431
0.000000 0.588235 0.878431
0.160784 0.556863 0.878431
0.560784 0.529412 0.878431
0.945098 0.501961 0.878431
1.000000 0.470588 0.878431
0.000000 0.882353 0.878431
0.047059 0.866667 0.878431
0.458824 0.847059 0.878431
0.870588 0.823529 0.878431
1.000000 0.788235 0.878431
0.000000 1.000000 0.878431
0.000000 1.000000 0.878431
0.360784 1.000000 0.878431
0.760784 1.000000 0.878431
1.000000 1.000000 0.878431
