infra/render-server/luts/vivid-cool.cube
TITLE "Vivid Cool"
LUT_3D_SIZE 9
DOMAIN_MIN 0.0 0.0 0.0
DOMAIN_MAX 1.0 1.0 1.0
0.000000 0.000000 0.000000
0.172549 0.000000 0.000000
0.337255 0.000000 0.000000
0.494118 0.000000 0.000000
0.666667 0.000000 0.000000
0.796078 0.000000 0.000000
0.878431 0.000000 0.000000
0.878431 0.000000 0.000000
0.878431 0.000000 0.000000
0.000000 0.156863 0.000000
0.125490 0.145098 0.000000
0.290196 0.129412 0.000000
0.454902 0.113725 0.000000
0.623529 0.098039 0.000000
0.768627 0.082353 0.000000
0.874510 0.070588 0.000000
0.878431 0.054902 0.000000
0.878431 0.039216 0.000000
0.000000 0.321569 0.000000
0.082353 0.305882 0.000000
0.254902 0.294118 0.000000
0.407843 0.278431 0.000000
0.576471 0.262745 0.000000
0.737255 0.250980 0.000000
0.847059 0.231373 0.000000
0.878431 0.219608 0.000000
0.878431 0.207843 0.000000
0.000000 0.470588 0.000000
0.035294 0.458824 0.000000
0.207843 0.443137 0.000000
0.372549 0.431373 0.000000
0.537255 0.419608 0.000000
0.701961 0.403922 0.000000
0.819608 0.388235 0.000000
0.878431 0.372549 0.000000
0.878431 0.360784 0.000000
0.000000 0.631373 0.000000
0.000000 0.615686 0.000000
0.164706 0.600000 0.000000
0.333333 0.584314 0.000000
0.486275 0.564706 0.000000
0.658824 0.552941 0.000000
0.792157 0.537255 0.000000
0.878431 0.525490 0.000000
0.878431 0.513725 0.000000
0.000000 0.788235 0.000000
0.000000 0.772549 0.000000
0.121569 0.756863 0.000000
0.286275 0.741176 0.000000
0.450980 0.729412 0.000000
0.611765 0.709804 0.000000
0.764706 0.698039 0.000000
0.874510 0.682353 0.000000
0.878431 0.666667 0.000000
0.000000 0.913725 0.000000
0.000000 0.901961 0.000000
0.074510 0.894118 0.000000
0.250980 0.882353 0.000000
0.407843 0.874510 0.000000
0.572549 0.862745 0.000000
0.737255 0.854902 0.000000
0.847059 0.843137 0.000000
0.878431 0.835294 0.000000
0.000000 1.000000 0.000000
0.000000 1.000000 0.000000
0.031373 0.992157 0.000000
0.207843 0.984314 0.000000
0.368627 0.976471 0.000000
0.525490 0.964706 0.000000
0.698039 0.956863 0.000000
0.819608 0.949020 0.000000
0.878431 0.937255 0.000000
0.000000 1.000000 0.000000
0.000000 1.000000 0.000000
0.000000 1.000000 0.000000
0.160784 1.000000 0.000000
0.329412 1.000000 0.000000
0.482353 1.000000 0.000000
0.658824 1.000000 0.000000
0.788235 1.000000 0.000000
0.878431 1.000000 0.000000
0.000000 0.000000 0.223529
0.164706 0.000000 0.203922
0.333333 0.000000 0.192157
0.486275 0.000000 0.172549
0.662745 0.000000 0.156863
0.792157 0.000000 0.141176
0.878431 0.000000 0.121569
0.878431 0.000000 0.109804
0.878431 0.000000 0.090196
0.000000 0.152941 0.164706
0.121569 0.141176 0.152941
0.286275 0.125490 0.137255
0.450980 0.109804 0.117647
0.619608 0.094118 0.101961
0.760784 0.078431 0.086275
0.874510 0.066667 0.070588
0.878431 0.047059 0.050980
0.878431 0.035294 0.035294
0.000000 0.313725 0.109804
0.074510 0.301961 0.094118
0.250980 0.290196 0.078431
0.403922 0.274510 0.062745
0.572549 0.258824 0.047059
0.737255 0.247059 0.031373
0.847059 0.227451 0.011765
0.878431 0.215686 0.000000
0.878431 0.200000 0.000000
0.000000 0.466667 0.058824
0.031373 0.454902 0.043137
0.203922 0.439216 0.023529
0.368627 0.427451 0.007843
0.529412 0.411765 0.000000
0.698039 0.400000 0.000000
0.815686 0.384314 0.000000
0.878431 0.368627 0.000000
0.878431 0.356863 0.000000
0.000000 0.627451 0.003922
0.000000 0.611765 0.000000
0.160784 0.592157 0.000000
0.325490 0.576471 0.000000
0.486275 0.560784 0.000000
0.654902 0.549020 0.000000
0.788235 0.533333 0.000000
0.878431 0.521569 0.000000
0.878431 0.505882 0.000000
0.000000 0.780392 0.000000
0.000000 0.768627 0.000000
0.117647 0.752941 0.000000
0.286275 0.737255 0.000000
0.447059 0.721569 0.000000
0.607843 0.705882 0.000000
0.760784 0.694118 0.000000
0.870588 0.678431 0.000000
0.878431 0.662745 0.000000
0.000000 0.909804 0.000000
0.000000 0.898039 0.000000
0.070588 0.890196 0.000000
0.247059 0.878431 0.000000
0.400000 0.870588 0.000000
0.568627 0.862745 0.000000
0.733333 0.850980 0.000000
0.843137 0.843137 0.000000
0.878431 0.827451 0.000000
0.000000 1.000000 0.000000
0.000000 1.000000 0.000000
0.027451 0.992157 0.000000
0.200000 0.980392 0.000000
0.364706 0.972549 0.000000
0.521569 0.960784 0.000000
0.694118 0.952941 0.000000
0.811765 0.941176 0.000000
0.878431 0.933333 0.000000
0.000000 1.000000 0.000000
0.000000 1.000000 0.000000
0.000000 1.000000 0.000000
0.156863 1.000000 0.000000
0.325490 1.000000 0.000000
0.478431 1.000000 0.000000
0.650980 1.000000 0.000000
0.788235 1.000000 0.000000
0.878431 1.000000 0.000000
0.000000 0.000000 0.439216
0.160784 0.000000 0.423529
0.325490 0.000000 0.407843
0.486275 0.000000 0.396078
0.658824 0.000000 0.376471
0.788235 0.000000 0.360784
0.878431 0.000000 0.349020
0.878431 0.000000 0.329412
0.878431 0.000000 0.317647
0.000000 0.149020 0.392157
0.113725 0.133333 0.368627
0.286275 0.117647 0.356863
0.447059 0.105882 0.345098
0.611765 0.086275 0.325490
0.760784 0.074510 0.313725
0.870588 0.058824 0.294118
0.878431 0.043137 0.278431
0.878431 0.031373 0.266667
0.000000 0.309804 0.333333
0.070588 0.298039 0.321569
0.247059 0.286275 0.309804
0.400000 0.270588 0.290196
0.572549 0.254902 0.274510
0.733333 0.239216 0.258824
0.839216 0.223529 0.239216
0.878431 0.211765 0.227451
0.878431 0.188235 0.203922
0.000000 0.462745 0.282353
0.027451 0.447059 0.266667
0.200000 0.435294 0.247059
0.364706 0.423529 0.235294
0.525490 0.407843 0.219608
0.690196 0.392157 0.200000
0.811765 0.380392 0.188235
0.878431 0.364706 0.164706
0.878431 0.349020 0.152941
0.000000 0.619608 0.227451
0.000000 0.607843 0.215686
0.156863 0.588235 0.196078
0.321569 0.572549 0.180392
0.482353 0.556863 0.160784
0.650980 0.545098 0.149020
0.788235 0.529412 0.129412
0.878431 0.517647 0.113725
0.878431 0.501961 0.094118
0.000000 0.776471 0.172549
0.000000 0.760784 0.156863
0.113725 0.749020 0.145098
0.282353 0.733333 0.121569
0.443137 0.717647 0.109804
0.603922 0.701961 0.090196
0.760784 0.690196 0.074510
0.866667 0.670588 0.062745
0.878431 0.658824 0.043137
0.000000 0.901961 0.117647
0.000000 0.894118 0.101961
0.066667 0.886275 0.086275
0.243137 0.874510 0.070588
0.400000 0.866667 0.050980
0.560784 0.854902 0.035294
0.729412 0.847059 0.023529
0.839216 0.839216 0.003922
0.878431 0.823529 0.000000
0.000000 1.000000 0.062745
0.000000 1.000000 0.047059
0.027451 0.988235 0.031373
0.196078 0.980392 0.011765
0.360784 0.968627 0.000000
0.517647 0.960784 0.000000
0.690196 0.952941 0.000000
0.811765 0.941176 0.000000
0.878431 0.933333 0.000000
0.000000 1.000000 0.007843
0.000000 1.000000 0.000000
0.000000 1.000000 0.000000
0.152941 1.000000 0.000000
0.317647 1.000000 0.000000
0.474510 1.000000 0.000000
0.647059 1.000000 0.000000
0.784314 1.000000 0.000000
0.878431 1.000000 0.000000
0.000000 0.000000 0.654902
0.156863 0.000000 0.635294
0.321569 0.000000 0.619608
0.482353 0.000000 0.603922
0.654902 0.000000 0.584314
0.788235 0.000000 0.572549
0.878431 0.000000 0.560784
0.878431 0.000000 0.541176
0.878431 0.000000 0.529412
0.000000 0.145098 0.596078
0.113725 0.129412 0.580392
0.282353 0.113725 0.568627
0.439216 0.098039 0.549020
0.607843 0.082353 0.537255
0.756863 0.070588 0.525490
0.866667 0.054902 0.501961
0.878431 0.039216 0.490196
0.878431 0.023529 0.474510
0.000000 0.305882 0.545098
0.066667 0.294118 0.533333
0.239216 0.278431 0.509804
0.400000 0.262745 0.498039
0.568627 0.250980 0.486275
0.729412 0.231373 0.466667
0.839216 0.219608 0.454902
0.878431 0.203922 0.439216
0.878431 0.184314 0.423529
0.000000 0.458824 0.494118
0.023529 0.443137 0.478431
0.196078 0.431373 0.462745
0.360784 0.419608 0.450980
0.521569 0.403922 0.435294
0.690196 0.388235 0.419608
0.811765 0.372549 0.403922
0.878431 0.360784 0.392157
0.878431 0.345098 0.372549
0.000000 0.615686 0.443137
0.000000 0.600000 0.431373
0.149020 0.580392 0.411765
0.317647 0.564706 0.400000
0.478431 0.552941 0.388235
0.647059 0.537255 0.364706
0.780392 0.525490 0.352941
0.878431 0.513725 0.337255
0.878431 0.498039 0.321569
0.000000 0.772549 0.396078
0.000000 0.756863 0.376471
0.109804 0.741176 0.360784
0.278431 0.725490 0.349020
0.439216 0.709804 0.333333
0.603922 0.698039 0.317647
0.752941 0.682353 0.305882
0.862745 0.666667 0.282353
0.878431 0.654902 0.270588
0.000000 0.901961 0.345098
0.000000 0.894118 0.325490
0.062745 0.882353 0.313725
0.239216 0.874510 0.301961
0.396078 0.862745 0.278431
0.556863 0.854902 0.266667
0.725490 0.843137 0.243137
0.839216 0.835294 0.231373
0.878431 0.815686 0.219608
0.000000 1.000000 0.290196
0.000000 0.992157 0.274510
0.019608 0.984314 0.258824
0.192157 0.976471 0.239216
0.356863 0.964706 0.227451
0.513725 0.956863 0.203922
0.686275 0.945098 0.192157
0.807843 0.937255 0.180392
0.878431 0.929412 0.156863
0.000000 1.000000 0.235294
0.000000 1.000000 0.219608
0.000000 1.000000 0.200000
0.149020 1.000000 0.188235
0.313725 1.000000 0.164706
0.466667 1.000000 0.152941
0.639216 1.000000 0.141176
0.780392 1.000000 0.117647
0.878431 1.000000 0.105882
0.000000 0.000000 0.878431
0.149020 0.000000 0.862745
0.317647 0.000000 0.843137
0.478431 0.000000 0.831373
0.650980 0.000000 0.811765
0.780392 0.000000 0.796078
0.878431 0.000000 0.784314
0.878431 0.000000 0.760784
0.878431 0.000000 0.749020
0.000000 0.137255 0.823529
0.109804 0.125490 0.807843
0.278431 0.109804 0.792157
0.435294 0.094118 0.776471
0.603922 0.078431 0.756863
0.752941 0.066667 0.745098
0.862745 0.047059 0.721569
0.878431 0.035294 0.709804
0.878431 0.015686 0.690196
0.000000 0.301961 0.764706
0.062745 0.290196 0.752941
0.235294 0.274510 0.737255
0.396078 0.258824 0.717647
0.560784 0.243137 0.701961
0.725490 0.227451 0.682353
0.835294 0.215686 0.670588
0.878431 0.200000 0.654902
0.878431 0.180392 0.635294
0.000000 0.454902 0.713725
0.019608 0.439216 0.698039
0.192157 0.427451 0.678431
0.352941 0.411765 0.662745
0.517647 0.400000 0.647059
0.686275 0.384314 0.631373
0.807843 0.368627 0.611765
0.878431 0.356863 0.596078
0.878431 0.337255 0.580392
0.000000 0.611765 0.658824
0.000000 0.592157 0.639216
0.145098 0.576471 0.623529
0.313725 0.560784 0.607843
0.474510 0.549020 0.592157
0.639216 0.533333 0.576471
0.776471 0.521569 0.564706
0.878431 0.505882 0.545098
0.878431 0.494118 0.533333
0.000000 0.768627 0.603922
0.000000 0.752941 0.588235
0.101961 0.737255 0.572549
0.274510 0.721569 0.560784
0.431373 0.705882 0.541176
0.600000 0.694118 0.529412
0.752941 0.678431 0.509804
0.862745 0.662745 0.494118
0.878431 0.647059 0.482353
0.000000 0.898039 0.552941
0.000000 0.890196 0.537255
0.058824 0.878431 0.525490
0.231373 0.870588 0.501961
0.392157 0.858824 0.490196
0.549020 0.850980 0.478431
0.725490 0.843137 0.458824
0.831373 0.827451 0.447059
0.878431 0.811765 0.431373
0.000000 1.000000 0.498039
0.000000 0.992157 0.486275
0.011765 0.980392 0.466667
0.188235 0.972549 0.454902
0.352941 0.960784 0.443137
0.509804 0.952941 0.423529
0.682353 0.941176 0.411765
0.803922 0.933333 0.396078
0.878431 0.925490 0.376471
0.000000 1.000000 0.450980
0.000000 1.000000 0.435294
0.000000 1.000000 0.419608
0.141176 1.000000 0.403922
0.313725 1.000000 0.392157
0.462745 1.000000 0.372549
0.635294 1.000000 0.356863
0.776471 1.000000 0.345098
0.878431 1.000000 0.329412
0.000000 0.000000 1.000000
0.145098 0.000000 1.000000
0.313725 0.000000 1.000000
0.474510 0.000000 0.996078
0.647059 0.000000 0.984314
0.776471 0.000000 0.972549
0.878431 0.000000 0.964706
0.878431 0.000000 0.956863
0.878431 0.000000 0.941176
0.000000 0.133333 0.996078
0.101961 0.117647 0.980392
0.274510 0.105882 0.972549
0.431373 0.086275 0.964706
0.603922 0.074510 0.952941
0.752941 0.058824 0.941176
0.862745 0.043137 0.929412
0.878431 0.031373 0.921569
0.878431 0.011765 0.909804
0.000000 0.298039 0.956863
0.054902 0.282353 0.949020
0.231373 0.270588 0.937255
0.392157 0.254902 0.925490
0.556863 0.239216 0.917647
0.721569 0.223529 0.905882
0.831373 0.211765 0.890196
0.878431 0.188235 0.874510
0.878431 0.176471 0.854902
0.000000 0.447059 0.921569
0.011765 0.435294 0.913725
0.188235 0.423529 0.898039
0.349020 0.407843 0.886275
0.513725 0.392157 0.866667
0.682353 0.380392 0.850980
0.803922 0.364706 0.835294
0.878431 0.349020 0.819608
0.878431 0.333333 0.800000
0.000000 0.607843 0.874510
0.000000 0.588235 0.862745
0.141176 0.572549 0.843137
0.313725 0.556863 0.827451
0.466667 0.541176 0.811765
0.635294 0.529412 0.796078
0.776471 0.517647 0.780392
0.878431 0.501961 0.760784
0.878431 0.490196 0.745098
0.000000 0.760784 0.823529
0.000000 0.749020 0.807843
0.098039 0.733333 0.792157
0.270588 0.717647 0.776471
0.431373 0.701961 0.756863
0.596078 0.690196 0.745098
0.749020 0.670588 0.721569
0.862745 0.658824 0.709804
0.878431 0.639216 0.690196
0.000000 0.894118 0.764706
0.000000 0.886275 0.752941
0.054902 0.874510 0.737255
0.227451 0.866667 0.717647
0.388235 0.854902 0.701961
0.545098 0.847059 0.682353
0.721569 0.839216 0.670588
0.831373 0.823529 0.654902
0.878431 0.807843 0.635294
0.000000 1.000000 0.713725
0.000000 0.988235 0.698039
0.007843 0.980392 0.678431
0.184314 0.968627 0.662745
0.345098 0.960784 0.647059
0.505882 0.952941 0.631373
0.674510 0.941176 0.611765
0.803922 0.933333 0.596078
0.878431 0.921569 0.580392
0.000000 1.000000 0.658824
0.000000 1.000000 0.639216
0.000000 1.000000 0.623529
0.137255 1.000000 0.607843
0.309804 1.000000 0.588235
0.458824 1.000000 0.576471
0.631373 1.000000 0.564706
0.776471 1.000000 0.545098
0.878431 1.000000 0.533333
0.000000 0.000000 1.000000
0.141176 0.000000 1.000000
0.313725 0.000000 1.000000
0.466667 0.000000 1.000000
0.639216 0.000000 1.000000
0.776471 0.000000 1.000000
0.878431 0.000000 1.000000
0.878431 0.000000 1.000000
0.878431 0.000000 1.000000
0.000000 0.129412 1.000000
0.098039 0.113725 1.000000
0.266667 0.098039 1.000000
0.431373 0.082353 1.000000
0.600000 0.070588 1.000000
0.749020 0.054902 1.000000
0.858824 0.039216 1.000000
0.878431 0.023529 1.000000
0.878431 0.007843 1.000000
0.000000 0.294118 1.000000
0.054902 0.278431 1.000000
0.227451 0.262745 1.000000
0.388235 0.250980 1.000000
0.549020 0.231373 1.000000
0.717647 0.219608 1.000000
0.831373 0.203922 1.000000
0.878431 0.184314 1.000000
0.878431 0.172549 1.000000
0.000000 0.443137 1.000000
0.007843 0.431373 1.000000
0.180392 0.415686 1.000000
0.345098 0.403922 1.000000
0.509804 0.388235 1.000000
0.674510 0.372549 1.000000
0.803922 0.360784 1.000000
0.878431 0.345098 0.996078
0.878431 0.329412 0.984314
0.000000 0.600000 1.000000
0.000000 0.580392 1.000000
0.137255 0.564706 1.000000
0.309804 0.552941 1.000000
0.462745 0.537255 0.992157
0.631373 0.525490 0.976471
0.776471 0.513725 0.968627
0.878431 0.498039 0.960784
0.878431 0.486275 0.949020
0.000000 0.756863 0.996078
0.000000 0.741176 0.984314
0.094118 0.725490 0.972549
0.266667 0.709804 0.964706
0.427451 0.698039 0.956863
0.588235 0.682353 0.941176
0.745098 0.666667 0.933333
0.858824 0.654902 0.925490
0.878431 0.635294 0.913725
0.000000 0.894118 0.964706
0.000000 0.882353 0.952941
0.054902 0.874510 0.941176
0.223529 0.862745 0.929412
0.384314 0.854902 0.921569
0.545098 0.843137 0.909804
0.717647 0.835294 0.898039
0.831373 0.815686 0.878431
0.878431 0.803922 0.866667
0.000000 0.992157 0.925490
0.000000 0.984314 0.917647
0.003922 0.976471 0.909804
0.180392 0.964706 0.890196
0.345098 0.956863 0.874510
0.498039 0.945098 0.854902
0.670588 0.937255 0.839216
0.803922 0.929412 0.827451
0.878431 0.917647 0.807843
0.000000 1.000000 0.886275
0.000000 1.000000 0.870588
0.000000 1.000000 0.850980
0.133333 1.000000 0.835294
0.301961 1.000000 0.819608
0.458824 1.000000 0.800000
0.631373 1.000000 0.788235
0.772549 1.000000 0.764706
0.878431 1.000000 0.752941
0.000000 0.000000 1.000000
0.137255 0.000000 1.000000
0.309804 0.000000 1.000000
0.462745 0.000000 1.000000
0.635294 0.000000 1.000000
0.776471 0.000000 1.000000
0.878431 0.000000 1.000000
0.878431 0.000000 1.000000
0.878431 0.000000 1.000000
0.000000 0.125490 1.000000
0.094118 0.109804 1.000000
0.262745 0.094118 1.000000
0.427451 0.078431 1.000000
0.592157 0.062745 1.000000
0.745098 0.047059 1.000000
0.858824 0.035294 1.000000
0.878431 0.015686 1.000000
0.878431 0.003922 1.000000
0.000000 0.290196 1.000000
0.050980 0.274510 1.000000
0.223529 0.258824 1.000000
0.380392 0.243137 1.000000
0.545098 0.227451 1.000000
0.717647 0.215686 1.000000
0.831373 0.200000 1.000000
0.878431 0.180392 1.000000
0.878431 0.164706 1.000000
0.000000 0.439216 1.000000
0.003922 0.427451 1.000000
0.176471 0.411765 1.000000
0.345098 0.400000 1.000000
0.505882 0.384314 1.000000
0.670588 0.368627 1.000000
0.800000 0.356863 1.000000
0.878431 0.337255 1.000000
0.878431 0.325490 1.000000
0.000000 0.592157 1.000000
0.000000 0.576471 1.000000
0.133333 0.560784 1.000000
0.298039 0.545098 1.000000
0.458824 0.533333 1.000000
0.627451 0.521569 1.000000
0.772549 0.505882 1.000000
0.878431 0.494118 1.000000
0.878431 0.478431 1.000000
0.000000 0.752941 1.000000
0.000000 0.737255 1.000000
0.090196 0.721569 1.000000
0.258824 0.705882 1.000000
0.423529 0.690196 1.000000
0.584314 0.678431 1.000000
0.745098 0.662745 1.000000
0.854902 0.647059 1.000000
0.878431 0.631373 1.000000
0.000000 0.890196 1.000000
0.000000 0.878431 1.000000
0.047059 0.870588 1.000000
0.219608 0.858824 1.000000
0.380392 0.850980 1.000000
0.541176 0.843137 1.000000
0.713725 0.827451 1.000000
0.827451 0.811765 1.000000
0.878431 0.800000 1.000000
0.000000 0.992157 1.000000
0.000000 0.980392 1.000000
0.000000 0.972549 1.000000
0.176471 0.960784 1.000000
0.341176 0.952941 1.000000
0.494118 0.941176 1.000000
0.666667 0.933333 1.000000
0.800000 0.925490 1.000000
0.878431 0.913725 0.984314
0.000000 1.000000 1.000000
0.000000 1.000000 1.000000
0.000000 1.000000 1.000000
0.129412 1.000000 1.000000
0.298039 1.000000 0.996078
0.454902 1.000000 0.984314
0.623529 1.000000 0.972549
0.772549 1.000000 0.964706
0.878431 1.000000 0.952941
0.000000 0.000000 1.000000
0.133333 0.000000 1.000000
0.298039 0.000000 1.000000
0.458824 0.000000 1.000000
0.631373 0.000000 1.000000
0.772549 0.000000 1.000000
0.878431 0.000000 1.000000
0.878431 0.000000 1.000000
0.878431 0.000000 1.000000
0.000000 0.117647 1.000000
0.086275 0.101961 1.000000
0.258824 0.086275 1.000000
0.423529 0.074510 1.000000
0.588235 0.058824 1.000000
0.745098 0.043137 1.000000
0.854902 0.031373 1.000000
0.878431 0.011765 1.000000
0.878431 0.000000 1.000000
0.000000 0.282353 1.000000
0.047059 0.270588 1.000000
0.219608 0.254902 1.000000
0.376471 0.239216 1.000000
0.545098 0.223529 1.000000
0.713725 0.211765 1.000000
0.827451 0.188235 1.000000
0.878431 0.176471 1.000000
0.878431 0.156863 1.000000
0.000000 0.435294 1.000000
0.000000 0.423529 1.000000
0.172549 0.407843 1.000000
0.341176 0.392157 1.000000
0.498039 0.376471 1.000000
0.666667 0.364706 1.000000
0.796078 0.349020 1.000000
0.878431 0.333333 1.000000
0.878431 0.321569 1.000000
0.000000 0.588235 1.000000
0.000000 0.572549 1.000000
0.129412 0.556863 1.000000
0.294118 0.541176 1.000000
0.458824 0.529412 1.000000
0.623529 0.517647 1.000000
0.772549 0.501961 1.000000
0.878431 0.490196 1.000000
0.878431 0.470588 1.000000
0.000000 0.749020 1.000000
0.000000 0.733333 1.000000
0.086275 0.717647 1.000000
0.258824 0.701961 1.000000
0.419608 0.686275 1.000000
0.576471 0.670588 1.000000
0.745098 0.658824 1.000000
0.850980 0.639216 1.000000
0.878431 0.627451 1.000000
0.000000 0.882353 1.000000
0.000000 0.874510 1.000000
0.039216 0.866667 1.000000
0.215686 0.854902 1.000000
0.372549 0.847059 1.000000
0.537255 0.839216 1.000000
0.709804 0.823529 1.000000
0.823529 0.807843 1.000000
0.878431 0.788235 1.000000
0.000000 0.988235 1.000000
0.000000 0.980392 1.000000
0.000000 0.968627 1.000000
0.172549 0.960784 1.000000
0.337255 0.949020 1.000000
0.486275 0.941176 1.000000
0.662745 0.933333 1.000000
0.796078 0.921569 1.000000
0.878431 0.913725 1.000000
0.000000 1.000000 1.000000
0.000000 1.000000 1.000000
0.000000 1.000000 1.000000
0.125490 1.000000 1.000000
0.294118 1.000000 1.000000
0.450980 1.000000 1.000000
0.619608 1.000000 1.000000
0.768627 1.000000 1.000000
0.878431 1.000000 1.000000
