infra/render-server/luts/vivid-warm.cube
TITLE "Vivid Warm"
LUT_3D_SIZE 9
DOMAIN_MIN 0.0 0.0 0.0
DOMAIN_MAX 1.0 1.0 1.0
0.000000 0.000000 0.000000
0.211765 0.000000 0.000000
0.411765 0.000000 0.000000
0.607843 0.000000 0.000000
0.819608 0.000000 0.000000
0.976471 0.000000 0.000000
1.000000 0.000000 0.000000
1.000000 0.000000 0.000000
1.000000 0.000000 0.000000
0.000000 0.156863 0.000000
0.152941 0.145098 0.000000
0.356863 0.129412 0.000000
0.556863 0.113725 0.000000
0.764706 0.098039 0.000000
0.941176 0.082353 0.000000
1.000000 0.070588 0.000000
1.000000 0.054902 0.000000
1.000000 0.039216 0.000000
0.000000 0.321569 0.000000
0.098039 0.305882 0.000000
0.309804 0.294118 0.000000
0.501961 0.278431 0.000000
0.709804 0.262745 0.000000
0.905882 0.250980 0.000000
1.000000 0.231373 0.000000
1.000000 0.219608 0.000000
1.000000 0.207843 0.000000
0.000000 0.470588 0.000000
0.043137 0.458824 0.000000
0.254902 0.443137 0.000000
0.454902 0.431373 0.000000
0.658824 0.419608 0.000000
0.862745 0.403922 0.000000
1.000000 0.388235 0.000000
1.000000 0.372549 0.000000
1.000000 0.360784 0.000000
0.000000 0.631373 0.000000
0.000000 0.615686 0.000000
0.200000 0.600000 0.000000
0.407843 0.584314 0.000000
0.600000 0.564706 0.000000
0.807843 0.552941 0.000000
0.972549 0.537255 0.000000
1.000000 0.525490 0.000000
1.000000 0.513725 0.000000
0.000000 0.788235 0.000000
0.000000 0.772549 0.000000
0.149020 0.756863 0.000000
0.352941 0.741176 0.000000
0.552941 0.729412 0.000000
0.752941 0.709804 0.000000
0.937255 0.698039 0.000000
1.000000 0.682353 0.000000
1.000000 0.666667 0.000000
0.000000 0.913725 0.000000
0.000000 0.901961 0.000000
0.090196 0.894118 0.000000
0.305882 0.882353 0.000000
0.501961 0.874510 0.000000
0.701961 0.862745 0.000000
0.905882 0.854902 0.000000
1.000000 0.843137 0.000000
1.000000 0.835294 0.000000
0.000000 1.000000 0.000000
0.000000 1.000000 0.000000
0.039216 0.992157 0.000000
0.254902 0.984314 0.000000
0.450980 0.976471 0.000000
0.647059 0.964706 0.000000
0.858824 0.956863 0.000000
1.000000 0.949020 0.000000
1.000000 0.937255 0.000000
0.000000 1.000000 0.000000
0.000000 1.000000 0.000000
0.000000 1.000000 0.000000
0.196078 1.000000 0.000000
0.403922 1.000000 0.000000
0.592157 1.000000 0.000000
0.807843 1.000000 0.000000
0.968627 1.000000 0.000000
1.000000 1.000000 0.000000
0.000000 0.000000 0.176471
0.200000 0.000000 0.164706
0.407843 0.000000 0.152941
0.600000 0.000000 0.137255
0.815686 0.000000 0.125490
0.972549 0.000000 0.113725
1.000000 0.000000 0.098039
1.000000 0.000000 0.086275
1.000000 0.000000 0.070588
0.000000 0.152941 0.133333
0.149020 0.141176 0.121569
0.352941 0.125490 0.109804
0.552941 0.109804 0.094118
0.760784 0.094118 0.082353
0.933333 0.078431 0.066667
1.000000 0.066667 0.054902
1.000000 0.047059 0.039216
1.000000 0.035294 0.027451
0.000000 0.313725 0.086275
0.090196 0.301961 0.074510
0.305882 0.290196 0.062745
0.498039 0.274510 0.050980
0.705882 0.258824 0.035294
0.905882 0.247059 0.027451
1.000000 0.227451 0.007843
1.000000 0.215686 0.000000
1.000000 0.200000 0.000000
0.000000 0.466667 0.047059
0.039216 0.454902 0.031373
0.250980 0.439216 0.019608
0.450980 0.427451 0.003922
0.650980 0.411765 0.000000
0.858824 0.400000 0.000000
1.000000 0.384314 0.000000
1.000000 0.368627 0.000000
1.000000 0.356863 0.000000
0.000000 0.627451 0.000000
0.000000 0.611765 0.000000
0.196078 0.592157 0.000000
0.400000 0.576471 0.000000
0.596078 0.560784 0.000000
0.803922 0.549020 0.000000
0.968627 0.533333 0.000000
1.000000 0.521569 0.000000
1.000000 0.505882 0.000000
0.000000 0.780392 0.000000
0.000000 0.768627 0.000000
0.145098 0.752941 0.000000
0.349020 0.737255 0.000000
0.549020 0.721569 0.000000
0.749020 0.705882 0.000000
0.933333 0.694118 0.000000
1.000000 0.678431 0.000000
1.000000 0.662745 0.000000
0.000000 0.909804 0.000000
0.000000 0.898039 0.000000
0.086275 0.890196 0.000000
0.301961 0.878431 0.000000
0.494118 0.870588 0.000000
0.698039 0.862745 0.000000
0.901961 0.850980 0.000000
1.000000 0.843137 0.000000
1.000000 0.827451 0.000000
0.000000 1.000000 0.000000
0.000000 1.000000 0.000000
0.035294 0.992157 0.000000
0.243137 0.980392 0.000000
0.447059 0.972549 0.000000
0.643137 0.960784 0.000000
0.854902 0.952941 0.000000
0.996078 0.941176 0.000000
1.000000 0.933333 0.000000
0.000000 1.000000 0.000000
0.000000 1.000000 0.000000
0.000000 1.000000 0.000000
0.192157 1.000000 0.000000
0.400000 1.000000 0.000000
0.588235 1.000000 0.000000
0.800000 1.000000 0.000000
0.968627 1.000000 0.000000
1.000000 1.000000 0.000000
0.000000 0.000000 0.349020
0.196078 0.000000 0.341176
0.400000 0.000000 0.325490
0.596078 0.000000 0.313725
0.811765 0.000000 0.301961
0.968627 0.000000 0.286275
1.000000 0.000000 0.278431
1.000000 0.000000 0.262745
1.000000 0.000000 0.254902
0.000000 0.149020 0.313725
0.141176 0.133333 0.294118
0.349020 0.117647 0.286275
0.549020 0.105882 0.274510
0.752941 0.086275 0.258824
0.933333 0.074510 0.250980
1.000000 0.058824 0.235294
1.000000 0.043137 0.223529
1.000000 0.031373 0.211765
0.000000 0.309804 0.266667
0.086275 0.298039 0.258824
0.301961 0.286275 0.247059
0.494118 0.270588 0.231373
0.701961 0.254902 0.219608
0.901961 0.239216 0.203922
1.000000 0.223529 0.192157
1.000000 0.211765 0.180392
1.000000 0.188235 0.164706
0.000000 0.462745 0.227451
0.031373 0.447059 0.211765
0.243137 0.435294 0.200000
0.447059 0.423529 0.188235
0.647059 0.407843 0.172549
0.850980 0.392157 0.160784
0.996078 0.380392 0.149020
1.000000 0.364706 0.133333
1.000000 0.349020 0.121569
0.000000 0.619608 0.180392
0.000000 0.607843 0.172549
0.192157 0.588235 0.156863
0.396078 0.572549 0.141176
0.592157 0.556863 0.129412
0.800000 0.545098 0.117647
0.968627 0.529412 0.101961
1.000000 0.517647 0.090196
1.000000 0.501961 0.074510
0.000000 0.776471 0.137255
0.000000 0.760784 0.125490
0.141176 0.749020 0.113725
0.345098 0.733333 0.098039
0.545098 0.717647 0.086275
0.745098 0.701961 0.070588
0.933333 0.690196 0.058824
1.000000 0.670588 0.050980
1.000000 0.658824 0.031373
0.000000 0.901961 0.094118
0.000000 0.894118 0.082353
0.082353 0.886275 0.066667
0.298039 0.874510 0.054902
0.490196 0.866667 0.039216
0.690196 0.854902 0.027451
0.894118 0.847059 0.019608
1.000000 0.839216 0.000000
1.000000 0.823529 0.000000
0.000000 1.000000 0.050980
0.000000 1.000000 0.035294
0.031373 0.988235 0.027451
0.239216 0.980392 0.007843
0.443137 0.968627 0.000000
0.635294 0.960784 0.000000
0.850980 0.952941 0.000000
0.996078 0.941176 0.000000
1.000000 0.933333 0.000000
0.000000 1.000000 0.003922
0.000000 1.000000 0.000000
0.000000 1.000000 0.000000
0.188235 1.000000 0.000000
0.392157 1.000000 0.000000
0.584314 1.000000 0.000000
0.796078 1.000000 0.000000
0.964706 1.000000 0.000000
1.000000 1.000000 0.000000
0.000000 0.000000 0.521569
0.192157 0.000000 0.509804
0.396078 0.000000 0.494118
0.592157 0.000000 0.482353
0.803922 0.000000 0.466667
0.968627 0.000000 0.458824
1.000000 0.000000 0.447059
1.000000 0.000000 0.431373
1.000000 0.000000 0.423529
0.000000 0.145098 0.478431
0.137255 0.129412 0.462745
0.345098 0.113725 0.454902
0.541176 0.098039 0.439216
0.749020 0.082353 0.431373
0.929412 0.070588 0.419608
1.000000 0.054902 0.400000
1.000000 0.039216 0.392157
1.000000 0.023529 0.376471
0.000000 0.305882 0.435294
0.082353 0.294118 0.427451
0.294118 0.278431 0.407843
0.490196 0.262745 0.400000
0.698039 0.250980 0.388235
0.894118 0.231373 0.372549
1.000000 0.219608 0.364706
1.000000 0.203922 0.349020
1.000000 0.184314 0.341176
0.000000 0.458824 0.396078
0.027451 0.443137 0.380392
0.239216 0.431373 0.372549
0.443137 0.419608 0.360784
0.643137 0.403922 0.345098
0.847059 0.388235 0.337255
0.996078 0.372549 0.321569
1.000000 0.360784 0.313725
1.000000 0.345098 0.298039
0.000000 0.615686 0.352941
0.000000 0.600000 0.345098
0.184314 0.580392 0.329412
0.392157 0.564706 0.317647
0.588235 0.552941 0.309804
0.796078 0.537255 0.290196
0.960784 0.525490 0.282353
1.000000 0.513725 0.270588
1.000000 0.498039 0.258824
0.000000 0.772549 0.313725
0.000000 0.756863 0.301961
0.133333 0.741176 0.286275
0.341176 0.725490 0.278431
0.541176 0.709804 0.266667
0.741176 0.698039 0.254902
0.925490 0.682353 0.243137
1.000000 0.666667 0.227451
1.000000 0.654902 0.215686
0.000000 0.901961 0.274510
0.000000 0.894118 0.258824
0.078431 0.882353 0.250980
0.294118 0.874510 0.239216
0.486275 0.862745 0.223529
0.682353 0.854902 0.211765
0.890196 0.843137 0.196078
1.000000 0.835294 0.184314
1.000000 0.815686 0.172549
0.000000 1.000000 0.231373
0.000000 0.992157 0.219608
0.023529 0.984314 0.203922
0.235294 0.976471 0.192157
0.439216 0.964706 0.180392
0.627451 0.956863 0.164706
0.839216 0.945098 0.152941
0.992157 0.937255 0.141176
1.000000 0.929412 0.125490
0.000000 1.000000 0.188235
0.000000 1.000000 0.172549
0.000000 1.000000 0.160784
0.184314 1.000000 0.149020
0.388235 1.000000 0.133333
0.572549 1.000000 0.121569
0.784314 1.000000 0.113725
0.960784 1.000000 0.094118
1.000000 1.000000 0.086275
0.000000 0.000000 0.701961
0.184314 0.000000 0.690196
0.392157 0.000000 0.674510
0.588235 0.000000 0.662745
0.800000 0.000000 0.650980
0.960784 0.000000 0.635294
1.000000 0.000000 0.627451
1.000000 0.000000 0.607843
1.000000 0.000000 0.600000
0.000000 0.137255 0.658824
0.133333 0.125490 0.647059
0.341176 0.109804 0.631373
0.537255 0.094118 0.619608
0.745098 0.078431 0.603922
0.925490 0.066667 0.596078
1.000000 0.047059 0.576471
1.000000 0.035294 0.568627
1.000000 0.015686 0.549020
0.000000 0.301961 0.611765
0.078431 0.290196 0.603922
0.290196 0.274510 0.588235
0.486275 0.258824 0.572549
0.690196 0.243137 0.560784
0.890196 0.227451 0.545098
1.000000 0.215686 0.537255
1.000000 0.200000 0.521569
1.000000 0.180392 0.509804
0.000000 0.454902 0.572549
0.023529 0.439216 0.556863
0.235294 0.427451 0.545098
0.435294 0.411765 0.529412
0.635294 0.400000 0.517647
0.839216 0.384314 0.505882
0.992157 0.368627 0.486275
1.000000 0.356863 0.478431
1.000000 0.337255 0.462745
0.000000 0.611765 0.525490
0.000000 0.592157 0.513725
0.180392 0.576471 0.498039
0.388235 0.560784 0.486275
0.584314 0.549020 0.474510
0.784314 0.533333 0.458824
0.956863 0.521569 0.450980
1.000000 0.505882 0.435294
1.000000 0.494118 0.427451
0.000000 0.768627 0.482353
0.000000 0.752941 0.470588
0.125490 0.737255 0.458824
0.337255 0.721569 0.447059
0.533333 0.705882 0.431373
0.733333 0.694118 0.423529
0.925490 0.678431 0.407843
1.000000 0.662745 0.396078
1.000000 0.647059 0.384314
0.000000 0.898039 0.443137
0.000000 0.890196 0.431373
0.074510 0.878431 0.419608
0.286275 0.870588 0.400000
0.482353 0.858824 0.392157
0.674510 0.850980 0.380392
0.890196 0.843137 0.368627
1.000000 0.827451 0.356863
1.000000 0.811765 0.345098
0.000000 1.000000 0.400000
0.000000 0.992157 0.388235
0.015686 0.980392 0.372549
0.231373 0.972549 0.364706
0.435294 0.960784 0.352941
0.623529 0.952941 0.341176
0.835294 0.941176 0.329412
0.988235 0.933333 0.313725
1.000000 0.925490 0.301961
0.000000 1.000000 0.360784
0.000000 1.000000 0.345098
0.000000 1.000000 0.337255
0.176471 1.000000 0.321569
0.384314 1.000000 0.313725
0.568627 1.000000 0.298039
0.780392 1.000000 0.286275
0.956863 1.000000 0.274510
1.000000 1.000000 0.262745
0.000000 0.000000 0.823529
0.180392 0.000000 0.811765
0.388235 0.000000 0.803922
0.584314 0.000000 0.796078
0.796078 0.000000 0.788235
0.956863 0.000000 0.776471
1.000000 0.000000 0.772549
1.000000 0.000000 0.764706
1.000000 0.000000 0.752941
0.000000 0.133333 0.796078
0.125490 0.117647 0.784314
0.337255 0.105882 0.776471
0.533333 0.086275 0.772549
0.741176 0.074510 0.760784
0.925490 0.058824 0.752941
1.000000 0.043137 0.745098
1.000000 0.031373 0.737255
1.000000 0.011765 0.725490
0.000000 0.298039 0.764706
0.070588 0.282353 0.756863
0.286275 0.270588 0.749020
0.482353 0.254902 0.741176
0.682353 0.239216 0.733333
0.886275 0.223529 0.721569
1.000000 0.211765 0.713725
1.000000 0.188235 0.698039
1.000000 0.176471 0.686275
0.000000 0.447059 0.737255
0.015686 0.435294 0.729412
0.231373 0.423529 0.717647
0.431373 0.407843 0.709804
0.627451 0.392157 0.690196
0.835294 0.380392 0.682353
0.988235 0.364706 0.666667
1.000000 0.349020 0.654902
1.000000 0.333333 0.639216
0.000000 0.607843 0.698039
0.000000 0.588235 0.690196
0.176471 0.572549 0.674510
0.384314 0.556863 0.658824
0.572549 0.541176 0.650980
0.780392 0.529412 0.635294
0.956863 0.517647 0.623529
1.000000 0.501961 0.607843
1.000000 0.490196 0.596078
0.000000 0.760784 0.658824
0.000000 0.749020 0.647059
0.121569 0.733333 0.631373
0.333333 0.717647 0.619608
0.529412 0.701961 0.603922
0.729412 0.690196 0.596078
0.921569 0.670588 0.576471
1.000000 0.658824 0.568627
1.000000 0.639216 0.549020
0.000000 0.894118 0.611765
0.000000 0.886275 0.603922
0.070588 0.874510 0.588235
0.278431 0.866667 0.572549
0.478431 0.854902 0.560784
0.670588 0.847059 0.545098
0.886275 0.839216 0.537255
1.000000 0.823529 0.521569
1.000000 0.807843 0.509804
0.000000 1.000000 0.572549
0.000000 0.988235 0.556863
0.011765 0.980392 0.545098
0.227451 0.968627 0.529412
0.427451 0.960784 0.517647
0.619608 0.952941 0.505882
0.827451 0.941176 0.486275
0.988235 0.933333 0.478431
1.000000 0.921569 0.462745
0.000000 1.000000 0.525490
0.000000 1.000000 0.513725
0.000000 1.000000 0.498039
0.168627 1.000000 0.486275
0.380392 1.000000 0.470588
0.564706 1.000000 0.458824
0.776471 1.000000 0.450980
0.952941 1.000000 0.435294
1.000000 1.000000 0.427451
0.000000 0.000000 0.878431
0.176471 0.000000 0.878431
0.384314 0.000000 0.878431
0.572549 0.000000 0.878431
0.784314 0.000000 0.878431
0.956863 0.000000 0.878431
1.000000 0.000000 0.878431
1.000000 0.000000 0.878431
1.000000 0.000000 0.870588
0.000000 0.129412 0.878431
0.121569 0.113725 0.878431
0.329412 0.098039 0.878431
0.529412 0.082353 0.878431
0.733333 0.070588 0.874510
0.921569 0.054902 0.866667
1.000000 0.039216 0.858824
1.000000 0.023529 0.850980
1.000000 0.007843 0.843137
0.000000 0.294118 0.878431
0.066667 0.278431 0.874510
0.278431 0.262745 0.862745
0.478431 0.250980 0.858824
0.674510 0.231373 0.847059
0.882353 0.219608 0.839216
1.000000 0.203922 0.831373
1.000000 0.184314 0.823529
1.000000 0.172549 0.811765
0.000000 0.443137 0.854902
0.011765 0.431373 0.843137
0.223529 0.415686 0.835294
0.427451 0.403922 0.831373
0.623529 0.388235 0.819608
0.827451 0.372549 0.811765
0.984314 0.360784 0.803922
1.000000 0.345098 0.796078
1.000000 0.329412 0.788235
0.000000 0.600000 0.823529
0.000000 0.580392 0.815686
0.168627 0.564706 0.807843
0.380392 0.552941 0.800000
0.568627 0.537255 0.792157
0.772549 0.525490 0.780392
0.952941 0.513725 0.776471
1.000000 0.498039 0.768627
1.000000 0.486275 0.756863
0.000000 0.756863 0.796078
0.000000 0.741176 0.788235
0.117647 0.725490 0.776471
0.329412 0.709804 0.772549
0.521569 0.698039 0.764706
0.721569 0.682353 0.752941
0.917647 0.666667 0.745098
1.000000 0.654902 0.741176
1.000000 0.635294 0.729412
0.000000 0.894118 0.772549
0.000000 0.882353 0.760784
0.066667 0.874510 0.752941
0.274510 0.862745 0.745098
0.470588 0.854902 0.737255
0.666667 0.843137 0.725490
0.882353 0.835294 0.717647
1.000000 0.815686 0.701961
1.000000 0.803922 0.690196
0.000000 0.992157 0.741176
0.000000 0.984314 0.733333
0.007843 0.976471 0.725490
0.223529 0.964706 0.713725
0.423529 0.956863 0.698039
0.611765 0.945098 0.686275
0.823529 0.937255 0.670588
0.984314 0.929412 0.658824
1.000000 0.917647 0.647059
0.000000 1.000000 0.709804
0.000000 1.000000 0.694118
0.000000 1.000000 0.682353
0.164706 1.000000 0.666667
0.372549 1.000000 0.654902
0.560784 1.000000 0.639216
0.772549 1.000000 0.631373
0.945098 1.000000 0.611765
1.000000 1.000000 0.603922
0.000000 0.000000 0.878431
0.168627 0.000000 0.878431
0.380392 0.000000 0.878431
0.568627 0.000000 0.878431
0.780392 0.000000 0.878431
0.952941 0.000000 0.878431
1.000000 0.000000 0.878431
1.000000 0.000000 0.878431
1.000000 0.000000 0.878431
0.000000 0.125490 0.878431
0.117647 0.109804 0.878431
0.325490 0.094118 0.878431
0.521569 0.078431 0.878431
0.725490 0.062745 0.878431
0.917647 0.047059 0.878431
1.000000 0.035294 0.878431
1.000000 0.015686 0.878431
1.000000 0.003922 0.878431
0.000000 0.290196 0.878431
0.062745 0.274510 0.878431
0.274510 0.258824 0.878431
0.466667 0.243137 0.878431
0.670588 0.227451 0.878431
0.878431 0.215686 0.878431
1.000000 0.200000 0.878431
1.000000 0.180392 0.878431
1.000000 0.164706 0.878431
0.000000 0.439216 0.878431
0.007843 0.427451 0.878431
0.219608 0.411765 0.878431
0.423529 0.400000 0.878431
0.619608 0.384314 0.878431
0.823529 0.368627 0.878431
0.980392 0.356863 0.878431
1.000000 0.337255 0.878431
1.000000 0.325490 0.878431
0.000000 0.592157 0.878431
0.000000 0.576471 0.878431
0.164706 0.560784 0.878431
0.364706 0.545098 0.878431
0.564706 0.533333 0.878431
0.768627 0.521569 0.878431
0.945098 0.505882 0.878431
1.000000 0.494118 0.878431
1.000000 0.478431 0.874510
0.000000 0.752941 0.878431
0.000000 0.737255 0.878431
0.113725 0.721569 0.878431
0.321569 0.705882 0.878431
0.517647 0.690196 0.878431
0.717647 0.678431 0.870588
0.913725 0.662745 0.862745
1.000000 0.647059 0.854902
1.000000 0.631373 0.847059
0.000000 0.890196 0.878431
0.000000 0.878431 0.874510
0.058824 0.870588 0.866667
0.270588 0.858824 0.858824
0.466667 0.850980 0.850980
0.662745 0.843137 0.843137
0.874510 0.827451 0.831373
1.000000 0.811765 0.827451
1.000000 0.800000 0.819608
0.000000 0.992157 0.858824
0.000000 0.980392 0.847059
0.003922 0.972549 0.839216
0.219608 0.960784 0.831373
0.415686 0.952941 0.823529
0.607843 0.941176 0.811765
0.819608 0.933333 0.803922
0.980392 0.925490 0.800000
1.000000 0.913725 0.788235
0.000000 1.000000 0.831373
0.000000 1.000000 0.819608
0.000000 1.000000 0.811765
0.160784 1.000000 0.803922
0.364706 1.000000 0.796078
0.556863 1.000000 0.788235
0.764706 1.000000 0.776471
0.945098 1.000000 0.772549
1.000000 1.000000 0.760784
0.000000 0.000000 0.878431
0.164706 0.000000 0.878431
0.364706 0.000000 0.878431
0.564706 0.000000 0.878431
0.776471 0.000000 0.878431
0.945098 0.000000 0.878431
1.000000 0.000000 0.878431
1.000000 0.000000 0.878431
1.000000 0.000000 0.878431
0.000000 0.117647 0.878431
0.109804 0.101961 0.878431
0.321569 0.086275 0.878431
0.517647 0.074510 0.878431
0.721569 0.058824 0.878431
0.913725 0.043137 0.878431
1.000000 0.031373 0.878431
1.000000 0.011765 0.878431
1.000000 0.000000 0.878431
0.000000 0.282353 0.878431
0.058824 0.270588 0.878431
0.270588 0.254902 0.878431
0.462745 0.239216 0.878431
0.666667 0.223529 0.878431
0.874510 0.211765 0.878431
1.000000 0.188235 0.878431
1.000000 0.176471 0.878431
1.000000 0.156863 0.878431
0.000000 0.435294 0.878431
0.003922 0.423529 0.878431
0.215686 0.407843 0.878431
0.415686 0.392157 0.878431
0.611765 0.376471 0.878431
0.819608 0.364706 0.878431
0.976471 0.349020 0.878431
1.000000 0.333333 0.878431
1.000000 0.321569 0.878431
0.000000 0.588235 0.878431
0.000000 0.572549 0.878431
0.160784 0.556863 0.878431
0.360784 0.541176 0.878431
0.560784 0.529412 0.878431
0.764706 0.517647 0.878431
0.945098 0.501961 0.878431
1.000000 0.490196 0.878431
1.000000 0.470588 0.878431
0.000000 0.749020 0.878431
0.000000 0.733333 0.878431
0.109804 0.717647 0.878431
0.317647 0.701961 0.878431
0.513725 0.686275 0.878431
0.709804 0.670588 0.878431
0.913725 0.658824 0.878431
1.000000 0.639216 0.878431
1.000000 0.627451 0.878431
0.000000 0.882353 0.878431
0.000000 0.874510 0.878431
0.047059 0.866667 0.878431
0.266667 0.854902 0.878431
0.458824 0.847059 0.878431
0.658824 0.839216 0.878431
0.870588 0.823529 0.878431
1.000000 0.807843 0.878431
1.000000 0.788235 0.878431
0.000000 0.988235 0.878431
0.000000 0.980392 0.878431
0.000000 0.968627 0.878431
0.211765 0.960784 0.878431
0.411765 0.949020 0.878431
0.600000 0.941176 0.878431
0.815686 0.933333 0.878431
0.976471 0.921569 0.878431
1.000000 0.913725 0.878431
0.000000 1.000000 0.878431
0.000000 1.000000 0.878431
0.000000 1.000000 0.878431
0.152941 1.000000 0.878431
0.360784 1.000000 0.878431
0.552941 1.000000 0.878431
0.760784 1.000000 0.878431
0.941176 1.000000 0.878431
1.000000 1.000000 0.878431
