infra/render-server/luts/vivid.cube
TITLE "Vivid"
LUT_3D_SIZE 5
DOMAIN_MIN 0.0 0.0 0.0
DOMAIN_MAX 1.0 1.0 1.0
0.000000 0.000000 0.000000
0.384314 0.000000 0.000000
0.760784 0.000000 0.000000
1.000000 0.000000 0.000000
1.000000 0.000000 0.000000
0.000000 0.317647 0.000000
0.290196 0.290196 0.000000
0.658824 0.258824 0.000000
0.964706 0.227451 0.000000
1.000000 0.203922 0.000000
0.000000 0.619608 0.000000
0.188235 0.588235 0.000000
0.556863 0.556863 0.000000
0.901961 0.529412 0.000000
1.000000 0.505882 0.000000
0.000000 0.898039 0.000000
0.086275 0.878431 0.000000
0.466667 0.858824 0.000000
0.839216 0.839216 0.000000
1.000000 0.819608 0.000000
0.000000 1.000000 0.000000
0.000000 1.000000 0.000000
0.376471 1.000000 0.000000
0.749020 1.000000 0.000000
1.000000 1.000000 0.000000
0.000000 0.000000 0.400000
0.372549 0.000000 0.372549
0.752941 0.000000 0.345098
1.000000 0.000000 0.317647
1.000000 0.000000 0.290196
0.000000 0.305882 0.305882
0.282353 0.282353 0.282353
0.650980 0.250980 0.250980
0.956863 0.219608 0.219608
1.000000 0.188235 0.188235
0.000000 0.607843 0.207843
0.180392 0.580392 0.180392
0.549020 0.549020 0.149020
0.898039 0.521569 0.117647
1.000000 0.494118 0.086275
0.000000 0.886275 0.109804
0.078431 0.870588 0.078431
0.454902 0.850980 0.047059
0.831373 0.831373 0.023529
1.000000 0.807843 0.000000
0.000000 1.000000 0.007843
0.000000 1.000000 0.000000
0.364706 1.000000 0.000000
0.737255 1.000000 0.000000
1.000000 1.000000 0.000000
0.000000 0.000000 0.800000
0.364706 0.000000 0.768627
0.741176 0.000000 0.741176
1.000000 0.000000 0.713725
1.000000 0.000000 0.682353
0.000000 0.298039 0.698039
0.270588 0.270588 0.670588
0.639216 0.239216 0.639216
0.952941 0.211765 0.611765
1.000000 0.180392 0.580392
0.000000 0.600000 0.600000
0.168627 0.568627 0.568627
0.541176 0.541176 0.541176
0.886275 0.513725 0.513725
1.000000 0.486275 0.486275
0.000000 0.882353 0.505882
0.070588 0.862745 0.478431
0.447059 0.843137 0.447059
0.827451 0.827451 0.419608
1.000000 0.796078 0.392157
0.000000 1.000000 0.411765
0.000000 1.000000 0.384314
0.356863 1.000000 0.356863
0.725490 1.000000 0.325490
1.000000 1.000000 0.301961
0.000000 0.000000 1.000000
0.356863 0.000000 1.000000
0.729412 0.000000 1.000000
1.000000 0.000000 1.000000
1.000000 0.000000 0.992157
0.000000 0.290196 1.000000
0.258824 0.258824 0.984314
0.627451 0.227451 0.964706
0.945098 0.200000 0.945098
1.000000 0.172549 0.925490
0.000000 0.588235 0.937255
0.156863 0.556863 0.921569
0.529412 0.529412 0.901961
0.882353 0.505882 0.882353
1.000000 0.478431 0.862745
0.000000 0.878431 0.878431
0.062745 0.858824 0.858824
0.439216 0.839216 0.839216
0.819608 0.819608 0.819608
1.000000 0.788235 0.788235
0.000000 1.000000 0.807843
0.000000 1.000000 0.776471
0.345098 1.000000 0.745098
0.717647 1.000000 0.717647
1.000000 1.000000 0.686275
0.000000 0.000000 1.000000
0.341176 0.000000 1.000000
0.721569 0.000000 1.000000
1.000000 0.000000 1.000000
1.000000 0.000000 1.000000
0.000000 0.278431 1.000000
0.250980 0.250980 1.000000
0.619608 0.219608 1.000000
0.941176 0.188235 1.000000
1.000000 0.156863 1.000000
0.000000 0.580392 1.000000
0.149020 0.549020 1.000000
0.521569 0.521569 1.000000
0.878431 0.494118 1.000000
1.000000 0.462745 1.000000
0.000000 0.866667 1.000000
0.047059 0.850980 1.000000
0.427451 0.831373 1.000000
0.807843 0.807843 1.000000
1.000000 0.776471 1.000000
0.000000 1.000000 1.000000
0.000000 1.000000 1.000000
0.337255 1.000000 1.000000
0.705882 1.000000 1.000000
1.000000 1.000000 1.000000
