infra/render-server/luts/vivid-warm.cube
TITLE "Vivid Warm"
LUT_3D_SIZE 33
DOMAIN_MIN 0.0 0.0 0.0
DOMAIN_MAX 1.0 1.0 1.0
0.000000 0.000000 0.000000
0.047059 0.000000 0.000000
0.105882 0.000000 0.000000
0.152941 0.000000 0.000000
0.211765 0.000000 0.000000
0.258824 0.000000 0.000000
0.309804 0.000000 0.000000
0.360784 0.000000 0.000000
0.411765 0.000000 0.000000
0.458824 0.000000 0.000000
0.505882 0.000000 0.000000
0.556863 0.000000 0.000000
0.607843 0.000000 0.000000
0.658824 0.000000 0.000000
0.717647 0.000000 0.000000
0.768627 0.000000 0.000000
0.819608 0.000000 0.000000
0.870588 0.000000 0.000000
0.909804 0.000000 0.000000
0.941176 0.000000 0.000000
0.976471 0.000000 0.000000
1.000000 0.000000 0.000000
1.000000 0.000000 0.000000
1.000000 0.000000 0.000000
1.000000 0.000000 0.000000
1.000000 0.000000 0.000000
1.000000 0.000000 0.000000
1.000000 0.000000 0.000000
1.000000 0.000000 0.000000
1.000000 0.000000 0.000000
1.000000 0.000000 0.000000
1.000000 0.000000 0.000000
1.000000 0.000000 0.000000
0.000000 0.039216 0.000000
0.035294 0.035294 0.000000
0.086275 0.031373 0.000000
0.141176 0.027451 0.000000
0.192157 0.023529 0.000000
0.243137 0.015686 0.000000
0.301961 0.015686 0.000000
0.349020 0.011765 0.000000
0.400000 0.007843 0.000000
0.447059 0.003922 0.000000
0.494118 0.000000 0.000000
0.545098 0.000000 0.000000
0.592157 0.000000 0.000000
0.650980 0.000000 0.000000
0.701961 0.000000 0.000000
0.752941 0.000000 0.000000
0.807843 0.000000 0.000000
0.854902 0.000000 0.000000
0.901961 0.000000 0.000000
0.933333 0.000000 0.000000
0.968627 0.000000 0.000000
0.996078 0.000000 0.000000
1.000000 0.000000 0.000000
1.000000 0.000000 0.000000
1.000000 0.000000 0.000000
1.000000 0.000000 0.000000
1.000000 0.000000 0.000000
1.000000 0.000000 0.000000
1.000000 0.000000 0.000000
1.000000 0.000000 0.000000
1.000000 0.000000 0.000000
1.000000 0.000000 0.000000
1.000000 0.000000 0.000000
0.000000 0.078431 0.000000
0.023529 0.074510 0.000000
0.074510 0.070588 0.000000
0.125490 0.066667 0.000000
0.180392 0.062745 0.000000
0.235294 0.062745 0.000000
0.290196 0.058824 0.000000
0.337255 0.054902 0.000000
0.388235 0.047059 0.000000
0.435294 0.043137 0.000000
0.482353 0.039216 0.000000
0.533333 0.035294 0.000000
0.584314 0.035294 0.000000
0.635294 0.031373 0.000000
0.690196 0.027451 0.000000
0.741176 0.023529 0.000000
0.796078 0.015686 0.000000
0.839216 0.011765 0.000000
0.890196 0.011765 0.000000
0.925490 0.007843 0.000000
0.956863 0.003922 0.000000
0.992157 0.000000 0.000000
1.000000 0.000000 0.000000
1.000000 0.000000 0.000000
1.000000 0.000000 0.000000
1.000000 0.000000 0.000000
1.000000 0.000000 0.000000
1.000000 0.000000 0.000000
1.000000 0.000000 0.000000
1.000000 0.000000 0.000000
1.000000 0.000000 0.000000
1.000000 0.000000 0.000000
1.000000 0.000000 0.000000
0.000000 0.117647 0.000000
0.007843 0.113725 0.000000
0.062745 0.109804 0.000000
0.113725 0.105882 0.000000
0.168627 0.105882 0.000000
0.223529 0.101961 0.000000
0.274510 0.098039 0.000000
0.325490 0.094118 0.000000
0.372549 0.086275 0.000000
0.423529 0.082353 0.000000
0.466667 0.078431 0.000000
0.521569 0.078431 0.000000
0.568627 0.074510 0.000000
0.619608 0.070588 0.000000
0.670588 0.066667 0.000000
0.725490 0.062745 0.000000
0.776471 0.058824 0.000000
0.823529 0.058824 0.000000
0.878431 0.054902 0.000000
0.913725 0.047059 0.000000
0.952941 0.043137 0.000000
0.984314 0.039216 0.000000
1.000000 0.035294 0.000000
1.000000 0.031373 0.000000
1.000000 0.031373 0.000000
1.000000 0.027451 0.000000
1.000000 0.023529 0.000000
1.000000 0.015686 0.000000
1.000000 0.011765 0.000000
1.000000 0.007843 0.000000
1.000000 0.007843 0.000000
1.000000 0.003922 0.000000
1.000000 0.000000 0.000000
0.000000 0.156863 0.000000
0.000000 0.152941 0.000000
0.043137 0.149020 0.000000
0.105882 0.149020 0.000000
0.152941 0.145098 0.000000
0.211765 0.141176 0.000000
0.258824 0.137255 0.000000
0.309804 0.133333 0.000000
0.356863 0.129412 0.000000
0.407843 0.125490 0.000000
0.458824 0.125490 0.000000
0.505882 0.117647 0.000000
0.556863 0.113725 0.000000
0.607843 0.109804 0.000000
0.658824 0.105882 0.000000
0.709804 0.101961 0.000000
0.764706 0.098039 0.000000
0.811765 0.098039 0.000000
0.862745 0.094118 0.000000
0.909804 0.086275 0.000000
0.941176 0.082353 0.000000
0.976471 0.078431 0.000000
1.000000 0.074510 0.000000
1.000000 0.074510 0.000000
1.000000 0.070588 0.000000
1.000000 0.066667 0.000000
1.000000 0.062745 0.000000
1.000000 0.058824 0.000000
1.000000 0.054902 0.000000
1.000000 0.054902 0.000000
1.000000 0.047059 0.000000
1.000000 0.043137 0.000000
1.000000 0.039216 0.000000
0.000000 0.203922 0.000000
0.000000 0.200000 0.000000
0.031373 0.188235 0.000000
0.086275 0.188235 0.000000
0.141176 0.184314 0.000000
0.192157 0.180392 0.000000
0.243137 0.176471 0.000000
0.298039 0.172549 0.000000
0.345098 0.168627 0.000000
0.400000 0.168627 0.000000
0.447059 0.164706 0.000000
0.494118 0.156863 0.000000
0.545098 0.152941 0.000000
0.592157 0.149020 0.000000
0.647059 0.145098 0.000000
0.698039 0.141176 0.000000
0.752941 0.141176 0.000000
0.800000 0.137255 0.000000
0.850980 0.133333 0.000000
0.901961 0.129412 0.000000
0.933333 0.125490 0.000000
0.968627 0.117647 0.000000
0.996078 0.117647 0.000000
1.000000 0.113725 0.000000
1.000000 0.109804 0.000000
1.000000 0.105882 0.000000
1.000000 0.101961 0.000000
1.000000 0.098039 0.000000
1.000000 0.094118 0.000000
1.000000 0.094118 0.000000
1.000000 0.086275 0.000000
1.000000 0.082353 0.000000
1.000000 0.078431 0.000000
0.000000 0.243137 0.000000
0.000000 0.239216 0.000000
0.023529 0.239216 0.000000
0.074510 0.231373 0.000000
0.125490 0.227451 0.000000
0.180392 0.223529 0.000000
0.231373 0.219608 0.000000
0.286275 0.215686 0.000000
0.337255 0.215686 0.000000
0.388235 0.211765 0.000000
0.435294 0.207843 0.000000
0.482353 0.203922 0.000000
0.533333 0.200000 0.000000
0.576471 0.188235 0.000000
0.627451 0.184314 0.000000
0.690196 0.184314 0.000000
0.741176 0.180392 0.000000
0.780392 0.176471 0.000000
0.839216 0.172549 0.000000
0.890196 0.168627 0.000000
0.925490 0.164706 0.000000
0.956863 0.164706 0.000000
0.988235 0.156863 0.000000
1.000000 0.152941 0.000000
1.000000 0.149020 0.000000
1.000000 0.145098 0.000000
1.000000 0.141176 0.000000
1.000000 0.137255 0.000000
1.000000 0.137255 0.000000
1.000000 0.133333 0.000000
1.000000 0.129412 0.000000
1.000000 0.125490 0.000000
1.000000 0.117647 0.000000
0.000000 0.282353 0.000000
0.000000 0.282353 0.000000
0.007843 0.278431 0.000000
0.062745 0.274510 0.000000
0.113725 0.270588 0.000000
0.164706 0.262745 0.000000
0.219608 0.258824 0.000000
0.274510 0.258824 0.000000
0.325490 0.254902 0.000000
0.372549 0.250980 0.000000
0.423529 0.247059 0.000000
0.466667 0.243137 0.000000
0.517647 0.239216 0.000000
0.564706 0.231373 0.000000
0.619608 0.231373 0.000000
0.670588 0.227451 0.000000
0.725490 0.223529 0.000000
0.772549 0.219608 0.000000
0.823529 0.215686 0.000000
0.878431 0.211765 0.000000
0.913725 0.211765 0.000000
0.945098 0.207843 0.000000
0.980392 0.203922 0.000000
1.000000 0.200000 0.000000
1.000000 0.188235 0.000000
1.000000 0.184314 0.000000
1.000000 0.180392 0.000000
1.000000 0.180392 0.000000
1.000000 0.176471 0.000000
1.000000 0.172549 0.000000
1.000000 0.168627 0.000000
1.000000 0.164706 0.000000
1.000000 0.156863 0.000000
0.000000 0.321569 0.000000
0.000000 0.317647 0.000000
0.000000 0.313725 0.000000
0.043137 0.309804 0.000000
0.098039 0.305882 0.000000
0.149020 0.301961 0.000000
0.211765 0.301961 0.000000
0.258824 0.298039 0.000000
0.309804 0.294118 0.000000
0.356863 0.290196 0.000000
0.407843 0.286275 0.000000
0.454902 0.282353 0.000000
0.501961 0.278431 0.000000
0.556863 0.278431 0.000000
0.607843 0.274510 0.000000
0.658824 0.270588 0.000000
0.709804 0.262745 0.000000
0.760784 0.258824 0.000000
0.811765 0.254902 0.000000
0.862745 0.254902 0.000000
0.905882 0.250980 0.000000
0.937255 0.247059 0.000000
0.976471 0.243137 0.000000
1.000000 0.239216 0.000000
1.000000 0.231373 0.000000
1.000000 0.227451 0.000000
1.000000 0.227451 0.000000
1.000000 0.223529 0.000000
1.000000 0.219608 0.000000
1.000000 0.215686 0.000000
1.000000 0.211765 0.000000
1.000000 0.207843 0.000000
1.000000 0.207843 0.000000
0.000000 0.360784 0.000000
0.000000 0.356863 0.000000
0.000000 0.349020 0.000000
0.031373 0.345098 0.000000
0.082353 0.341176 0.000000
0.141176 0.341176 0.000000
0.192157 0.337255 0.000000
0.243137 0.333333 0.000000
0.298039 0.329412 0.000000
0.345098 0.325490 0.000000
0.396078 0.321569 0.000000
0.443137 0.317647 0.000000
0.494118 0.317647 0.000000
0.545098 0.313725 0.000000
0.592157 0.309804 0.000000
0.647059 0.305882 0.000000
0.698039 0.301961 0.000000
0.745098 0.298039 0.000000
0.800000 0.298039 0.000000
0.850980 0.294118 0.000000
0.894118 0.290196 0.000000
0.933333 0.286275 0.000000
0.968627 0.282353 0.000000
0.996078 0.278431 0.000000
1.000000 0.274510 0.000000
1.000000 0.274510 0.000000
1.000000 0.270588 0.000000
1.000000 0.262745 0.000000
1.000000 0.258824 0.000000
1.000000 0.254902 0.000000
1.000000 0.250980 0.000000
1.000000 0.247059 0.000000
1.000000 0.247059 0.000000
0.000000 0.400000 0.000000
0.000000 0.392157 0.000000
0.000000 0.388235 0.000000
0.015686 0.384314 0.000000
0.070588 0.380392 0.000000
0.125490 0.380392 0.000000
0.180392 0.376471 0.000000
0.231373 0.372549 0.000000
0.286275 0.368627 0.000000
0.333333 0.364706 0.000000
0.384314 0.360784 0.000000
0.435294 0.360784 0.000000
0.482353 0.356863 0.000000
0.533333 0.349020 0.000000
0.576471 0.345098 0.000000
0.627451 0.341176 0.000000
0.682353 0.337255 0.000000
0.729412 0.337255 0.000000
0.780392 0.333333 0.000000
0.835294 0.329412 0.000000
0.886275 0.325490 0.000000
0.925490 0.321569 0.000000
0.956863 0.317647 0.000000
0.988235 0.313725 0.000000
1.000000 0.313725 0.000000
1.000000 0.309804 0.000000
1.000000 0.305882 0.000000
1.000000 0.301961 0.000000
1.000000 0.298039 0.000000
1.000000 0.294118 0.000000
1.000000 0.290196 0.000000
1.000000 0.290196 0.000000
1.000000 0.286275 0.000000
0.000000 0.435294 0.000000
0.000000 0.431373 0.000000
0.000000 0.427451 0.000000
0.003922 0.423529 0.000000
0.062745 0.423529 0.000000
0.113725 0.419608 0.000000
0.164706 0.415686 0.000000
0.219608 0.411765 0.000000
0.270588 0.407843 0.000000
0.321569 0.403922 0.000000
0.372549 0.403922 0.000000
0.423529 0.400000 0.000000
0.466667 0.392157 0.000000
0.517647 0.388235 0.000000
0.564706 0.384314 0.000000
0.615686 0.380392 0.000000
0.666667 0.376471 0.000000
0.717647 0.376471 0.000000
0.768627 0.372549 0.000000
0.819608 0.368627 0.000000
0.878431 0.364706 0.000000
0.913725 0.360784 0.000000
0.945098 0.356863 0.000000
0.980392 0.356863 0.000000
1.000000 0.349020 0.000000
1.000000 0.345098 0.000000
1.000000 0.341176 0.000000
1.000000 0.337255 0.000000
1.000000 0.333333 0.000000
1.000000 0.329412 0.000000
1.000000 0.329412 0.000000
1.000000 0.325490 0.000000
1.000000 0.321569 0.000000
0.000000 0.470588 0.000000
0.000000 0.466667 0.000000
0.000000 0.462745 0.000000
0.000000 0.462745 0.000000
0.043137 0.458824 0.000000
0.098039 0.454902 0.000000
0.149020 0.450980 0.000000
0.200000 0.447059 0.000000
0.254902 0.443137 0.000000
0.309804 0.443137 0.000000
0.356863 0.439216 0.000000
0.407843 0.435294 0.000000
0.454902 0.431373 0.000000
0.501961 0.427451 0.000000
0.552941 0.423529 0.000000
0.600000 0.419608 0.000000
0.658824 0.419608 0.000000
0.701961 0.415686 0.000000
0.752941 0.411765 0.000000
0.811765 0.407843 0.000000
0.862745 0.403922 0.000000
0.905882 0.400000 0.000000
0.937255 0.400000 0.000000
0.972549 0.392157 0.000000
1.000000 0.388235 0.000000
1.000000 0.384314 0.000000
1.000000 0.380392 0.000000
1.000000 0.376471 0.000000
1.000000 0.372549 0.000000
1.000000 0.372549 0.000000
1.000000 0.368627 0.000000
1.000000 0.364706 0.000000
1.000000 0.360784 0.000000
0.000000 0.509804 0.000000
0.000000 0.505882 0.000000
0.000000 0.505882 0.000000
0.000000 0.501961 0.000000
0.031373 0.498039 0.000000
0.082353 0.494118 0.000000
0.137255 0.490196 0.000000
0.188235 0.486275 0.000000
0.243137 0.486275 0.000000
0.298039 0.478431 0.000000
0.345098 0.474510 0.000000
0.396078 0.470588 0.000000
0.443137 0.466667 0.000000
0.490196 0.462745 0.000000
0.541176 0.458824 0.000000
0.592157 0.458824 0.000000
0.647059 0.454902 0.000000
0.690196 0.450980 0.000000
0.745098 0.447059 0.000000
0.800000 0.443137 0.000000
0.850980 0.439216 0.000000
0.894118 0.439216 0.000000
0.929412 0.435294 0.000000
0.964706 0.431373 0.000000
0.996078 0.427451 0.000000
1.000000 0.423529 0.000000
1.000000 0.419608 0.000000
1.000000 0.415686 0.000000
1.000000 0.415686 0.000000
1.000000 0.411765 0.000000
1.000000 0.407843 0.000000
1.000000 0.403922 0.000000
1.000000 0.400000 0.000000
0.000000 0.545098 0.000000
0.000000 0.545098 0.000000
0.000000 0.541176 0.000000
0.000000 0.537255 0.000000
0.015686 0.533333 0.000000
0.070588 0.529412 0.000000
0.121569 0.525490 0.000000
0.176471 0.521569 0.000000
0.231373 0.521569 0.000000
0.286275 0.517647 0.000000
0.333333 0.513725 0.000000
0.384314 0.509804 0.000000
0.431373 0.505882 0.000000
0.478431 0.501961 0.000000
0.533333 0.501961 0.000000
0.576471 0.498039 0.000000
0.627451 0.494118 0.000000
0.674510 0.490196 0.000000
0.729412 0.486275 0.000000
0.780392 0.478431 0.000000
0.835294 0.478431 0.000000
0.886275 0.474510 0.000000
0.921569 0.470588 0.000000
0.956863 0.466667 0.000000
0.988235 0.462745 0.000000
1.000000 0.458824 0.000000
1.000000 0.454902 0.000000
1.000000 0.454902 0.000000
1.000000 0.450980 0.000000
1.000000 0.447059 0.000000
1.000000 0.443137 0.000000
1.000000 0.439216 0.000000
1.000000 0.435294 0.000000
0.000000 0.588235 0.000000
0.000000 0.584314 0.000000
0.000000 0.580392 0.000000
0.000000 0.576471 0.000000
0.003922 0.572549 0.000000
0.058824 0.564706 0.000000
0.109804 0.560784 0.000000
0.164706 0.560784 0.000000
0.219608 0.556863 0.000000
0.270588 0.552941 0.000000
0.321569 0.549020 0.000000
0.364706 0.545098 0.000000
0.415686 0.541176 0.000000
0.466667 0.541176 0.000000
0.517647 0.537255 0.000000
0.564706 0.533333 0.000000
0.615686 0.529412 0.000000
0.662745 0.525490 0.000000
0.717647 0.521569 0.000000
0.768627 0.521569 0.000000
0.819608 0.517647 0.000000
0.874510 0.513725 0.000000
0.913725 0.509804 0.000000
0.945098 0.505882 0.000000
0.980392 0.501961 0.000000
1.000000 0.498039 0.000000
1.000000 0.498039 0.000000
1.000000 0.494118 0.000000
1.000000 0.490196 0.000000
1.000000 0.486275 0.000000
1.000000 0.478431 0.000000
1.000000 0.474510 0.000000
1.000000 0.470588 0.000000
0.000000 0.631373 0.000000
0.000000 0.627451 0.000000
0.000000 0.623529 0.000000
0.000000 0.619608 0.000000
0.000000 0.615686 0.000000
0.039216 0.611765 0.000000
0.098039 0.611765 0.000000
0.149020 0.607843 0.000000
0.200000 0.600000 0.000000
0.254902 0.592157 0.000000
0.305882 0.588235 0.000000
0.352941 0.584314 0.000000
0.407843 0.584314 0.000000
0.454902 0.580392 0.000000
0.501961 0.576471 0.000000
0.552941 0.572549 0.000000
0.600000 0.564706 0.000000
0.650980 0.560784 0.000000
0.701961 0.560784 0.000000
0.752941 0.556863 0.000000
0.807843 0.552941 0.000000
0.858824 0.549020 0.000000
0.905882 0.545098 0.000000
0.937255 0.541176 0.000000
0.972549 0.537255 0.000000
1.000000 0.537255 0.000000
1.000000 0.533333 0.000000
1.000000 0.529412 0.000000
1.000000 0.525490 0.000000
1.000000 0.521569 0.000000
1.000000 0.517647 0.000000
1.000000 0.513725 0.000000
1.000000 0.513725 0.000000
0.000000 0.666667 0.000000
0.000000 0.662745 0.000000
0.000000 0.658824 0.000000
0.000000 0.654902 0.000000
0.000000 0.650980 0.000000
0.031373 0.647059 0.000000
0.082353 0.647059 0.000000
0.137255 0.639216 0.000000
0.188235 0.635294 0.000000
0.243137 0.631373 0.000000
0.298039 0.627451 0.000000
0.345098 0.623529 0.000000
0.396078 0.623529 0.000000
0.443137 0.619608 0.000000
0.490196 0.615686 0.000000
0.541176 0.611765 0.000000
0.592157 0.607843 0.000000
0.635294 0.600000 0.000000
0.694118 0.600000 0.000000
0.745098 0.592157 0.000000
0.800000 0.588235 0.000000
0.850980 0.584314 0.000000
0.894118 0.580392 0.000000
0.929412 0.576471 0.000000
0.964706 0.572549 0.000000
0.996078 0.572549 0.000000
1.000000 0.564706 0.000000
1.000000 0.560784 0.000000
1.000000 0.556863 0.000000
1.000000 0.552941 0.000000
1.000000 0.549020 0.000000
1.000000 0.545098 0.000000
1.000000 0.545098 0.000000
0.000000 0.705882 0.000000
0.000000 0.701961 0.000000
0.000000 0.698039 0.000000
0.000000 0.694118 0.000000
0.000000 0.690196 0.000000
0.015686 0.690196 0.000000
0.070588 0.686275 0.000000
0.121569 0.682353 0.000000
0.180392 0.678431 0.000000
0.231373 0.670588 0.000000
0.286275 0.666667 0.000000
0.333333 0.666667 0.000000
0.384314 0.662745 0.000000
0.431373 0.658824 0.000000
0.478431 0.654902 0.000000
0.533333 0.650980 0.000000
0.576471 0.647059 0.000000
0.623529 0.647059 0.000000
0.674510 0.639216 0.000000
0.729412 0.635294 0.000000
0.780392 0.631373 0.000000
0.835294 0.627451 0.000000
0.886275 0.623529 0.000000
0.921569 0.619608 0.000000
0.956863 0.619608 0.000000
0.988235 0.615686 0.000000
1.000000 0.611765 0.000000
1.000000 0.607843 0.000000
1.000000 0.600000 0.000000
1.000000 0.592157 0.000000
1.000000 0.588235 0.000000
1.000000 0.588235 0.000000
1.000000 0.584314 0.000000
0.000000 0.749020 0.000000
0.000000 0.741176 0.000000
0.000000 0.737255 0.000000
0.000000 0.733333 0.000000
0.000000 0.733333 0.000000
0.003922 0.729412 0.000000
0.058824 0.725490 0.000000
0.113725 0.721569 0.000000
0.164706 0.717647 0.000000
0.219608 0.709804 0.000000
0.270588 0.705882 0.000000
0.321569 0.705882 0.000000
0.364706 0.701961 0.000000
0.415686 0.698039 0.000000
0.466667 0.694118 0.000000
0.517647 0.690196 0.000000
0.564706 0.686275 0.000000
0.611765 0.686275 0.000000
0.662745 0.682353 0.000000
0.717647 0.678431 0.000000
0.768627 0.670588 0.000000
0.819608 0.666667 0.000000
0.874510 0.662745 0.000000
0.913725 0.662745 0.000000
0.945098 0.658824 0.000000
0.980392 0.654902 0.000000
1.000000 0.650980 0.000000
1.000000 0.647059 0.000000
1.000000 0.639216 0.000000
1.000000 0.635294 0.000000
1.000000 0.635294 0.000000
1.000000 0.631373 0.000000
1.000000 0.627451 0.000000
0.000000 0.788235 0.000000
0.000000 0.780392 0.000000
0.000000 0.776471 0.000000
0.000000 0.776471 0.000000
0.000000 0.772549 0.000000
0.000000 0.768627 0.000000
0.043137 0.764706 0.000000
0.098039 0.760784 0.000000
0.149020 0.756863 0.000000
0.200000 0.752941 0.000000
0.254902 0.752941 0.000000
0.305882 0.749020 0.000000
0.352941 0.741176 0.000000
0.407843 0.737255 0.000000
0.454902 0.733333 0.000000
0.501961 0.729412 0.000000
0.552941 0.729412 0.000000
0.596078 0.725490 0.000000
0.650980 0.721569 0.000000
0.701961 0.717647 0.000000
0.752941 0.709804 0.000000
0.807843 0.705882 0.000000
0.862745 0.705882 0.000000
0.905882 0.701961 0.000000
0.937255 0.698039 0.000000
0.972549 0.694118 0.000000
1.000000 0.690196 0.000000
1.000000 0.686275 0.000000
1.000000 0.682353 0.000000
1.000000 0.682353 0.000000
1.000000 0.678431 0.000000
1.000000 0.670588 0.000000
1.000000 0.666667 0.000000
0.000000 0.831373 0.000000
0.000000 0.827451 0.000000
0.000000 0.827451 0.000000
0.000000 0.823529 0.000000
0.000000 0.815686 0.000000
0.000000 0.811765 0.000000
0.031373 0.807843 0.000000
0.082353 0.803922 0.000000
0.137255 0.800000 0.000000
0.188235 0.800000 0.000000
0.239216 0.792157 0.000000
0.294118 0.788235 0.000000
0.345098 0.780392 0.000000
0.396078 0.776471 0.000000
0.443137 0.772549 0.000000
0.490196 0.772549 0.000000
0.541176 0.768627 0.000000
0.584314 0.764706 0.000000
0.635294 0.760784 0.000000
0.690196 0.756863 0.000000
0.741176 0.752941 0.000000
0.800000 0.752941 0.000000
0.850980 0.749020 0.000000
0.894118 0.741176 0.000000
0.929412 0.737255 0.000000
0.964706 0.733333 0.000000
0.996078 0.729412 0.000000
1.000000 0.725490 0.000000
1.000000 0.725490 0.000000
1.000000 0.721569 0.000000
1.000000 0.717647 0.000000
1.000000 0.709804 0.000000
1.000000 0.705882 0.000000
0.000000 0.858824 0.000000
0.000000 0.858824 0.000000
0.000000 0.854902 0.000000
0.000000 0.854902 0.000000
0.000000 0.850980 0.000000
0.000000 0.847059 0.000000
0.015686 0.843137 0.000000
0.070588 0.843137 0.000000
0.121569 0.843137 0.000000
0.176471 0.839216 0.000000
0.227451 0.835294 0.000000
0.286275 0.831373 0.000000
0.333333 0.827451 0.000000
0.384314 0.823529 0.000000
0.431373 0.823529 0.000000
0.478431 0.815686 0.000000
0.529412 0.811765 0.000000
0.568627 0.807843 0.000000
0.619608 0.803922 0.000000
0.670588 0.800000 0.000000
0.729412 0.800000 0.000000
0.780392 0.792157 0.000000
0.835294 0.788235 0.000000
0.886275 0.780392 0.000000
0.921569 0.776471 0.000000
0.956863 0.772549 0.000000
0.988235 0.768627 0.000000
1.000000 0.768627 0.000000
1.000000 0.764706 0.000000
1.000000 0.760784 0.000000
1.000000 0.756863 0.000000
1.000000 0.752941 0.000000
1.000000 0.749020 0.000000
0.000000 0.886275 0.000000
0.000000 0.882353 0.000000
0.000000 0.882353 0.000000
0.000000 0.878431 0.000000
0.000000 0.874510 0.000000
0.000000 0.874510 0.000000
0.003922 0.870588 0.000000
0.058824 0.870588 0.000000
0.109804 0.866667 0.000000
0.160784 0.862745 0.000000
0.219608 0.862745 0.000000
0.270588 0.858824 0.000000
0.321569 0.854902 0.000000
0.364706 0.854902 0.000000
0.415686 0.854902 0.000000
0.462745 0.850980 0.000000
0.513725 0.847059 0.000000
0.556863 0.843137 0.000000
0.607843 0.843137 0.000000
0.662745 0.843137 0.000000
0.717647 0.839216 0.000000
0.768627 0.835294 0.000000
0.819608 0.831373 0.000000
0.874510 0.827451 0.000000
0.913725 0.823529 0.000000
0.945098 0.815686 0.000000
0.980392 0.815686 0.000000
1.000000 0.811765 0.000000
1.000000 0.807843 0.000000
1.000000 0.803922 0.000000
1.000000 0.800000 0.000000
1.000000 0.792157 0.000000
1.000000 0.788235 0.000000
0.000000 0.913725 0.000000
0.000000 0.909804 0.000000
0.000000 0.905882 0.000000
0.000000 0.901961 0.000000
0.000000 0.901961 0.000000
0.000000 0.898039 0.000000
0.000000 0.898039 0.000000
0.039216 0.894118 0.000000
0.090196 0.894118 0.000000
0.149020 0.890196 0.000000
0.200000 0.886275 0.000000
0.254902 0.882353 0.000000
0.305882 0.882353 0.000000
0.352941 0.882353 0.000000
0.403922 0.878431 0.000000
0.450980 0.874510 0.000000
0.501961 0.874510 0.000000
0.545098 0.870588 0.000000
0.592157 0.866667 0.000000
0.650980 0.866667 0.000000
0.701961 0.862745 0.000000
0.752941 0.862745 0.000000
0.807843 0.858824 0.000000
0.858824 0.854902 0.000000
0.905882 0.854902 0.000000
0.937255 0.854902 0.000000
0.972549 0.850980 0.000000
1.000000 0.847059 0.000000
1.000000 0.843137 0.000000
1.000000 0.843137 0.000000
1.000000 0.839216 0.000000
1.000000 0.835294 0.000000
1.000000 0.835294 0.000000
0.000000 0.937255 0.000000
0.000000 0.933333 0.000000
0.000000 0.933333 0.000000
0.000000 0.929412 0.000000
0.000000 0.925490 0.000000
0.000000 0.925490 0.000000
0.000000 0.921569 0.000000
0.027451 0.921569 0.000000
0.082353 0.917647 0.000000
0.137255 0.913725 0.000000
0.188235 0.913725 0.000000
0.239216 0.909804 0.000000
0.294118 0.909804 0.000000
0.341176 0.905882 0.000000
0.392157 0.901961 0.000000
0.443137 0.901961 0.000000
0.490196 0.898039 0.000000
0.533333 0.894118 0.000000
0.584314 0.894118 0.000000
0.635294 0.894118 0.000000
0.690196 0.890196 0.000000
0.741176 0.886275 0.000000
0.796078 0.882353 0.000000
0.847059 0.882353 0.000000
0.894118 0.882353 0.000000
0.929412 0.878431 0.000000
0.964706 0.874510 0.000000
0.996078 0.874510 0.000000
1.000000 0.870588 0.000000
1.000000 0.866667 0.000000
1.000000 0.862745 0.000000
1.000000 0.862745 0.000000
1.000000 0.862745 0.000000
0.000000 0.960784 0.000000
0.000000 0.960784 0.000000
0.000000 0.956863 0.000000
0.000000 0.952941 0.000000
0.000000 0.952941 0.000000
0.000000 0.952941 0.000000
0.000000 0.949020 0.000000
0.015686 0.945098 0.000000
0.070588 0.941176 0.000000
0.121569 0.941176 0.000000
0.176471 0.937255 0.000000
0.227451 0.937255 0.000000
0.278431 0.933333 0.000000
0.329412 0.933333 0.000000
0.384314 0.929412 0.000000
0.431373 0.925490 0.000000
0.478431 0.921569 0.000000
0.521569 0.921569 0.000000
0.568627 0.921569 0.000000
0.619608 0.917647 0.000000
0.670588 0.913725 0.000000
0.725490 0.913725 0.000000
0.776471 0.909804 0.000000
0.835294 0.909804 0.000000
0.886275 0.905882 0.000000
0.921569 0.901961 0.000000
0.956863 0.901961 0.000000
