infra/render-server/luts/vivid-cool.cube
TITLE "Vivid Cool"
LUT_3D_SIZE 33
DOMAIN_MIN 0.0 0.0 0.0
DOMAIN_MAX 1.0 1.0 1.0
0.000000 0.000000 0.000000
0.039216 0.000000 0.000000
0.086275 0.000000 0.000000
0.125490 0.000000 0.000000
0.172549 0.000000 0.000000
0.211765 0.000000 0.000000
0.254902 0.000000 0.000000
0.294118 0.000000 0.000000
0.337255 0.000000 0.000000
0.372549 0.000000 0.000000
0.411765 0.000000 0.000000
0.454902 0.000000 0.000000
0.494118 0.000000 0.000000
0.537255 0.000000 0.000000
0.584314 0.000000 0.000000
0.627451 0.000000 0.000000
0.666667 0.000000 0.000000
0.709804 0.000000 0.000000
0.741176 0.000000 0.000000
0.768627 0.000000 0.000000
0.796078 0.000000 0.000000
0.823529 0.000000 0.000000
0.847059 0.000000 0.000000
0.878431 0.000000 0.000000
0.878431 0.000000 0.000000
0.878431 0.000000 0.000000
0.878431 0.000000 0.000000
0.878431 0.000000 0.000000
0.878431 0.000000 0.000000
0.878431 0.000000 0.000000
0.878431 0.000000 0.000000
0.878431 0.000000 0.000000
0.878431 0.000000 0.000000
0.000000 0.039216 0.000000
0.027451 0.035294 0.000000
0.070588 0.031373 0.000000
0.113725 0.027451 0.000000
0.156863 0.023529 0.000000
0.200000 0.015686 0.000000
0.247059 0.015686 0.000000
0.286275 0.011765 0.000000
0.325490 0.007843 0.000000
0.364706 0.003922 0.000000
0.400000 0.000000 0.000000
0.443137 0.000000 0.000000
0.482353 0.000000 0.000000
0.529412 0.000000 0.000000
0.572549 0.000000 0.000000
0.611765 0.000000 0.000000
0.658824 0.000000 0.000000
0.694118 0.000000 0.000000
0.733333 0.000000 0.000000
0.760784 0.000000 0.000000
0.788235 0.000000 0.000000
0.811765 0.000000 0.000000
0.843137 0.000000 0.000000
0.870588 0.000000 0.000000
0.878431 0.000000 0.000000
0.878431 0.000000 0.000000
0.878431 0.000000 0.000000
0.878431 0.000000 0.000000
0.878431 0.000000 0.000000
0.878431 0.000000 0.000000
0.878431 0.000000 0.000000
0.878431 0.000000 0.000000
0.878431 0.000000 0.000000
0.000000 0.078431 0.000000
0.019608 0.074510 0.000000
0.058824 0.070588 0.000000
0.101961 0.066667 0.000000
0.145098 0.062745 0.000000
0.192157 0.062745 0.000000
0.235294 0.058824 0.000000
0.274510 0.054902 0.000000
0.313725 0.047059 0.000000
0.352941 0.043137 0.000000
0.392157 0.039216 0.000000
0.431373 0.035294 0.000000
0.474510 0.035294 0.000000
0.517647 0.031373 0.000000
0.560784 0.027451 0.000000
0.603922 0.023529 0.000000
0.647059 0.015686 0.000000
0.686275 0.011765 0.000000
0.725490 0.011765 0.000000
0.752941 0.007843 0.000000
0.776471 0.003922 0.000000
0.807843 0.000000 0.000000
0.835294 0.000000 0.000000
0.862745 0.000000 0.000000
0.878431 0.000000 0.000000
0.878431 0.000000 0.000000
0.878431 0.000000 0.000000
0.878431 0.000000 0.000000
0.878431 0.000000 0.000000
0.878431 0.000000 0.000000
0.878431 0.000000 0.000000
0.878431 0.000000 0.000000
0.878431 0.000000 0.000000
0.000000 0.117647 0.000000
0.003922 0.113725 0.000000
0.050980 0.109804 0.000000
0.090196 0.105882 0.000000
0.137255 0.105882 0.000000
0.180392 0.101961 0.000000
0.223529 0.098039 0.000000
0.262745 0.094118 0.000000
0.301961 0.086275 0.000000
0.345098 0.082353 0.000000
0.380392 0.078431 0.000000
0.427451 0.078431 0.000000
0.462745 0.074510 0.000000
0.505882 0.070588 0.000000
0.545098 0.066667 0.000000
0.592157 0.062745 0.000000
0.631373 0.058824 0.000000
0.670588 0.058824 0.000000
0.717647 0.054902 0.000000
0.745098 0.047059 0.000000
0.776471 0.043137 0.000000
0.803922 0.039216 0.000000
0.831373 0.035294 0.000000
0.858824 0.031373 0.000000
0.878431 0.031373 0.000000
0.878431 0.027451 0.000000
0.878431 0.023529 0.000000
0.878431 0.015686 0.000000
0.878431 0.011765 0.000000
0.878431 0.007843 0.000000
0.878431 0.007843 0.000000
0.878431 0.003922 0.000000
0.878431 0.000000 0.000000
0.000000 0.156863 0.000000
0.000000 0.152941 0.000000
0.035294 0.149020 0.000000
0.086275 0.149020 0.000000
0.125490 0.145098 0.000000
0.172549 0.141176 0.000000
0.211765 0.137255 0.000000
0.254902 0.133333 0.000000
0.290196 0.129412 0.000000
0.333333 0.125490 0.000000
0.372549 0.125490 0.000000
0.411765 0.117647 0.000000
0.454902 0.113725 0.000000
0.494118 0.109804 0.000000
0.537255 0.105882 0.000000
0.576471 0.101961 0.000000
0.623529 0.098039 0.000000
0.658824 0.098039 0.000000
0.701961 0.094118 0.000000
0.741176 0.086275 0.000000
0.768627 0.082353 0.000000
0.796078 0.078431 0.000000
0.823529 0.074510 0.000000
0.847059 0.074510 0.000000
0.874510 0.070588 0.000000
0.878431 0.066667 0.000000
0.878431 0.062745 0.000000
0.878431 0.058824 0.000000
0.878431 0.054902 0.000000
0.878431 0.054902 0.000000
0.878431 0.047059 0.000000
0.878431 0.043137 0.000000
0.878431 0.039216 0.000000
0.000000 0.203922 0.000000
0.000000 0.200000 0.000000
0.027451 0.188235 0.000000
0.070588 0.188235 0.000000
0.113725 0.184314 0.000000
0.156863 0.180392 0.000000
0.200000 0.176471 0.000000
0.243137 0.172549 0.000000
0.282353 0.168627 0.000000
0.325490 0.168627 0.000000
0.364706 0.164706 0.000000
0.400000 0.156863 0.000000
0.443137 0.152941 0.000000
0.482353 0.149020 0.000000
0.525490 0.145098 0.000000
0.568627 0.141176 0.000000
0.611765 0.141176 0.000000
0.650980 0.137255 0.000000
0.690196 0.133333 0.000000
0.733333 0.129412 0.000000
0.760784 0.125490 0.000000
0.788235 0.117647 0.000000
0.811765 0.117647 0.000000
0.839216 0.113725 0.000000
0.866667 0.109804 0.000000
0.878431 0.105882 0.000000
0.878431 0.101961 0.000000
0.878431 0.098039 0.000000
0.878431 0.094118 0.000000
0.878431 0.094118 0.000000
0.878431 0.086275 0.000000
0.878431 0.082353 0.000000
0.878431 0.078431 0.000000
0.000000 0.243137 0.000000
0.000000 0.239216 0.000000
0.019608 0.239216 0.000000
0.058824 0.231373 0.000000
0.101961 0.227451 0.000000
0.145098 0.223529 0.000000
0.188235 0.219608 0.000000
0.231373 0.215686 0.000000
0.274510 0.215686 0.000000
0.313725 0.211765 0.000000
0.352941 0.207843 0.000000
0.392157 0.203922 0.000000
0.431373 0.200000 0.000000
0.470588 0.188235 0.000000
0.513725 0.184314 0.000000
0.560784 0.184314 0.000000
0.603922 0.180392 0.000000
0.635294 0.176471 0.000000
0.686275 0.172549 0.000000
0.725490 0.168627 0.000000
0.752941 0.164706 0.000000
0.776471 0.164706 0.000000
0.803922 0.156863 0.000000
0.831373 0.152941 0.000000
0.862745 0.149020 0.000000
0.878431 0.145098 0.000000
0.878431 0.141176 0.000000
0.878431 0.137255 0.000000
0.878431 0.137255 0.000000
0.878431 0.133333 0.000000
0.878431 0.129412 0.000000
0.878431 0.125490 0.000000
0.878431 0.117647 0.000000
0.000000 0.282353 0.000000
0.000000 0.282353 0.000000
0.003922 0.278431 0.000000
0.050980 0.274510 0.000000
0.090196 0.270588 0.000000
0.133333 0.262745 0.000000
0.176471 0.258824 0.000000
0.223529 0.258824 0.000000
0.262745 0.254902 0.000000
0.301961 0.250980 0.000000
0.345098 0.247059 0.000000
0.380392 0.243137 0.000000
0.423529 0.239216 0.000000
0.458824 0.231373 0.000000
0.505882 0.231373 0.000000
0.545098 0.227451 0.000000
0.592157 0.223529 0.000000
0.631373 0.219608 0.000000
0.670588 0.215686 0.000000
0.717647 0.211765 0.000000
0.745098 0.211765 0.000000
0.772549 0.207843 0.000000
0.800000 0.203922 0.000000
0.831373 0.200000 0.000000
0.858824 0.188235 0.000000
0.878431 0.184314 0.000000
0.878431 0.180392 0.000000
0.878431 0.180392 0.000000
0.878431 0.176471 0.000000
0.878431 0.172549 0.000000
0.878431 0.168627 0.000000
0.878431 0.164706 0.000000
0.878431 0.156863 0.000000
0.000000 0.321569 0.000000
0.000000 0.317647 0.000000
0.000000 0.313725 0.000000
0.035294 0.309804 0.000000
0.082353 0.305882 0.000000
0.121569 0.301961 0.000000
0.172549 0.301961 0.000000
0.211765 0.298039 0.000000
0.254902 0.294118 0.000000
0.290196 0.290196 0.000000
0.333333 0.286275 0.000000
0.372549 0.282353 0.000000
0.407843 0.278431 0.000000
0.454902 0.278431 0.000000
0.494118 0.274510 0.000000
0.537255 0.270588 0.000000
0.576471 0.262745 0.000000
0.619608 0.258824 0.000000
0.658824 0.254902 0.000000
0.701961 0.254902 0.000000
0.737255 0.250980 0.000000
0.764706 0.247059 0.000000
0.796078 0.243137 0.000000
0.823529 0.239216 0.000000
0.847059 0.231373 0.000000
0.874510 0.227451 0.000000
0.878431 0.227451 0.000000
0.878431 0.223529 0.000000
0.878431 0.219608 0.000000
0.878431 0.215686 0.000000
0.878431 0.211765 0.000000
0.878431 0.207843 0.000000
0.878431 0.207843 0.000000
0.000000 0.360784 0.000000
0.000000 0.356863 0.000000
0.000000 0.349020 0.000000
0.027451 0.345098 0.000000
0.066667 0.341176 0.000000
0.113725 0.341176 0.000000
0.156863 0.337255 0.000000
0.200000 0.333333 0.000000
0.243137 0.329412 0.000000
0.282353 0.325490 0.000000
0.321569 0.321569 0.000000
0.360784 0.317647 0.000000
0.400000 0.317647 0.000000
0.443137 0.313725 0.000000
0.482353 0.309804 0.000000
0.525490 0.305882 0.000000
0.568627 0.301961 0.000000
0.603922 0.298039 0.000000
0.650980 0.298039 0.000000
0.690196 0.294118 0.000000
0.729412 0.290196 0.000000
0.760784 0.286275 0.000000
0.788235 0.282353 0.000000
0.811765 0.278431 0.000000
0.839216 0.274510 0.000000
0.866667 0.274510 0.000000
0.878431 0.270588 0.000000
0.878431 0.262745 0.000000
0.878431 0.258824 0.000000
0.878431 0.254902 0.000000
0.878431 0.250980 0.000000
0.878431 0.247059 0.000000
0.878431 0.247059 0.000000
0.000000 0.400000 0.000000
0.000000 0.392157 0.000000
0.000000 0.388235 0.000000
0.011765 0.384314 0.000000
0.054902 0.380392 0.000000
0.101961 0.380392 0.000000
0.145098 0.376471 0.000000
0.188235 0.372549 0.000000
0.231373 0.368627 0.000000
0.270588 0.364706 0.000000
0.313725 0.360784 0.000000
0.352941 0.360784 0.000000
0.392157 0.356863 0.000000
0.431373 0.349020 0.000000
0.470588 0.345098 0.000000
0.513725 0.341176 0.000000
0.556863 0.337255 0.000000
0.596078 0.337255 0.000000
0.635294 0.333333 0.000000
0.682353 0.329412 0.000000
0.721569 0.325490 0.000000
0.752941 0.321569 0.000000
0.776471 0.317647 0.000000
0.803922 0.313725 0.000000
0.831373 0.313725 0.000000
0.862745 0.309804 0.000000
0.878431 0.305882 0.000000
0.878431 0.301961 0.000000
0.878431 0.298039 0.000000
0.878431 0.294118 0.000000
0.878431 0.290196 0.000000
0.878431 0.290196 0.000000
0.878431 0.286275 0.000000
0.000000 0.435294 0.000000
0.000000 0.431373 0.000000
0.000000 0.427451 0.000000
0.000000 0.423529 0.000000
0.050980 0.423529 0.000000
0.090196 0.419608 0.000000
0.133333 0.415686 0.000000
0.176471 0.411765 0.000000
0.219608 0.407843 0.000000
0.258824 0.403922 0.000000
0.301961 0.403922 0.000000
0.345098 0.400000 0.000000
0.380392 0.392157 0.000000
0.423529 0.388235 0.000000
0.458824 0.384314 0.000000
0.501961 0.380392 0.000000
0.545098 0.376471 0.000000
0.584314 0.376471 0.000000
0.627451 0.372549 0.000000
0.666667 0.368627 0.000000
0.717647 0.364706 0.000000
0.745098 0.360784 0.000000
0.772549 0.356863 0.000000
0.800000 0.356863 0.000000
0.827451 0.349020 0.000000
0.854902 0.345098 0.000000
0.878431 0.341176 0.000000
0.878431 0.337255 0.000000
0.878431 0.333333 0.000000
0.878431 0.329412 0.000000
0.878431 0.329412 0.000000
0.878431 0.325490 0.000000
0.878431 0.321569 0.000000
0.000000 0.470588 0.000000
0.000000 0.466667 0.000000
0.000000 0.462745 0.000000
0.000000 0.462745 0.000000
0.035294 0.458824 0.000000
0.082353 0.454902 0.000000
0.121569 0.450980 0.000000
0.164706 0.447059 0.000000
0.207843 0.443137 0.000000
0.254902 0.443137 0.000000
0.290196 0.439216 0.000000
0.333333 0.435294 0.000000
0.372549 0.431373 0.000000
0.407843 0.427451 0.000000
0.450980 0.423529 0.000000
0.486275 0.419608 0.000000
0.537255 0.419608 0.000000
0.572549 0.415686 0.000000
0.611765 0.411765 0.000000
0.658824 0.407843 0.000000
0.701961 0.403922 0.000000
0.737255 0.400000 0.000000
0.764706 0.400000 0.000000
0.792157 0.392157 0.000000
0.819608 0.388235 0.000000
0.847059 0.384314 0.000000
0.874510 0.380392 0.000000
0.878431 0.376471 0.000000
0.878431 0.372549 0.000000
0.878431 0.372549 0.000000
0.878431 0.368627 0.000000
0.878431 0.364706 0.000000
0.878431 0.360784 0.000000
0.000000 0.509804 0.000000
0.000000 0.505882 0.000000
0.000000 0.505882 0.000000
0.000000 0.501961 0.000000
0.027451 0.498039 0.000000
0.066667 0.494118 0.000000
0.113725 0.490196 0.000000
0.152941 0.486275 0.000000
0.200000 0.486275 0.000000
0.243137 0.478431 0.000000
0.282353 0.474510 0.000000
0.321569 0.470588 0.000000
0.360784 0.466667 0.000000
0.400000 0.462745 0.000000
0.439216 0.458824 0.000000
0.482353 0.458824 0.000000
0.525490 0.454902 0.000000
0.560784 0.450980 0.000000
0.603922 0.447059 0.000000
0.650980 0.443137 0.000000
0.690196 0.439216 0.000000
0.729412 0.439216 0.000000
0.756863 0.435294 0.000000
0.784314 0.431373 0.000000
0.811765 0.427451 0.000000
0.839216 0.423529 0.000000
0.866667 0.419608 0.000000
0.878431 0.415686 0.000000
0.878431 0.415686 0.000000
0.878431 0.411765 0.000000
0.878431 0.407843 0.000000
0.878431 0.403922 0.000000
0.878431 0.400000 0.000000
0.000000 0.545098 0.000000
0.000000 0.545098 0.000000
0.000000 0.541176 0.000000
0.000000 0.537255 0.000000
0.011765 0.533333 0.000000
0.054902 0.529412 0.000000
0.098039 0.525490 0.000000
0.141176 0.521569 0.000000
0.188235 0.521569 0.000000
0.231373 0.517647 0.000000
0.270588 0.513725 0.000000
0.313725 0.509804 0.000000
0.349020 0.505882 0.000000
0.388235 0.501961 0.000000
0.431373 0.501961 0.000000
0.470588 0.498039 0.000000
0.513725 0.494118 0.000000
0.549020 0.490196 0.000000
0.596078 0.486275 0.000000
0.635294 0.478431 0.000000
0.682353 0.478431 0.000000
0.721569 0.474510 0.000000
0.749020 0.470588 0.000000
0.776471 0.466667 0.000000
0.803922 0.462745 0.000000
0.831373 0.458824 0.000000
0.862745 0.454902 0.000000
0.878431 0.454902 0.000000
0.878431 0.450980 0.000000
0.878431 0.447059 0.000000
0.878431 0.443137 0.000000
0.878431 0.439216 0.000000
0.878431 0.435294 0.000000
0.000000 0.588235 0.000000
0.000000 0.584314 0.000000
0.000000 0.580392 0.000000
0.000000 0.576471 0.000000
0.000000 0.572549 0.000000
0.047059 0.564706 0.000000
0.086275 0.560784 0.000000
0.133333 0.560784 0.000000
0.176471 0.556863 0.000000
0.219608 0.552941 0.000000
0.258824 0.549020 0.000000
0.298039 0.545098 0.000000
0.341176 0.541176 0.000000
0.380392 0.541176 0.000000
0.423529 0.537255 0.000000
0.458824 0.533333 0.000000
0.501961 0.529412 0.000000
0.541176 0.525490 0.000000
0.584314 0.521569 0.000000
0.627451 0.521569 0.000000
0.666667 0.517647 0.000000
0.713725 0.513725 0.000000
0.745098 0.509804 0.000000
0.772549 0.505882 0.000000
0.800000 0.501961 0.000000
0.827451 0.498039 0.000000
0.854902 0.498039 0.000000
0.878431 0.494118 0.000000
0.878431 0.490196 0.000000
0.878431 0.486275 0.000000
0.878431 0.478431 0.000000
0.878431 0.474510 0.000000
0.878431 0.470588 0.000000
0.000000 0.631373 0.000000
0.000000 0.627451 0.000000
0.000000 0.623529 0.000000
0.000000 0.619608 0.000000
0.000000 0.615686 0.000000
0.031373 0.611765 0.000000
0.082353 0.611765 0.000000
0.121569 0.607843 0.000000
0.164706 0.600000 0.000000
0.207843 0.592157 0.000000
0.250980 0.588235 0.000000
0.286275 0.584314 0.000000
0.333333 0.584314 0.000000
0.372549 0.580392 0.000000
0.407843 0.576471 0.000000
0.450980 0.572549 0.000000
0.486275 0.564706 0.000000
0.529412 0.560784 0.000000
0.572549 0.560784 0.000000
0.611765 0.556863 0.000000
0.658824 0.552941 0.000000
0.698039 0.549020 0.000000
0.737255 0.545098 0.000000
0.764706 0.541176 0.000000
0.792157 0.537255 0.000000
0.819608 0.537255 0.000000
0.847059 0.533333 0.000000
0.874510 0.529412 0.000000
0.878431 0.525490 0.000000
0.878431 0.521569 0.000000
0.878431 0.517647 0.000000
0.878431 0.513725 0.000000
0.878431 0.513725 0.000000
0.000000 0.666667 0.000000
0.000000 0.662745 0.000000
0.000000 0.658824 0.000000
0.000000 0.654902 0.000000
0.000000 0.650980 0.000000
0.027451 0.647059 0.000000
0.066667 0.647059 0.000000
0.113725 0.639216 0.000000
0.152941 0.635294 0.000000
0.200000 0.631373 0.000000
0.243137 0.627451 0.000000
0.282353 0.623529 0.000000
0.321569 0.623529 0.000000
0.360784 0.619608 0.000000
0.400000 0.615686 0.000000
0.439216 0.611765 0.000000
0.482353 0.607843 0.000000
0.517647 0.600000 0.000000
0.564706 0.600000 0.000000
0.603922 0.592157 0.000000
0.650980 0.588235 0.000000
0.690196 0.584314 0.000000
0.729412 0.580392 0.000000
0.756863 0.576471 0.000000
0.784314 0.572549 0.000000
0.811765 0.572549 0.000000
0.839216 0.564706 0.000000
0.866667 0.560784 0.000000
0.878431 0.556863 0.000000
0.878431 0.552941 0.000000
0.878431 0.549020 0.000000
0.878431 0.545098 0.000000
0.878431 0.545098 0.000000
0.000000 0.705882 0.000000
0.000000 0.701961 0.000000
0.000000 0.698039 0.000000
0.000000 0.694118 0.000000
0.000000 0.690196 0.000000
0.011765 0.690196 0.000000
0.054902 0.686275 0.000000
0.098039 0.682353 0.000000
0.145098 0.678431 0.000000
0.188235 0.670588 0.000000
0.231373 0.666667 0.000000
0.270588 0.666667 0.000000
0.313725 0.662745 0.000000
0.349020 0.658824 0.000000
0.388235 0.654902 0.000000
0.431373 0.650980 0.000000
0.470588 0.647059 0.000000
0.509804 0.647059 0.000000
0.549020 0.639216 0.000000
0.596078 0.635294 0.000000
0.635294 0.631373 0.000000
0.682353 0.627451 0.000000
0.721569 0.623529 0.000000
0.749020 0.619608 0.000000
0.776471 0.619608 0.000000
0.803922 0.615686 0.000000
0.831373 0.611765 0.000000
0.862745 0.607843 0.000000
0.878431 0.600000 0.000000
0.878431 0.592157 0.000000
0.878431 0.588235 0.000000
0.878431 0.588235 0.000000
0.878431 0.584314 0.000000
0.000000 0.749020 0.000000
0.000000 0.741176 0.000000
0.000000 0.737255 0.000000
0.000000 0.733333 0.000000
0.000000 0.733333 0.000000
0.000000 0.729412 0.000000
0.047059 0.725490 0.000000
0.090196 0.721569 0.000000
0.133333 0.717647 0.000000
0.176471 0.709804 0.000000
0.219608 0.705882 0.000000
0.258824 0.705882 0.000000
0.298039 0.701961 0.000000
0.341176 0.698039 0.000000
0.380392 0.694118 0.000000
0.423529 0.690196 0.000000
0.458824 0.686275 0.000000
0.498039 0.686275 0.000000
0.541176 0.682353 0.000000
0.584314 0.678431 0.000000
0.627451 0.670588 0.000000
0.666667 0.666667 0.000000
0.713725 0.662745 0.000000
0.745098 0.662745 0.000000
0.772549 0.658824 0.000000
0.800000 0.654902 0.000000
0.827451 0.650980 0.000000
0.854902 0.647059 0.000000
0.878431 0.639216 0.000000
0.878431 0.635294 0.000000
0.878431 0.635294 0.000000
0.878431 0.631373 0.000000
0.878431 0.627451 0.000000
0.000000 0.788235 0.000000
0.000000 0.780392 0.000000
0.000000 0.776471 0.000000
0.000000 0.776471 0.000000
0.000000 0.772549 0.000000
0.000000 0.768627 0.000000
0.035294 0.764706 0.000000
0.082353 0.760784 0.000000
0.121569 0.756863 0.000000
0.164706 0.752941 0.000000
0.207843 0.752941 0.000000
0.250980 0.749020 0.000000
0.286275 0.741176 0.000000
0.333333 0.737255 0.000000
0.372549 0.733333 0.000000
0.407843 0.729412 0.000000
0.450980 0.729412 0.000000
0.486275 0.725490 0.000000
0.529412 0.721569 0.000000
0.572549 0.717647 0.000000
0.611765 0.709804 0.000000
0.658824 0.705882 0.000000
0.701961 0.705882 0.000000
0.737255 0.701961 0.000000
0.764706 0.698039 0.000000
0.792157 0.694118 0.000000
0.819608 0.690196 0.000000
0.847059 0.686275 0.000000
0.874510 0.682353 0.000000
0.878431 0.682353 0.000000
0.878431 0.678431 0.000000
0.878431 0.670588 0.000000
0.878431 0.666667 0.000000
0.000000 0.831373 0.000000
0.000000 0.827451 0.000000
0.000000 0.827451 0.000000
0.000000 0.823529 0.000000
0.000000 0.815686 0.000000
0.000000 0.811765 0.000000
0.027451 0.807843 0.000000
0.066667 0.803922 0.000000
0.113725 0.800000 0.000000
0.152941 0.800000 0.000000
0.196078 0.792157 0.000000
0.239216 0.788235 0.000000
0.282353 0.780392 0.000000
0.321569 0.776471 0.000000
0.360784 0.772549 0.000000
0.400000 0.772549 0.000000
0.439216 0.768627 0.000000
0.474510 0.764706 0.000000
0.517647 0.760784 0.000000
0.560784 0.756863 0.000000
0.603922 0.752941 0.000000
0.650980 0.752941 0.000000
0.690196 0.749020 0.000000
0.729412 0.741176 0.000000
0.756863 0.737255 0.000000
0.784314 0.733333 0.000000
0.811765 0.729412 0.000000
0.839216 0.725490 0.000000
0.866667 0.725490 0.000000
0.878431 0.721569 0.000000
0.878431 0.717647 0.000000
0.878431 0.709804 0.000000
0.878431 0.705882 0.000000
0.000000 0.858824 0.000000
0.000000 0.858824 0.000000
0.000000 0.854902 0.000000
0.000000 0.854902 0.000000
0.000000 0.850980 0.000000
0.000000 0.847059 0.000000
0.011765 0.843137 0.000000
0.054902 0.843137 0.000000
0.098039 0.843137 0.000000
0.141176 0.839216 0.000000
0.184314 0.835294 0.000000
0.231373 0.831373 0.000000
0.270588 0.827451 0.000000
0.313725 0.823529 0.000000
0.349020 0.823529 0.000000
0.388235 0.815686 0.000000
0.431373 0.811765 0.000000
0.462745 0.807843 0.000000
0.505882 0.803922 0.000000
0.545098 0.800000 0.000000
0.596078 0.800000 0.000000
0.635294 0.792157 0.000000
0.682353 0.788235 0.000000
0.721569 0.780392 0.000000
0.749020 0.776471 0.000000
0.776471 0.772549 0.000000
0.803922 0.768627 0.000000
0.831373 0.768627 0.000000
0.862745 0.764706 0.000000
0.878431 0.760784 0.000000
0.878431 0.756863 0.000000
0.878431 0.752941 0.000000
0.878431 0.749020 0.000000
0.000000 0.886275 0.000000
0.000000 0.882353 0.000000
0.000000 0.882353 0.000000
0.000000 0.878431 0.000000
0.000000 0.874510 0.000000
0.000000 0.874510 0.000000
0.000000 0.870588 0.000000
0.047059 0.870588 0.000000
0.086275 0.866667 0.000000
0.129412 0.862745 0.000000
0.176471 0.862745 0.000000
0.219608 0.858824 0.000000
0.258824 0.854902 0.000000
0.298039 0.854902 0.000000
0.341176 0.854902 0.000000
0.376471 0.850980 0.000000
0.419608 0.847059 0.000000
0.454902 0.843137 0.000000
0.494118 0.843137 0.000000
0.541176 0.843137 0.000000
0.584314 0.839216 0.000000
0.627451 0.835294 0.000000
0.666667 0.831373 0.000000
0.713725 0.827451 0.000000
0.745098 0.823529 0.000000
0.772549 0.815686 0.000000
0.800000 0.815686 0.000000
0.827451 0.811765 0.000000
0.854902 0.807843 0.000000
0.878431 0.803922 0.000000
0.878431 0.800000 0.000000
0.878431 0.792157 0.000000
0.878431 0.788235 0.000000
0.000000 0.913725 0.000000
0.000000 0.909804 0.000000
0.000000 0.905882 0.000000
0.000000 0.901961 0.000000
0.000000 0.901961 0.000000
0.000000 0.898039 0.000000
0.000000 0.898039 0.000000
0.031373 0.894118 0.000000
0.074510 0.894118 0.000000
0.121569 0.890196 0.000000
0.164706 0.886275 0.000000
0.207843 0.882353 0.000000
0.250980 0.882353 0.000000
0.286275 0.882353 0.000000
0.329412 0.878431 0.000000
0.368627 0.874510 0.000000
0.407843 0.874510 0.000000
0.443137 0.870588 0.000000
0.482353 0.866667 0.000000
0.529412 0.866667 0.000000
0.572549 0.862745 0.000000
0.611765 0.862745 0.000000
0.658824 0.858824 0.000000
0.698039 0.854902 0.000000
0.737255 0.854902 0.000000
0.764706 0.854902 0.000000
0.792157 0.850980 0.000000
0.819608 0.847059 0.000000
0.847059 0.843137 0.000000
0.874510 0.843137 0.000000
0.878431 0.839216 0.000000
0.878431 0.835294 0.000000
0.878431 0.835294 0.000000
0.000000 0.937255 0.000000
0.000000 0.933333 0.000000
0.000000 0.933333 0.000000
0.000000 0.929412 0.000000
0.000000 0.925490 0.000000
0.000000 0.925490 0.000000
0.000000 0.921569 0.000000
0.023529 0.921569 0.000000
0.066667 0.917647 0.000000
0.113725 0.913725 0.000000
0.152941 0.913725 0.000000
0.196078 0.909804 0.000000
0.239216 0.909804 0.000000
0.278431 0.905882 0.000000
0.317647 0.901961 0.000000
0.360784 0.901961 0.000000
0.400000 0.898039 0.000000
0.431373 0.894118 0.000000
0.474510 0.894118 0.000000
0.517647 0.894118 0.000000
0.560784 0.890196 0.000000
0.603922 0.886275 0.000000
0.647059 0.882353 0.000000
0.690196 0.882353 0.000000
0.729412 0.882353 0.000000
0.756863 0.878431 0.000000
0.784314 0.874510 0.000000
0.811765 0.874510 0.000000
0.839216 0.870588 0.000000
0.862745 0.866667 0.000000
0.878431 0.862745 0.000000
0.878431 0.862745 0.000000
0.878431 0.862745 0.000000
0.000000 0.960784 0.000000
0.000000 0.960784 0.000000
0.000000 0.956863 0.000000
0.000000 0.952941 0.000000
0.000000 0.952941 0.000000
0.000000 0.952941 0.000000
0.000000 0.949020 0.000000
0.011765 0.945098 0.000000
0.054902 0.941176 0.000000
0.098039 0.941176 0.000000
0.141176 0.937255 0.000000
0.184314 0.937255 0.000000
0.227451 0.933333 0.000000
0.266667 0.933333 0.000000
0.313725 0.929412 0.000000
0.349020 0.925490 0.000000
0.388235 0.921569 0.000000
0.427451 0.921569 0.000000
0.462745 0.921569 0.000000
0.505882 0.917647 0.000000
0.545098 0.913725 0.000000
0.592157 0.913725 0.000000
0.631373 0.909804 0.000000
0.682353 0.909804 0.000000
0.721569 0.905882 0.000000
0.749020 0.901961 0.000000
0.776471 0.901961 0.000000
